powerbook5_4/2022-06-13/srgb_native_gamma_24/13_jun_2022_srgb_powerbook_g4_native_gamma_luminance_preserve.ti3
CTI3   

DESCRIPTOR "Argyll Calibration Target chart information 3"
ORIGINATOR "Argyll dispread"
CREATED "Mon Jun 13 22:22:20 2022"
DEVICE_CLASS "DISPLAY"
COLOR_REP "RGB_XYZ"
TARGET_INSTRUMENT "X-Rite i1 DisplayPro, ColorMunki Display"
DISPLAY_TYPE_REFRESH "NO"
DISPLAY_TYPE_BASE_ID "1"
INSTRUMENT_TYPE_SPECTRAL "NO"
LUMINANCE_XYZ_CDM2 "78.314578 82.447106 89.696845"
NORMALIZED_TO_Y_100 "YES"
VIDEO_LUT_CALIBRATION_POSSIBLE "YES"

NUMBER_OF_FIELDS 7
BEGIN_DATA_FORMAT
SAMPLE_ID RGB_R RGB_G RGB_B XYZ_X XYZ_Y XYZ_Z 
END_DATA_FORMAT

NUMBER_OF_SETS 836
BEGIN_DATA
1 100.0000 100.0000 100.0000 94.98766 100.0000 108.7932 
2 39.60025 0.00000 0.00000 4.067121 2.479846 1.053857 
3 51.23213 0.00000 0.00000 7.043605 4.135279 1.343484 
4 59.22988 19.30410 31.34008 12.49770 8.207088 7.632191 
5 0.00000 86.90899 20.26359 24.57307 42.05612 11.76866 
6 13.46706 88.08354 22.36019 26.02838 44.16915 12.77557 
7 17.30515 100.0000 31.78814 36.09462 59.91022 18.50625 
8 0.00000 0.00000 71.98058 7.200457 5.516340 33.58279 
9 16.81811 0.00000 82.98448 11.51707 8.820657 52.11804 
10 18.32074 17.01863 100.0000 20.59922 17.81668 91.36590 
11 51.26895 19.59589 100.0000 27.87198 22.30857 93.16563 
12 53.46364 35.70716 100.0000 31.32574 27.32079 94.31514 
13 66.49950 44.72248 100.0000 39.77735 34.71985 96.13557 
14 88.33274 100.0000 100.0000 85.13705 94.63186 108.1175 
15 75.72254 0.00000 0.00000 17.02568 9.666129 2.216711 
16 82.70985 0.00000 16.16562 21.29446 12.06113 3.640561 
17 89.34815 10.59635 25.96354 27.45457 15.76402 6.483668 
18 100.0000 13.56827 29.08798 37.65484 21.59463 8.596624 
19 100.0000 0.00000 12.96134 34.94510 19.55490 3.983461 
20 100.0000 0.00000 25.12398 35.49476 19.96646 6.723082 
21 100.0000 0.00000 37.57789 36.59541 20.78055 12.15300 
22 100.0000 11.92838 46.13284 39.34281 22.79469 18.24263 
23 100.0000 0.00000 49.48357 38.24557 22.01873 20.39851 
24 100.0000 0.00000 62.16930 40.73726 23.91088 32.68614 
25 100.0000 13.03572 65.23003 43.23046 25.75403 35.87560 
26 100.0000 27.04558 75.05191 48.42881 30.94361 49.46070 
27 47.18709 68.58071 88.56511 35.29246 40.62972 72.23566 
28 49.64192 83.41522 100.0000 51.58650 63.06832 102.3853 
29 12.65826 13.07018 20.21387 1.377853 1.376085 2.590767 
30 24.12105 15.93196 29.06903 3.146080 2.685298 5.471171 
31 56.34936 50.78912 77.37506 26.95688 25.79814 51.08003 
32 67.23541 64.46371 81.46435 38.63061 38.80219 60.32967 
33 84.39015 100.0000 83.63850 74.11352 84.66088 73.35065 
34 83.34103 18.38844 0.00000 24.19684 14.29408 2.948141 
35 85.53729 48.55999 31.36508 33.68254 26.33302 11.32778 
36 100.0000 75.97514 69.34435 65.33605 59.91802 48.97159 
37 100.0000 88.16955 72.07236 74.29230 74.24732 55.10872 
38 33.73300 46.19677 12.01769 8.588093 11.06598 3.675597 
39 34.09378 61.36455 34.05495 15.09976 21.17901 11.67361 
40 46.22300 65.98225 48.06293 22.50067 28.45831 21.34169 
41 48.41618 77.13905 53.79299 30.12795 39.82935 28.45436 
42 74.27290 74.80885 64.90496 43.82802 46.74711 40.89482 
43 83.81905 74.96399 71.78588 51.86749 51.72830 50.30343 
44 10.16290 52.34590 10.63778 7.074780 11.94942 3.781882 
45 15.42191 57.75234 32.42043 10.95928 17.40008 9.910362 
46 74.54351 94.04903 39.59229 52.43526 64.71023 23.73028 
47 50.92142 100.0000 0.00000 40.83419 60.12718 13.55359 
48 52.78558 100.0000 18.78953 43.39361 63.17219 15.59166 
49 61.13795 100.0000 36.53564 48.98900 67.30308 22.23883 
50 75.65487 65.93456 25.08945 33.10464 33.25150 10.80652 
51 77.26992 74.92251 46.54489 41.60059 44.36822 23.85438 
52 76.18808 100.0000 100.0000 76.95458 90.10109 107.4418 
53 0.00000 0.00000 58.12631 4.460503 3.435028 20.22483 
54 16.76053 0.00000 65.77843 6.802744 5.107947 29.26226 
55 50.56612 0.00000 67.02538 13.44248 8.971537 33.71776 
56 67.10130 33.89736 67.54001 24.32306 18.34328 37.11098 
57 89.92376 49.48012 67.94767 43.42736 33.72417 41.53856 
58 90.97280 61.02353 78.38309 52.04362 44.29297 57.62963 
59 100.0000 84.69534 85.44626 76.35551 74.01816 75.26164 
60 50.89880 45.65960 0.00000 12.68041 12.64254 3.372841 
61 68.11784 56.58264 0.00000 23.48770 22.25854 5.321150 
62 84.87260 66.79420 0.00000 37.46973 34.62890 7.644639 
63 85.45413 73.30975 34.16682 44.50856 44.16910 16.36035 
64 39.04833 31.63763 31.31424 7.830669 7.453530 7.538501 
65 56.03732 31.90629 57.75326 16.75550 13.21253 25.58197 
66 74.44068 34.57700 58.47445 26.67443 19.35285 27.96659 
67 86.50602 35.47889 49.37512 32.89443 22.58887 20.87651 
68 100.0000 70.14006 55.25882 58.36187 51.13999 32.00204 
69 39.69235 54.21608 0.00000 11.48621 14.73251 4.008317 
70 39.71916 58.22579 16.82288 13.76704 18.46056 6.030591 
71 54.48774 70.75773 30.55848 25.48338 31.97019 12.69490 
72 58.71336 73.08348 16.00871 26.93984 33.21125 9.099528 
73 66.49591 86.08630 14.63228 38.41405 48.17841 11.88607 
74 62.72091 100.0000 0.00000 45.92156 63.01272 14.00466 
75 67.68572 100.0000 14.98621 49.93458 66.48041 15.49285 
76 0.00000 100.0000 25.62919 34.66335 58.73664 16.02232 
77 0.00000 100.0000 38.02026 36.06931 60.13400 20.49927 
78 0.00000 100.0000 75.94552 43.20196 66.31265 51.59346 
79 0.00000 100.0000 87.84604 47.19408 69.72557 69.52980 
80 37.11003 100.0000 86.73327 52.10418 72.75168 74.46375 
81 63.49847 100.0000 100.0000 69.51657 85.99360 106.7665 
82 0.00000 14.68076 63.37174 5.668182 4.722123 24.49374 
83 17.24656 33.72193 64.64874 9.361210 9.749852 29.45255 
84 20.05510 43.47235 81.38039 16.32697 17.37590 52.39695 
85 25.31735 59.98208 86.35683 24.70116 29.47482 63.66983 
86 72.94196 0.00000 54.44580 19.80562 11.98555 22.33880 
87 82.90934 0.00000 68.66359 28.28205 17.30779 37.92574 
88 85.05265 33.46712 78.52929 38.25622 26.69668 53.50152 
89 84.45809 35.81130 100.0000 47.71844 36.43558 96.11504 
90 28.75042 28.45392 42.81728 6.439438 6.349676 12.46063 
91 36.41243 29.13117 54.36619 9.710839 8.533984 21.05760 
92 78.35240 15.83880 14.40839 20.70175 12.21215 3.423645 
93 86.94392 23.38573 15.24379 27.59898 16.86666 4.335058 
94 100.0000 35.50364 25.35955 41.52792 26.79207 8.324415 
95 73.98115 32.32891 0.00000 20.67130 14.11648 3.214539 
96 72.64776 49.85877 12.40381 24.24303 20.89517 5.431487 
97 82.21272 56.43318 18.85218 32.90364 28.36150 7.850409 
98 81.65949 56.86986 40.99098 34.98876 30.55635 17.26731 
99 26.00899 25.19997 0.00000 3.149596 3.366404 1.343735 
100 42.49659 30.48608 0.00000 7.074945 6.288171 1.941765 
101 58.19295 30.34185 0.00000 12.16977 9.093301 2.412338 
102 62.55268 41.98756 43.91662 19.70145 16.84960 15.68590 
103 61.72667 82.56300 57.92722 39.94768 49.45370 34.52038 
104 65.59553 88.24871 72.87807 50.02760 60.96780 53.30712 
105 67.03653 42.99951 0.00000 18.85859 15.50828 3.759196 
106 82.07782 50.94878 0.00000 29.56180 23.62456 5.211170 
107 100.0000 59.86939 0.00000 47.29426 36.84022 7.212069 
108 20.44230 44.53381 58.51505 10.97839 13.39180 25.05007 
109 23.12720 78.71220 71.02063 28.93348 41.43246 44.02102 
110 40.71736 84.86659 84.65692 41.32116 54.35045 67.62628 
111 6.892000 28.87877 89.81449 15.12735 13.71700 63.34795 
112 17.02608 32.46044 100.0000 22.45361 21.29890 92.06085 
113 26.49390 46.56775 100.0000 27.32748 28.40227 94.34290 
114 33.01190 59.06240 100.0000 33.02863 37.10001 96.41145 
115 85.34946 68.01783 100.0000 61.14055 57.52396 100.9482 
116 33.29984 13.73491 65.53381 9.458912 7.011512 30.52464 
117 33.16889 37.94790 87.12711 19.56313 18.44076 63.59425 
118 19.83291 19.14958 82.49872 12.52581 10.25092 52.35033 
119 42.51813 18.30156 85.15475 17.74626 13.46127 59.52501 
120 0.00000 0.00000 35.00399 1.624964 1.328632 6.324104 
121 0.00000 0.00000 46.60894 2.794606 2.192837 12.05846 
122 0.00000 0.00000 100.0000 19.01118 15.95267 89.33996 
123 0.00000 14.30480 100.0000 19.38376 16.59837 89.56811 
124 83.60841 17.63563 100.0000 43.45810 30.76829 94.73926 
125 28.83372 68.51270 0.00000 14.69639 22.93672 5.989781 
126 43.78753 70.22084 0.00000 18.68855 25.78797 6.545216 
127 68.29998 71.63987 0.00000 29.84506 32.94549 7.788700 
128 86.70879 77.03611 13.07096 44.72455 44.96851 10.46833 
129 0.00000 100.0000 51.43547 37.91475 61.84518 28.09952 
130 0.00000 100.0000 63.45529 39.99378 63.61723 37.10100 
131 17.15728 100.0000 64.85883 41.52736 64.72180 41.08000 
132 0.00000 76.57760 54.97787 22.19177 35.13998 24.95653 
133 13.36635 78.01031 60.75120 24.81456 37.94830 31.69359 
134 36.72225 80.93584 61.10711 30.40915 42.98608 35.08752 
135 49.36478 87.86501 74.94998 42.96265 56.64463 54.42058 
136 100.0000 46.91551 0.00000 42.97303 29.73399 5.558952 
137 100.0000 73.82830 0.00000 53.30330 46.91048 9.504823 
138 100.0000 82.65319 17.53441 59.93758 57.71295 13.16546 
139 32.47542 0.00000 73.47048 10.97032 7.936060 40.75644 
140 32.96186 0.00000 87.76967 15.53699 11.66455 62.65558 
141 0.00000 58.69114 0.00000 8.454881 14.67301 4.109884 
142 0.00000 73.43892 0.00000 14.39090 25.03827 6.511617 
143 16.26577 75.77015 12.31725 17.03658 28.98861 7.871359 
144 19.34610 95.15631 74.12665 40.81019 61.40153 51.33624 
145 17.72841 100.0000 82.67740 46.77833 69.09929 64.59702 
146 100.0000 0.00000 0.00000 34.68373 19.40118 3.358632 
147 100.0000 15.25927 0.00000 36.84515 20.99963 3.588533 
148 100.0000 100.0000 12.77605 72.74474 78.75797 16.49312 
149 100.0000 100.0000 25.99514 74.30218 80.67693 19.69579 
150 100.0000 100.0000 39.00696 75.92017 82.27523 25.60329 
151 11.64634 46.81457 100.0000 25.61061 27.17693 93.21945 
152 17.46290 60.32972 100.0000 31.16026 36.53694 95.74271 
153 0.00000 13.63272 31.78752 1.721530 1.709463 5.473646 
154 15.64724 18.05992 41.67025 3.441230 3.197170 10.41136 
155 15.88626 18.60571 58.61824 5.989633 5.147646 22.60537 
156 33.08727 29.30574 70.90423 12.46845 10.93833 37.82655 
157 51.87441 34.42160 80.37457 21.58818 17.90667 53.94625 
158 62.66517 42.76003 89.46326 31.66029 26.82224 71.45629 
159 100.0000 47.73994 35.34141 45.75767 32.88977 13.66936 
160 100.0000 61.48909 39.14058 51.27742 41.68047 17.70985 
161 100.0000 62.96474 67.77765 58.00716 48.07846 44.70513 
162 22.41416 84.30502 15.05054 23.11280 38.55016 10.27874 
163 25.48234 92.51702 23.52421 30.72045 50.50926 14.30351 
164 18.49407 84.51092 0.00000 21.77905 36.79616 9.071314 
165 37.26505 84.42178 0.00000 24.44035 37.90935 9.263272 
166 55.17329 86.35178 9.315094 32.42847 44.26406 10.71721 
167 46.77176 0.00000 48.60097 8.788003 5.679274 16.41207 
168 64.61241 0.00000 85.80290 24.21679 16.38897 62.21055 
169 100.0000 35.79719 86.82542 54.28955 37.10529 68.98154 
170 100.0000 100.0000 100.0000 95.02902 100.0902 108.7938 
171 34.34916 0.00000 58.40938 7.843550 5.455248 23.86278 
172 49.11542 0.00000 81.88925 17.27579 12.11414 54.13792 
173 60.82752 20.44088 81.95037 23.27231 16.50639 55.71848 
174 0.00000 0.00000 22.54997 0.910177 0.796980 2.801358 
175 0.00000 14.93718 84.30231 11.05944 8.974402 50.55315 
176 0.00000 38.48700 84.76511 14.49917 14.91442 52.83127 
177 14.99034 24.67029 30.44088 2.998225 3.528890 5.802384 
178 19.08052 42.16557 33.38938 6.750983 9.466688 8.362453 
179 32.92956 45.84548 43.19587 10.87746 13.19814 14.29828 
180 44.40247 59.35368 57.11846 20.54317 24.38305 27.38259 
181 88.23262 0.00000 0.00000 24.79281 13.95934 2.787827 
182 100.0000 19.52784 15.31497 37.84002 22.03265 4.757652 
183 0.00000 61.18269 17.09986 10.25101 17.59496 5.793328 
184 0.00000 73.61788 28.04295 17.06856 28.94862 10.70207 
185 14.32593 34.36936 0.00000 3.149317 4.798977 1.730799 
186 31.92997 38.52218 0.00000 5.922551 7.149999 2.240549 
187 48.46209 44.14088 16.41574 12.17419 12.61793 4.537759 
188 58.69833 55.87186 20.54185 19.88495 21.07487 7.156112 
189 64.22686 81.25523 34.12466 36.56674 45.18663 16.97777 
190 0.00000 100.0000 100.0000 54.70134 77.25863 102.4983 
191 13.31213 100.0000 100.0000 55.41882 77.80117 103.8442 
192 51.65206 100.0000 100.0000 64.11894 82.93513 106.0914 
193 0.00000 0.00000 86.07768 11.20789 8.706761 53.01461 
194 13.73917 0.00000 100.0000 19.58629 16.51793 90.68671 
195 27.86799 0.00000 100.0000 21.08941 17.45582 91.58450 
196 36.04760 14.63226 100.0000 23.15012 19.13924 92.26240 
197 82.75928 51.75202 100.0000 51.70309 44.29415 97.95978 
198 100.0000 62.06723 100.0000 69.92944 59.19199 100.6994 
199 0.00000 13.25978 0.00000 0.729437 0.937254 0.782626 
200 0.00000 16.56132 15.93866 1.113880 1.428859 1.798284 
201 0.00000 19.08297 45.32613 3.326611 3.307066 11.61040 
202 11.95633 30.53426 51.55691 5.951811 6.628141 17.32796 
203 10.11717 54.39444 84.73442 19.85939 23.82717 56.91971 
204 30.17553 74.26940 100.0000 40.26022 50.11982 99.40797 
205 35.10017 87.47520 100.0000 50.04920 65.41224 102.6373 
206 0.00000 68.59460 42.46298 16.22482 26.32167 15.84326 
207 0.00000 88.54075 54.54183 29.76917 48.03651 27.25294 
208 35.92781 100.0000 58.72912 43.70469 65.59234 36.92133 
209 47.25901 100.0000 66.88481 49.07276 69.19407 46.66367 
210 100.0000 100.0000 76.21651 84.54543 89.56797 63.48933 
211 100.0000 100.0000 88.23162 88.88298 93.50489 83.22118 
212 0.00000 0.00000 0.00000 0.467979 0.470330 0.667378 
213 0.00000 100.0000 0.00000 32.30897 55.33364 12.69423 
214 13.25232 100.0000 0.00000 32.69114 55.54565 12.74045 
215 26.35892 100.0000 0.00000 34.14658 56.44319 12.90619 
216 37.84788 100.0000 15.28843 38.05337 59.87053 14.41333 
217 83.33075 83.20448 0.00000 45.05348 48.37082 10.74485 
218 100.0000 87.11890 0.00000 61.45909 60.57390 12.44153 
219 100.0000 87.41775 35.64511 65.96089 66.46530 21.38919 
220 0.00000 100.0000 12.97366 33.39727 56.95351 13.46694 
221 18.25722 100.0000 15.79657 34.52006 57.92259 14.07384 
222 32.26536 100.0000 29.88943 38.17121 60.99698 18.16337 
223 47.02167 100.0000 32.35213 42.63984 63.65699 19.64500 
224 83.09754 21.98039 57.15719 29.22892 18.55149 26.23333 
225 100.0000 38.71015 60.14152 47.19964 31.78768 32.34382 
226 62.60084 0.00000 14.77228 11.21848 6.491509 2.638950 
227 69.52708 0.00000 26.33339 14.55952 8.446816 5.631263 
228 80.67027 23.41040 25.77600 23.91216 14.96954 6.565909 
229 82.93123 34.17888 38.44137 28.35719 19.53113 12.98793 
230 46.62696 14.21053 14.20462 6.605592 4.299172 2.111679 
231 64.67254 21.02926 16.09213 14.23361 9.159896 3.355726 
232 63.71593 90.15166 43.81891 43.59726 56.68748 24.45942 
233 72.11886 100.0000 71.81606 62.51116 77.06128 54.96313 
234 0.00000 85.31656 38.49415 25.25467 42.21745 17.22507 
235 29.32492 85.04493 37.83544 27.40544 42.95243 17.98884 
236 18.75546 83.69498 45.17352 26.10698 41.84226 21.61412 
237 39.71451 100.0000 44.83130 42.08611 63.95133 26.34737 
238 53.46206 100.0000 50.22947 47.77344 67.43834 30.92278 
239 61.29149 36.70163 12.07622 14.94159 11.97456 3.568577 
240 70.59899 44.09408 33.41001 22.95681 18.94737 10.58344 
241 77.03252 50.01429 80.01035 38.05064 31.98942 57.13461 
242 56.59801 0.00000 100.0000 27.83748 21.33711 92.93304 
243 65.88235 14.22587 100.0000 32.89043 24.64395 93.61195 
244 68.82295 30.08031 100.0000 37.03355 29.15945 94.75390 
245 32.33635 69.52512 64.97723 23.89772 32.31947 36.46853 
246 61.06984 100.0000 64.51991 54.24933 71.89460 44.90681 
247 84.38367 100.0000 66.36802 68.76059 80.08653 48.91268 
248 0.00000 86.28806 0.00000 21.65121 37.63657 9.253901 
249 39.06448 100.0000 0.00000 36.92118 57.96733 13.17930 
250 75.44238 100.0000 0.00000 52.87747 66.72724 14.55278 
251 84.80219 100.0000 18.22610 60.98700 72.76833 16.82137 
252 80.66900 86.99690 27.79472 49.27966 56.47887 16.64854 
253 83.99580 88.31019 49.15016 55.46684 62.21275 29.11633 
254 13.49141 54.24358 0.00000 7.440394 12.48035 3.589165 
255 19.62993 63.97199 14.86388 12.23453 20.06781 6.193682 
256 24.79450 73.26767 37.43308 19.62305 30.61173 15.25973 
257 0.00000 57.62416 31.51175 10.32612 16.97876 9.171633 
258 0.00000 57.73029 65.05709 15.12239 21.06886 30.17532 
259 16.13038 62.85113 65.97015 18.29923 25.40922 34.06133 
260 14.51731 72.93889 100.0000 37.25428 47.38745 98.05281 
261 0.00000 27.76291 100.0000 20.85785 19.26613 90.25747 
262 0.00000 40.36481 100.0000 23.36280 23.70507 91.40614 
263 0.00000 52.79651 100.0000 27.16130 30.46153 93.01781 
264 0.00000 64.05806 100.0000 31.84905 38.65321 94.86236 
265 0.00000 87.85105 100.0000 45.93971 62.89535 99.94480 
266 26.39815 100.0000 100.0000 57.15627 78.97505 104.7431 
267 39.62078 100.0000 100.0000 60.09994 80.68272 105.4172 
268 36.32667 33.84852 20.10447 6.869176 7.094138 4.025412 
269 45.45748 44.15223 31.92488 12.29148 13.15538 8.926214 
270 66.51915 65.73880 36.83116 29.46065 31.81694 15.32554 
271 88.62107 66.03864 57.66535 46.90209 42.55314 32.40785 
272 71.94324 0.00000 100.0000 34.24851 24.90164 93.83217 
273 85.80314 0.00000 100.0000 42.32068 29.39191 94.50803 
274 100.0000 0.00000 100.0000 54.05322 35.95987 95.40999 
275 100.0000 12.35580 100.0000 55.79726 37.25903 95.63779 
276 52.43716 81.59915 0.00000 27.88625 38.05454 9.181420 
277 66.08243 86.92823 0.00000 37.86401 47.58984 10.99537 
278 26.08374 50.66313 0.00000 7.883582 11.56679 3.335064 
279 27.88913 51.33911 23.54339 9.513389 13.68085 6.303870 
280 55.29276 57.12973 40.22718 20.98392 23.07165 15.42052 
281 57.05378 71.07941 100.0000 46.71954 51.69355 100.0650 
282 71.58764 74.13374 100.0000 55.97758 58.95475 101.6565 
283 0.00000 26.52956 0.00000 1.752058 2.771606 1.236701 
284 0.00000 43.33748 0.00000 4.384013 7.470238 2.384933 
285 0.00000 48.40964 13.26211 6.061685 10.32871 3.613344 
286 0.00000 70.00161 72.91768 22.57963 32.24680 41.22630 
287 0.00000 83.04072 84.73785 33.68728 48.32548 60.21326 
288 25.31275 90.33600 91.32336 44.42149 61.40218 80.44614 
289 55.91010 62.85146 0.00000 19.74475 22.85804 5.721738 
290 87.83837 100.0000 0.00000 61.40746 71.46873 15.11438 
291 100.0000 100.0000 0.00000 71.74186 77.17768 15.60516 
292 43.97591 15.17106 39.06744 7.651329 5.288281 10.30563 
293 53.64583 14.07486 50.92454 12.14671 8.031070 18.78449 
294 65.97239 15.32140 63.01021 19.73557 12.80099 30.91778 
295 42.36621 0.00000 32.20316 5.818122 3.667049 6.680659 
296 71.61582 0.00000 40.50770 17.10854 10.10352 12.23183 
297 79.31824 19.07655 40.66636 23.54529 14.52055 13.20637 
298 100.0000 38.12990 46.16050 44.57779 29.70474 19.78201 
299 100.0000 53.60079 52.04029 50.36693 38.42585 26.04974 
300 63.28228 0.00000 0.00000 11.07354 6.371449 1.716006 
301 65.64566 15.37070 0.00000 13.45403 8.114043 2.044219 
302 87.32463 36.98225 0.00000 29.66163 19.89621 4.091364 
303 100.0000 51.88718 20.04915 45.70450 33.76307 8.512414 
304 42.82173 0.00000 100.0000 23.94673 19.13178 92.25874 
305 42.67225 69.20694 100.0000 40.52218 47.09870 98.93164 
306 0.00000 34.36456 69.13414 9.245499 9.929947 31.22540 
307 16.44087 46.30047 72.10290 14.08754 16.45496 39.14358 
308 0.00000 51.89150 75.55073 15.66873 19.49999 41.31383 
309 33.29994 60.29047 76.16881 22.98516 27.57385 48.87341 
310 60.54806 36.70519 30.73560 15.76218 12.86785 8.181866 
311 71.60900 100.0000 29.11160 53.89933 69.72786 19.82189 
312 83.60279 100.0000 37.41158 62.67237 75.03701 24.19684 
313 100.0000 100.0000 50.99960 78.20885 84.26872 34.68298 
314 100.0000 100.0000 63.74805 81.07797 86.66987 47.34761 
315 100.0000 30.95596 0.00000 39.44703 24.14955 4.254964 
316 100.0000 39.30669 12.04695 41.46503 27.21830 5.522276 
317 100.0000 37.10525 100.0000 60.93308 44.13156 97.24445 
318 100.0000 49.18696 100.0000 64.55920 50.01589 98.62504 
319 30.79928 0.00000 42.76197 4.739592 3.260407 11.71275 
320 30.40956 12.12202 52.51563 6.488751 4.788264 18.62484 
321 0.00000 28.16263 30.54523 3.004097 4.111836 5.613070 
322 0.00000 35.70465 47.75927 5.869793 7.571873 13.92136 
323 17.94605 69.73810 81.11057 26.11026 34.78167 55.42122 
324 30.95855 69.36922 81.70070 28.37920 36.18890 57.88809 
325 21.70922 16.18716 17.77121 2.107690 1.970073 2.191553 
326 47.00695 24.01655 19.89020 8.124309 6.162084 3.731246 
327 72.08975 30.60291 35.49896 21.11610 14.68247 10.84084 
328 72.26817 32.58699 89.61428 34.24570 25.54908 72.10534 
329 34.58316 40.46558 54.50816 11.56662 12.27988 21.92742 
330 41.60980 42.81108 67.33388 16.63681 16.42344 36.00162 
331 42.17973 50.27743 86.60907 25.03293 25.37688 64.97592 
332 51.80703 54.96156 100.0000 36.52370 37.01753 96.61896 
333 68.20700 59.46731 100.0000 46.40910 44.94299 98.43762 
334 0.00000 84.64064 69.59266 30.39952 46.45016 40.12173 
335 15.43547 86.11541 74.79978 33.75153 49.83310 49.92027 
336 100.0000 64.77507 14.03232 49.89459 41.12282 8.939891 
337 100.0000 70.00104 29.04482 54.16372 47.46937 14.51504 
338 100.0000 80.37766 46.48938 62.73245 59.80905 26.56960 
339 49.41061 0.00000 19.53229 6.846081 4.099304 3.078087 
340 57.39567 0.00000 34.67754 10.35288 6.234080 8.365763 
341 59.24997 0.00000 54.03624 13.67930 8.581472 21.47387 
342 66.52084 0.00000 70.46022 20.43342 13.09560 39.56880 
343 81.90055 0.00000 84.17031 32.56355 20.88754 61.09286 
344 100.0000 16.02096 84.26467 49.40007 30.83545 63.34630 
345 100.0000 69.10670 84.09920 66.16560 57.49540 69.33450 
346 100.0000 75.10245 100.0000 77.14711 71.18888 103.2387 
347 0.00000 41.22772 37.50706 5.915278 8.733103 9.299625 
348 0.00000 52.16652 47.22170 10.04375 14.98851 15.62022 
349 33.68973 100.0000 72.93697 46.86292 68.36977 53.16366 
350 52.84571 100.0000 81.76317 55.61634 74.13391 66.84262 
351 67.24835 100.0000 86.06537 63.93342 79.32322 75.81341 
352 0.00000 32.41340 14.92565 2.745091 4.381830 2.396043 
353 0.00000 44.81686 25.70701 5.786219 9.362229 5.570308 
354 7.806245 49.68744 36.13424 8.298846 12.90934 9.950181 
355 19.61339 58.72041 49.10346 13.66224 19.82466 19.06072 
356 25.67566 67.13047 53.14750 18.92812 27.45374 24.40671 
357 52.57871 73.47158 73.48034 34.29661 41.12640 49.61578 
358 55.29043 86.88130 83.56741 47.69729 59.74961 67.86985 
359 65.45377 86.69676 100.0000 60.52744 70.43805 103.9793 
360 85.07663 0.00000 35.09703 24.05845 13.82305 9.725780 
361 100.0000 24.32638 49.55806 42.05207 25.62705 21.10522 
362 100.0000 25.55669 61.71662 44.54753 27.65509 32.77437 
363 34.41609 0.00000 14.05352 3.317296 2.094550 1.674535 
364 39.41941 16.50027 26.22704 5.647784 4.078563 4.841600 
365 13.24230 0.00000 0.00000 0.758555 0.635162 0.711406 
366 14.52923 0.00000 33.41823 1.955367 1.512511 6.285973 
367 17.40448 0.00000 50.03120 4.110533 3.072252 15.87681 
368 49.15440 45.77677 54.10601 17.08423 17.12265 23.44537 
369 49.99648 50.70371 64.71415 20.89661 21.40322 34.16546 
370 60.26172 53.65648 64.36012 26.25310 25.76430 35.30108 
371 63.56932 66.53253 70.48209 35.07392 37.59107 45.32370 
372 74.01133 81.47585 80.16168 52.78257 57.91873 62.90141 
373 100.0000 0.00000 75.28509 44.14730 26.59101 49.44108 
374 100.0000 0.00000 87.60739 48.15471 29.93615 68.49698 
375 100.0000 24.69141 100.0000 58.03774 39.83325 96.32286 
376 83.67552 70.40334 83.98852 53.44698 51.28813 67.76808 
377 83.76460 84.77934 100.0000 70.33678 74.51635 104.6436 
378 100.0000 87.81479 100.0000 85.89515 85.51525 106.2401 
379 0.00000 0.00000 11.03211 0.543410 0.529559 1.021242 
380 16.82974 0.00000 15.65777 1.166372 0.902020 1.664113 
381 28.70087 0.00000 26.99043 2.992310 2.024155 4.567615 
382 86.53176 0.00000 53.72959 27.72313 16.37239 23.13204 
383 88.55128 21.16603 68.62486 35.56361 22.45231 39.12836 
384 65.14852 21.20904 47.22111 17.10372 11.33740 16.83512 
385 75.40793 46.22463 53.19154 29.14662 23.93882 24.38498 
386 76.30781 58.57977 53.17788 34.35017 31.63570 26.20328 
387 14.52372 15.18733 0.00000 1.182295 1.292822 0.870198 
388 15.63828 35.47488 18.93848 3.885699 5.681686 3.323442 
389 82.49165 37.98591 17.84304 27.44504 19.43889 5.472267 
390 100.0000 40.47926 73.95097 51.18567 35.36182 49.03970 
391 100.0000 53.86652 83.30616 58.60927 45.29289 64.77842 
392 47.54971 80.98697 18.10801 27.34016 38.94273 10.75023 
393 50.76553 84.57955 30.77445 32.26591 45.28673 15.53194 
394 14.48490 68.82587 0.00000 13.08649 22.27877 5.877850 
395 25.50551 74.08324 25.83099 18.88415 30.28684 10.75036 
396 55.62167 79.41542 45.79178 33.00058 42.62333 22.99647 
397 86.11707 83.80770 67.22883 58.23454 61.47637 46.32908 
398 85.40961 83.85575 81.21610 62.04803 64.87790 65.61041 
399 26.34575 0.00000 0.00000 1.926610 1.288004 0.837488 
400 32.83227 13.43814 0.00000 3.291364 2.370850 1.065535 
401 49.11323 16.80601 0.00000 7.479540 4.916448 1.536300 
402 52.53562 34.27984 45.99432 14.01208 11.79914 15.92212 
