powerbook5_4/2022-06-13/srgb_native_gamma_24/13_jun_2022_srgb_powerbook_g4_native_gamma_luminance_preserve.cal
CAL    

DESCRIPTOR "Argyll Device Calibration Curves"
ORIGINATOR "Argyll dispcal"
CREATED "Mon Jun 13 22:21:34 2022"
DEVICE_CLASS "DISPLAY"
COLOR_REP "RGB"
VIDEO_LUT_CALIBRATION_POSSIBLE "YES"
TV_OUTPUT_ENCODING "NO"
DEVICE_TYPE "n"
TARGET_WHITE_XYZ "78.247743 82.328907 89.647977"
TARGET_GAMMA "2.400000"
DEGREE_OF_BLACK_OUTPUT_OFFSET "1.000000"
BLACK_POINT_CORRECTION "0.000000"
BLACK_NEUTRAL_BLEND_RATE "4.000000"
BLACK_POINT_HACK "YES"
QUALITY "high"

NUMBER_OF_FIELDS 4
BEGIN_DATA_FORMAT
RGB_I RGB_R RGB_G RGB_B 
END_DATA_FORMAT

NUMBER_OF_SETS 256
BEGIN_DATA
0.00000 0.00000 0.00000 0.00000 
0.00392157 0.00290130 0.00316182 0.00234956 
0.00784314 0.00590053 0.00640350 0.00475407 
0.0117647 0.00900271 0.00972809 0.00721549 
0.0156863 0.0122133 0.0131388 0.00973586 
0.0196078 0.0155379 0.0166391 0.0123173 
0.0235294 0.0189829 0.0202325 0.0149621 
0.0274510 0.0225549 0.0239227 0.0176727 
0.0313725 0.0262611 0.0277138 0.0204514 
0.0352941 0.0301092 0.0316088 0.0233009 
0.0392157 0.0341093 0.0356077 0.0262239 
0.0431373 0.0382766 0.0397152 0.0292233 
0.0470588 0.0426154 0.0439310 0.0323023 
0.0509804 0.0471226 0.0482568 0.0354659 
0.0549020 0.0518037 0.0526969 0.0387215 
0.0588235 0.0566585 0.0572440 0.0420821 
0.0627451 0.0616487 0.0618855 0.0455574 
0.0666667 0.0667245 0.0666096 0.0491578 
0.0705882 0.0718517 0.0714035 0.0528920 
0.0745098 0.0770062 0.0762493 0.0567625 
0.0784314 0.0821868 0.0811331 0.0607701 
0.0823529 0.0873915 0.0860515 0.0649116 
0.0862745 0.0925981 0.0909901 0.0691828 
0.0901961 0.0977900 0.0959141 0.0735769 
0.0941176 0.102919 0.100810 0.0780735 
0.0980392 0.107976 0.105646 0.0826498 
0.101961 0.112964 0.110432 0.0872890 
0.105882 0.117871 0.115151 0.0919640 
0.109804 0.122717 0.119786 0.0966517 
0.113725 0.127509 0.124348 0.101327 
0.117647 0.132213 0.128841 0.105982 
0.121569 0.136838 0.133251 0.110574 
0.125490 0.141387 0.137589 0.115113 
0.129412 0.145866 0.141862 0.119609 
0.133333 0.150272 0.146074 0.124032 
0.137255 0.154592 0.150228 0.128394 
0.141176 0.158850 0.154307 0.132700 
0.145098 0.163053 0.158306 0.136948 
0.149020 0.167189 0.162235 0.141100 
0.152941 0.171264 0.166095 0.145171 
0.156863 0.175281 0.169885 0.149164 
0.160784 0.179226 0.173609 0.153075 
0.164706 0.183083 0.177277 0.156911 
0.168627 0.186842 0.180887 0.160670 
0.172549 0.190501 0.184436 0.164339 
0.176471 0.194098 0.187928 0.167924 
0.180392 0.197635 0.191359 0.171440 
0.184314 0.201103 0.194736 0.174888 
0.188235 0.204498 0.198075 0.178268 
0.192157 0.207819 0.201373 0.181583 
0.196078 0.211065 0.204622 0.184847 
0.200000 0.214250 0.207823 0.188065 
0.203922 0.217400 0.210979 0.191227 
0.207843 0.220517 0.214091 0.194322 
0.211765 0.223602 0.217166 0.197349 
0.215686 0.226659 0.220224 0.200311 
0.219608 0.229697 0.223266 0.203220 
0.223529 0.232730 0.226294 0.206097 
0.227451 0.235757 0.229308 0.208944 
0.231373 0.238777 0.232312 0.211763 
0.235294 0.241797 0.235314 0.214547 
0.239216 0.244838 0.238315 0.217299 
0.243137 0.247912 0.241312 0.220019 
0.247059 0.251019 0.244306 0.222706 
0.250980 0.254158 0.247302 0.225361 
0.254902 0.257329 0.250313 0.227997 
0.258824 0.260521 0.253342 0.230618 
0.262745 0.263734 0.256392 0.233221 
0.266667 0.266975 0.259460 0.235819 
0.270588 0.270233 0.262537 0.238418 
0.274510 0.273503 0.265611 0.241021 
0.278431 0.276776 0.268679 0.243627 
0.282353 0.280053 0.271749 0.246241 
0.286275 0.283340 0.274816 0.248863 
0.290196 0.286641 0.277879 0.251484 
0.294118 0.289923 0.280937 0.254098 
0.298039 0.293183 0.283989 0.256704 
0.301961 0.296420 0.287035 0.259322 
0.305882 0.299638 0.290093 0.261958 
0.309804 0.302838 0.293156 0.264615 
0.313725 0.306017 0.296215 0.267295 
0.317647 0.309165 0.299270 0.269998 
0.321569 0.312288 0.302321 0.272722 
0.325490 0.315398 0.305370 0.275463 
0.329412 0.318495 0.308423 0.278207 
0.333333 0.321585 0.311483 0.280953 
0.337255 0.324663 0.314547 0.283708 
0.341176 0.327717 0.317617 0.286475 
0.345098 0.330743 0.320698 0.289251 
0.349020 0.333733 0.323788 0.292037 
0.352941 0.336686 0.326888 0.294833 
0.356863 0.339602 0.329988 0.297635 
0.360784 0.342496 0.333078 0.300443 
0.364706 0.345402 0.336157 0.303261 
0.368627 0.348320 0.339219 0.306090 
0.372549 0.351248 0.342262 0.308910 
0.376471 0.354183 0.345286 0.311717 
0.380392 0.357123 0.348298 0.314511 
0.384314 0.360064 0.351321 0.317290 
0.388235 0.363008 0.354357 0.320055 
0.392157 0.365954 0.357405 0.322808 
0.396078 0.368904 0.360460 0.325553 
0.400000 0.371842 0.363515 0.328289 
0.403922 0.374767 0.366563 0.331018 
0.407843 0.377674 0.369604 0.333749 
0.411765 0.380580 0.372639 0.336487 
0.415686 0.383500 0.375668 0.339229 
0.419608 0.386432 0.378680 0.341975 
0.423529 0.389375 0.381676 0.344726 
0.427451 0.392327 0.384651 0.347472 
0.431373 0.395292 0.387616 0.350208 
0.435294 0.398274 0.390578 0.352932 
0.439216 0.401261 0.393539 0.355640 
0.443137 0.404246 0.396499 0.358329 
0.447059 0.407229 0.399456 0.361000 
0.450980 0.410212 0.402416 0.363655 
0.454902 0.413190 0.405384 0.366316 
0.458824 0.416164 0.408353 0.368991 
0.462745 0.419133 0.411327 0.371681 
0.466667 0.422101 0.414307 0.374388 
0.470588 0.425077 0.417292 0.377113 
0.474510 0.428073 0.420282 0.379854 
0.478431 0.431075 0.423276 0.382605 
0.482353 0.434078 0.426273 0.385361 
0.486275 0.437081 0.429282 0.388122 
0.490196 0.440087 0.432307 0.390887 
0.494118 0.443093 0.435358 0.393656 
0.498039 0.446101 0.438421 0.396410 
0.501961 0.449116 0.441494 0.399147 
0.505882 0.452134 0.444576 0.401865 
0.509804 0.455157 0.447668 0.404569 
0.513725 0.458200 0.450770 0.407279 
0.517647 0.461266 0.453881 0.410002 
0.521569 0.464347 0.457004 0.412741 
0.525490 0.467449 0.460139 0.415495 
0.529412 0.470582 0.463282 0.418252 
0.533333 0.473745 0.466440 0.421014 
0.537255 0.476921 0.469612 0.423788 
0.541176 0.480097 0.472795 0.426574 
0.545098 0.483260 0.475995 0.429369 
0.549020 0.486408 0.479220 0.432174 
0.552941 0.489563 0.482470 0.434990 
0.556863 0.492740 0.485730 0.437817 
0.560784 0.495942 0.488992 0.440651 
0.564706 0.499168 0.492251 0.443491 
0.568627 0.502413 0.495504 0.446339 
0.572549 0.505676 0.498766 0.449192 
0.576471 0.508951 0.502045 0.452051 
0.580392 0.512238 0.505339 0.454904 
0.584314 0.515524 0.508643 0.457765 
0.588235 0.518803 0.511949 0.460640 
0.592157 0.522077 0.515263 0.463528 
0.596078 0.525345 0.518582 0.466429 
0.600000 0.528614 0.521906 0.469344 
0.603922 0.531885 0.525237 0.472272 
0.607843 0.535159 0.528570 0.475215 
0.611765 0.538424 0.531910 0.478175 
0.615686 0.541674 0.535259 0.481155 
0.619608 0.544910 0.538625 0.484153 
0.623529 0.548129 0.542008 0.487168 
0.627451 0.551318 0.545400 0.490204 
0.631373 0.554473 0.548786 0.493259 
0.635294 0.557590 0.552167 0.496328 
0.639216 0.560671 0.555536 0.499420 
0.643137 0.563714 0.558894 0.502544 
0.647059 0.566722 0.562235 0.505701 
0.650980 0.569716 0.565554 0.508885 
0.654902 0.572747 0.568850 0.512073 
0.658824 0.575812 0.572121 0.515257 
0.662745 0.578913 0.575370 0.518435 
0.666667 0.582053 0.578599 0.521614 
0.670588 0.585229 0.581849 0.524821 
0.674510 0.588438 0.585126 0.528058 
0.678431 0.591669 0.588427 0.531327 
0.682353 0.594915 0.591753 0.534619 
0.686275 0.598173 0.595098 0.537930 
0.690196 0.601433 0.598461 0.541264 
0.694118 0.604693 0.601833 0.544623 
0.698039 0.607953 0.605209 0.548007 
0.701961 0.611207 0.608585 0.551406 
0.705882 0.614444 0.611944 0.554816 
0.709804 0.617660 0.615287 0.558235 
0.713725 0.620851 0.618622 0.561665 
0.717647 0.624032 0.621949 0.565113 
0.721569 0.627198 0.625258 0.568584 
0.725490 0.630334 0.628550 0.572075 
0.729412 0.633437 0.631827 0.575570 
0.733333 0.636507 0.635099 0.579067 
0.737255 0.639546 0.638364 0.582559 
0.741176 0.642580 0.641617 0.586026 
0.745098 0.645614 0.644857 0.589461 
0.749020 0.648650 0.648084 0.592861 
0.752941 0.651692 0.651301 0.596228 
0.756863 0.654742 0.654529 0.599563 
0.760784 0.657802 0.657773 0.602868 
0.764706 0.660877 0.661031 0.606143 
0.768627 0.663962 0.664304 0.609419 
0.772549 0.667035 0.667584 0.612734 
0.776471 0.670092 0.670877 0.616089 
0.780392 0.673125 0.674181 0.619489 
0.784314 0.676130 0.677488 0.622945 
0.788235 0.679106 0.680783 0.626467 
0.792157 0.682056 0.684068 0.630055 
0.796078 0.685013 0.687338 0.633700 
0.800000 0.687991 0.690598 0.637396 
0.803922 0.690993 0.693849 0.641129 
0.807843 0.694016 0.697118 0.644886 
0.811765 0.697050 0.700417 0.648674 
0.815686 0.700095 0.703746 0.652492 
0.819608 0.703151 0.707101 0.656311 
0.823529 0.706218 0.710479 0.660117 
0.827451 0.709295 0.713876 0.663909 
0.831373 0.712382 0.717294 0.667700 
0.835294 0.715472 0.720733 0.671488 
0.839216 0.718566 0.724188 0.675267 
0.843137 0.721663 0.727650 0.679033 
0.847059 0.724756 0.731115 0.682786 
0.850980 0.727839 0.734586 0.686545 
0.854902 0.730913 0.738053 0.690333 
0.858824 0.734003 0.741516 0.694174 
0.862745 0.737119 0.744986 0.698075 
0.866667 0.740252 0.748481 0.702033 
0.870588 0.743383 0.752001 0.706066 
0.874510 0.746513 0.755539 0.710180 
0.878431 0.749634 0.759095 0.714340 
0.882353 0.752737 0.762654 0.718536 
0.886275 0.755820 0.766209 0.722766 
0.890196 0.758892 0.769752 0.727039 
0.894118 0.761976 0.773294 0.731374 
0.898039 0.765081 0.776848 0.735837 
0.901961 0.768206 0.780412 0.740441 
0.905882 0.771341 0.783969 0.745189 
0.909804 0.774483 0.787508 0.750050 
0.913725 0.777641 0.791032 0.755010 
0.917647 0.780820 0.794548 0.760074 
0.921569 0.784017 0.798046 0.765233 
0.925490 0.787231 0.801517 0.770476 
0.929412 0.790472 0.804971 0.775801 
0.933333 0.793735 0.808407 0.781209 
0.937255 0.797013 0.811828 0.786774 
0.941176 0.800324 0.815242 0.792560 
0.945098 0.803657 0.818647 0.798568 
0.949020 0.807011 0.822048 0.804760 
0.952941 0.810383 0.825449 0.811089 
0.956863 0.813770 0.828851 0.817652 
0.960784 0.817169 0.832256 0.824474 
0.964706 0.820577 0.835669 0.831490 
0.968627 0.823994 0.839089 0.838742 
0.972549 0.827423 0.842513 0.846239 
0.976471 0.830867 0.845941 0.854061 
0.980392 0.834324 0.849372 0.862269 
0.984314 0.837795 0.852806 0.870906 
0.988235 0.841279 0.856244 0.880048 
0.992157 0.844778 0.859686 0.889702 
0.996078 0.848290 0.863131 0.899892 
1.000000 0.851817 0.866579 0.910667 
END_DATA
CAL    

DESCRIPTOR "Argyll Calibration options and model"
ORIGINATOR "Argyll dispcal"
CREATED "Mon Jun 13 22:21:34 202"

NUMBER_OF_FIELDS 3
BEGIN_DATA_FORMAT
R_P G_P B_P 
END_DATA_FORMAT

NUMBER_OF_SETS 32
BEGIN_DATA
0.00248320 0.00241365 0.00567000 
0.997517 0.997586 0.994330 
1.860232 1.470672 0.864707 
0.875890 0.825984 0.977548 
0.0784568 0.160320 0.130330 
0.126663 0.147733 0.129248 
0.121681 0.109858 0.102152 
0.0689242 0.114397 0.102403 
0.0993339 0.0880743 0.0845470 
0.0555245 0.0817308 0.0842673 
0.0700198 0.0790436 0.0773889 
0.0659449 0.0689115 0.0664138 
0.0519153 0.0635906 0.0618690 
0.0525249 0.0549172 0.0599063 
0.0499026 0.0554788 0.0550661 
0.0465311 0.0468891 0.0504764 
0.0415619 0.0463137 0.0443719 
0.0378747 0.0444106 0.0444198 
0.0346775 0.0418337 0.0438681 
0.0361301 0.0398362 0.0375066 
0.0330205 0.0332014 0.0344614 
0.0303870 0.0344331 0.0330881 
0.0273613 0.0294659 0.0342937 
0.0255065 0.0294840 0.0328513 
0.0245458 0.0263208 0.0304914 
0.0248894 0.0267472 0.0298723 
0.0234522 0.0240980 0.0228538 
0.0219857 0.0227020 0.0227078 
0.0189113 0.0203531 0.0223880 
0.0186144 0.0214297 0.0232461 
0.0173685 0.0203445 0.0228505 
0.0143744 0.0160831 0.0226012 
END_DATA
