powerbook5_4/2022-06-13/srgb_srgb_gamma/13_jun_2022_srgb_powerbook_g4_srgb_gamma_luminance_preserve.ti3
CTI3   

DESCRIPTOR "Argyll Calibration Target chart information 3"
ORIGINATOR "Argyll dispread"
CREATED "Mon Jun 13 17:51:54 2022"
DEVICE_CLASS "DISPLAY"
COLOR_REP "RGB_XYZ"
TARGET_INSTRUMENT "X-Rite i1 DisplayPro, ColorMunki Display"
DISPLAY_TYPE_REFRESH "NO"
DISPLAY_TYPE_BASE_ID "1"
INSTRUMENT_TYPE_SPECTRAL "NO"
LUMINANCE_XYZ_CDM2 "79.218591 83.331399 90.624282"
NORMALIZED_TO_Y_100 "YES"
VIDEO_LUT_CALIBRATION_POSSIBLE "YES"

NUMBER_OF_FIELDS 7
BEGIN_DATA_FORMAT
SAMPLE_ID RGB_R RGB_G RGB_B XYZ_X XYZ_Y XYZ_Z 
END_DATA_FORMAT

NUMBER_OF_SETS 836
BEGIN_DATA
1 100.0000 100.0000 100.0000 95.06452 100.0000 108.7517 
2 39.60025 0.00000 0.00000 4.778837 2.871751 1.110540 
3 51.23213 0.00000 0.00000 8.110459 4.722536 1.429212 
4 59.22988 19.30410 31.34008 14.55719 9.944609 9.379847 
5 0.00000 86.90899 20.26359 25.58732 43.76165 13.01513 
6 13.46706 88.08354 22.36019 27.39999 45.74707 14.28239 
7 17.30515 100.0000 31.78814 36.90582 60.39137 20.24570 
8 0.00000 0.00000 71.98058 7.660205 5.876280 35.86625 
9 16.81811 0.00000 82.98448 12.43213 9.503209 54.89229 
10 18.32074 17.01863 100.0000 21.59387 19.00110 91.95486 
11 51.26895 19.59589 100.0000 29.77970 24.17979 93.73759 
12 53.46364 35.70716 100.0000 33.44230 29.67407 94.87858 
13 66.49950 44.72248 100.0000 42.04971 37.52985 96.68338 
14 88.33274 100.0000 100.0000 85.90496 94.97834 108.0831 
15 75.72254 0.00000 0.00000 17.90315 10.14647 2.270242 
16 82.70985 0.00000 16.16562 22.39330 12.70552 4.728337 
17 89.34815 10.59635 25.96354 29.40062 17.14318 8.315008 
18 100.0000 13.56827 29.08798 39.01033 22.74856 10.18528 
19 100.0000 0.00000 12.96134 35.30964 19.78764 4.793790 
20 100.0000 0.00000 25.12398 36.03288 20.32459 8.363122 
21 100.0000 0.00000 37.57789 37.16379 21.18745 14.27160 
22 100.0000 11.92838 46.13284 40.78578 24.00724 20.62994 
23 100.0000 0.00000 49.48357 38.92086 22.48011 22.66573 
24 100.0000 0.00000 62.16930 41.51487 24.44405 35.22656 
25 100.0000 13.03572 65.23003 44.83558 27.12375 38.67446 
26 100.0000 27.04558 75.05191 49.98297 32.58975 52.71256 
27 47.18709 68.58071 88.56511 37.85873 43.48947 74.81034 
28 49.64192 83.41522 100.0000 53.44714 64.95304 102.8625 
29 12.65826 13.07018 20.21387 2.184103 2.217600 3.836544 
30 24.12105 15.93196 29.06903 4.349985 3.799462 7.008552 
31 56.34936 50.78912 77.37506 29.91860 28.98638 54.10103 
32 67.23541 64.46371 81.46435 42.12355 42.47488 64.14180 
33 84.39015 100.0000 83.63850 75.18344 85.18735 75.68003 
34 83.34103 18.38844 0.00000 25.43340 15.35535 3.128206 
35 85.53729 48.55999 31.36508 35.77813 28.77662 13.27874 
36 100.0000 75.97514 69.34435 66.92208 62.01772 52.01283 
37 100.0000 88.16955 72.07236 75.55815 75.60880 57.85893 
38 33.73300 46.19677 12.01769 10.63320 13.47726 4.896599 
39 34.09378 61.36455 34.05495 17.58654 24.11057 14.22509 
40 46.22300 65.98225 48.06293 25.45515 31.89502 24.68125 
41 48.41618 77.13905 53.79299 33.07071 43.04462 31.40583 
42 74.27290 74.80885 64.90496 46.40244 49.49393 43.94266 
43 83.81905 74.96399 71.78588 54.38735 54.45941 52.88850 
44 10.16290 52.34590 10.63778 8.578424 14.15728 4.840489 
45 15.42191 57.75234 32.42043 12.66500 19.48410 12.13116 
46 74.54351 94.04903 39.59229 53.94861 65.79143 25.99708 
47 50.92142 100.0000 0.00000 41.88279 60.46639 13.57908 
48 52.78558 100.0000 18.78953 44.99901 64.20224 16.78845 
49 61.13795 100.0000 36.53564 50.68521 68.25884 24.56566 
50 75.65487 65.93456 25.08945 35.92601 36.56927 13.02425 
51 77.26992 74.92251 46.54489 44.17390 47.13937 26.96844 
52 76.18808 100.0000 100.0000 77.80932 90.49566 107.4145 
53 0.00000 0.00000 58.12631 4.861878 3.736880 22.22129 
54 16.76053 0.00000 65.77843 7.790827 5.790596 32.41186 
55 50.56612 0.00000 67.02538 15.05782 10.02877 37.29300 
56 67.10130 33.89736 67.54001 27.17421 21.02144 40.41703 
57 89.92376 49.48012 67.94767 45.58208 36.25837 44.19390 
58 90.97280 61.02353 78.38309 54.67803 47.43770 61.24777 
59 100.0000 84.69534 85.44626 77.57218 75.52042 77.79936 
60 50.89880 45.65960 0.00000 14.59291 14.60255 3.784794 
61 68.11784 56.58264 0.00000 25.51024 24.50314 5.780082 
62 84.87260 66.79420 0.00000 39.33753 36.61910 8.022637 
63 85.45413 73.30975 34.16682 46.93577 47.16514 18.95936 
64 39.04833 31.63763 31.31424 9.843863 9.471599 9.368722 
65 56.03732 31.90629 57.75326 19.32743 15.61387 28.64550 
66 74.44068 34.57700 58.47445 29.08182 21.74070 30.71703 
67 86.50602 35.47889 49.37512 35.40587 25.03619 23.57351 
68 100.0000 70.14006 55.25882 60.55801 54.12627 35.18424 
69 39.69235 54.21608 0.00000 13.33003 16.80391 4.449545 
70 39.71916 58.22579 16.82288 16.00579 20.96096 7.573779 
71 54.48774 70.75773 30.55848 28.07751 34.81567 14.91552 
72 58.71336 73.08348 16.00871 29.36397 36.03783 10.64284 
73 66.49591 86.08630 14.63228 41.07535 51.28226 13.29564 
74 62.72091 100.0000 0.00000 46.91333 63.32120 14.01222 
75 67.68572 100.0000 14.98621 51.57252 67.60284 16.46860 
76 0.00000 100.0000 25.62919 34.93197 58.92613 17.09953 
77 0.00000 100.0000 38.02026 36.34237 60.27337 22.12389 
78 0.00000 100.0000 75.94552 43.64510 66.53492 54.15356 
79 0.00000 100.0000 87.84604 47.45827 69.81887 71.45601 
80 37.11003 100.0000 86.73327 53.55769 73.53379 76.78179 
81 63.49847 100.0000 100.0000 70.81852 86.64115 106.7466 
82 0.00000 14.68076 63.37174 6.538755 5.722086 27.33137 
83 17.24656 33.72193 64.64874 11.26389 11.90457 33.20023 
84 20.05510 43.47235 81.38039 18.82372 20.28825 56.51167 
85 25.31735 59.98208 86.35683 27.06631 32.15788 66.77753 
86 72.94196 0.00000 54.44580 21.21473 12.88507 25.32126 
87 82.90934 0.00000 68.66359 29.80946 18.33780 41.38824 
88 85.05265 33.46712 78.52929 40.57994 29.13429 56.93586 
89 84.45809 35.81130 100.0000 49.39496 38.61023 96.43818 
90 28.75042 28.45392 42.81728 8.164375 8.093601 15.08688 
91 36.41243 29.13117 54.36619 11.94489 10.73964 24.37909 
92 78.35240 15.83880 14.40839 22.50872 13.65721 4.532409 
93 86.94392 23.38573 15.24379 29.50021 18.52964 5.630972 
94 100.0000 35.50364 25.35955 42.89875 28.59480 10.12074 
95 73.98115 32.32891 0.00000 22.32079 15.76387 3.542124 
96 72.64776 49.85877 12.40381 26.49997 23.46355 6.673359 
97 82.21272 56.43318 18.85218 35.51265 31.32078 9.545231 
98 81.65949 56.86986 40.99098 37.42598 33.56977 20.12946 
99 26.00899 25.19997 0.00000 4.192084 4.454601 1.570924 
100 42.49659 30.48608 0.00000 8.552696 7.767945 2.256455 
101 58.19295 30.34185 0.00000 14.05541 10.78994 2.753169 
102 62.55268 41.98756 43.91662 22.43501 19.70702 18.76068 
103 61.72667 82.56300 57.92722 42.90226 52.38011 37.50045 
104 65.59553 88.24871 72.87807 52.69019 63.06363 56.74162 
105 67.03653 42.99951 0.00000 21.06933 17.59617 4.174339 
106 82.07782 50.94878 0.00000 31.78094 26.02513 5.686906 
107 100.0000 59.86939 0.00000 48.30875 38.38770 7.536402 
108 20.44230 44.53381 58.51505 13.13516 15.99123 28.05792 
109 23.12720 78.71220 71.02063 31.31306 44.09417 48.24492 
110 40.71736 84.86659 84.65692 43.58489 56.44192 70.46705 
111 6.892000 28.87877 89.81449 16.57078 15.61057 66.23345 
112 17.02608 32.46044 100.0000 23.96179 23.27820 93.09081 
113 26.49390 46.56775 100.0000 29.38423 31.21004 95.13236 
114 33.01190 59.06240 100.0000 35.33188 39.98659 97.40077 
115 85.34946 68.01783 100.0000 63.30222 60.63807 101.6710 
116 33.29984 13.73491 65.53381 11.31840 8.590400 34.18787 
117 33.16889 37.94790 87.12711 21.82221 20.82682 66.47809 
118 19.83291 19.14958 82.49872 14.22249 11.97689 55.57136 
119 42.51813 18.30156 85.15475 19.55138 15.11642 62.00382 
120 0.00000 0.00000 35.00399 1.974706 1.585877 8.066516 
121 0.00000 0.00000 46.60894 3.220925 2.508081 14.17770 
122 0.00000 0.00000 100.0000 19.11857 16.23145 89.94621 
123 0.00000 14.30480 100.0000 19.86979 17.44007 90.39698 
124 83.60841 17.63563 100.0000 44.96163 32.32949 95.07195 
125 28.83372 68.51270 0.00000 16.26308 24.85079 6.399133 
126 43.78753 70.22084 0.00000 20.96832 28.45769 7.103108 
127 68.29998 71.63987 0.00000 31.86829 35.27105 8.260232 
128 86.70879 77.03611 13.07096 47.37301 48.05677 11.82702 
129 0.00000 100.0000 51.43547 38.23329 61.96880 29.94464 
130 0.00000 100.0000 63.45529 40.45993 63.86769 39.76379 
131 17.15728 100.0000 64.85883 42.65786 65.30520 44.45265 
132 0.00000 76.57760 54.97787 23.63085 37.16075 27.85167 
133 13.36635 78.01031 60.75120 26.92030 40.42382 35.46117 
134 36.72225 80.93584 61.10711 33.07706 45.78664 38.79234 
135 49.36478 87.86501 74.94998 45.55687 58.97207 57.62391 
136 100.0000 46.91551 0.00000 44.18095 31.49350 5.935483 
137 100.0000 73.82830 0.00000 54.63209 48.92727 9.916949 
138 100.0000 82.65319 17.53441 61.65481 60.20993 14.84658 
139 32.47542 0.00000 73.47048 12.15774 8.716419 43.30793 
140 32.96186 0.00000 87.76967 16.71642 12.49364 65.09653 
141 0.00000 58.69114 0.00000 9.576233 16.64914 4.561734 
142 0.00000 73.43892 0.00000 15.42925 26.95730 6.919929 
143 16.26577 75.77015 12.31725 18.97074 31.51850 9.071776 
144 19.34610 95.15631 74.12665 42.25424 62.50598 54.56711 
145 17.72841 100.0000 82.67740 47.72931 69.68334 67.46351 
146 100.0000 0.00000 0.00000 34.98114 19.55085 3.349072 
147 100.0000 15.25927 0.00000 37.76990 21.87446 3.725708 
148 100.0000 100.0000 12.77605 73.42307 79.41973 17.35701 
149 100.0000 100.0000 25.99514 74.73855 81.02653 21.37559 
150 100.0000 100.0000 39.00696 76.57701 82.70436 28.13171 
151 11.64634 46.81457 100.0000 27.31748 29.97935 94.46567 
152 17.46290 60.32972 100.0000 33.13560 39.36022 96.96175 
153 0.00000 13.63272 31.78752 2.316076 2.470928 7.062165 
154 15.64724 18.05992 41.67025 4.727252 4.500358 12.98238 
155 15.88626 18.60571 58.61824 7.364864 6.486214 25.45973 
156 33.08727 29.30574 70.90423 14.83278 13.34697 42.04590 
157 51.87441 34.42160 80.37457 24.19827 20.52356 56.93281 
158 62.66517 42.76003 89.46326 34.12832 29.54472 73.15064 
159 100.0000 47.73994 35.34141 47.41944 35.08036 16.02988 
160 100.0000 61.48909 39.14058 52.94541 43.91954 20.45515 
161 100.0000 62.96474 67.77765 59.67088 50.33981 47.28596 
162 22.41416 84.30502 15.05054 25.26782 41.14888 11.57513 
163 25.48234 92.51702 23.52421 31.99705 51.33706 15.76808 
164 18.49407 84.51092 0.00000 22.81671 38.03585 9.301375 
165 37.26505 84.42178 0.00000 26.27208 39.87393 9.638837 
166 55.17329 86.35178 9.315094 35.18311 47.58594 11.89969 
167 46.77176 0.00000 48.60097 10.11370 6.503258 18.80568 
168 64.61241 0.00000 85.80290 25.68000 17.36489 64.43462 
169 100.0000 35.79719 86.82542 55.88349 39.21597 71.36552 
170 100.0000 100.0000 100.0000 95.01668 99.99823 108.5302 
171 34.34916 0.00000 58.40938 9.052814 6.227262 26.32171 
172 49.11542 0.00000 81.88925 18.87267 13.18445 57.55618 
173 60.82752 20.44088 81.95037 25.55684 18.51907 59.34709 
174 0.00000 0.00000 22.54997 1.126527 0.959635 3.899853 
175 0.00000 14.93718 84.30231 11.88315 10.01593 52.90433 
176 0.00000 38.48700 84.76511 15.81919 16.98019 55.16560 
177 14.99034 24.67029 30.44088 4.287356 5.016890 7.754549 
178 19.08052 42.16557 33.38938 8.684074 11.87634 10.79332 
179 32.92956 45.84548 43.19587 13.23622 15.77650 17.54416 
180 44.40247 59.35368 57.11846 23.38926 27.55913 31.13176 
181 88.23262 0.00000 0.00000 25.56640 14.38066 2.824991 
182 100.0000 19.52784 15.31497 39.10892 23.29917 6.006641 
183 0.00000 61.18269 17.09986 11.85307 20.11955 7.367361 
184 0.00000 73.61788 28.04295 18.73899 31.55215 12.61318 
185 14.32593 34.36936 0.00000 4.191632 6.175442 2.048903 
186 31.92997 38.52218 0.00000 7.607887 8.999963 2.648518 
187 48.46209 44.14088 16.41574 14.42559 15.07758 5.957894 
188 58.69833 55.87186 20.54185 22.15232 23.50013 8.808888 
189 64.22686 81.25523 34.12466 38.62383 47.27814 19.35467 
190 0.00000 100.0000 100.0000 54.75578 77.30319 102.9672 
191 13.31213 100.0000 100.0000 55.96359 78.22955 104.5217 
192 51.65206 100.0000 100.0000 65.45781 83.66604 106.3009 
193 0.00000 0.00000 86.07768 11.70237 9.084130 55.33517 
194 13.73917 0.00000 100.0000 20.10632 17.00284 91.50035 
195 27.86799 0.00000 100.0000 21.75902 18.02313 91.94535 
196 36.04760 14.63226 100.0000 24.50810 20.46874 92.61983 
197 82.75928 51.75202 100.0000 53.95802 47.04261 98.48809 
198 100.0000 62.06723 100.0000 71.31568 61.40187 100.9766 
199 0.00000 13.25978 0.00000 0.965515 1.366523 0.880910 
200 0.00000 16.56132 15.93866 1.627356 2.174616 2.785321 
201 0.00000 19.08297 45.32613 4.269872 4.484406 14.23923 
202 11.95633 30.53426 51.55691 7.467039 8.389236 20.23273 
203 10.11717 54.39444 84.73442 22.04442 26.64457 60.98743 
204 30.17553 74.26940 100.0000 42.27523 52.50963 100.1416 
205 35.10017 87.47520 100.0000 51.54425 66.83514 103.1097 
206 0.00000 68.59460 42.46298 17.55251 28.37788 17.70978 
207 0.00000 88.54075 54.54183 30.86401 49.47220 29.84635 
208 35.92781 100.0000 58.72912 45.26005 66.50257 40.01314 
209 47.25901 100.0000 66.88481 51.04988 70.27955 50.16355 
210 100.0000 100.0000 76.21651 85.09563 89.93481 66.36758 
211 100.0000 100.0000 88.23162 89.38005 93.72634 85.22413 
212 0.00000 0.00000 0.00000 0.461559 0.463852 0.658355 
213 0.00000 100.0000 0.00000 32.14192 55.10373 12.61819 
214 13.25232 100.0000 0.00000 32.89918 55.52329 12.71446 
215 26.35892 100.0000 0.00000 34.71523 56.62098 12.91466 
216 37.84788 100.0000 15.28843 39.61900 60.98372 15.49271 
217 83.33075 83.20448 0.00000 46.43205 49.77724 10.96351 
218 100.0000 87.11890 0.00000 62.26862 61.77981 12.64617 
219 100.0000 87.41775 35.64511 67.10363 67.67448 23.57908 
220 0.00000 100.0000 12.97366 33.75732 57.51558 14.17713 
221 18.25722 100.0000 15.79657 35.40810 58.72615 15.06702 
222 32.26536 100.0000 29.88943 39.43689 61.71602 19.90242 
223 47.02167 100.0000 32.35213 44.22252 64.46935 21.53949 
224 83.09754 21.98039 57.15719 31.53185 20.53085 29.73706 
225 100.0000 38.71015 60.14152 48.91013 33.99234 34.80255 
226 62.60084 0.00000 14.77228 12.31848 7.130510 3.569829 
227 69.52708 0.00000 26.33339 15.97330 9.288627 7.419746 
228 80.67027 23.41040 25.77600 25.98620 16.78813 8.530623 
229 82.93123 34.17888 38.44137 30.86131 21.96020 15.93992 
230 46.62696 14.21053 14.20462 8.173621 5.556899 3.236027 
231 64.67254 21.02926 16.09213 16.24475 10.93602 4.708310 
232 63.71593 90.15166 43.81891 46.24557 58.86170 27.31278 
233 72.11886 100.0000 71.81606 63.76548 77.70668 57.26602 
234 0.00000 85.31656 38.49415 26.40279 43.75111 19.44444 
235 29.32492 85.04493 37.83544 29.18040 44.85784 20.30357 
236 18.75546 83.69498 45.17352 27.72689 43.59346 24.30817 
237 39.71451 100.0000 44.83130 43.38747 64.64188 28.35706 
238 53.46206 100.0000 50.22947 49.42309 68.31842 33.89279 
239 61.29149 36.70163 12.07622 17.32878 14.33895 4.777783 
240 70.59899 44.09408 33.41001 25.53155 21.53367 13.09281 
241 77.03252 50.01429 80.01035 40.77189 34.84434 60.08951 
242 56.59801 0.00000 100.0000 28.98850 22.06626 93.27890 
243 65.88235 14.22587 100.0000 34.75163 26.21191 93.95498 
244 68.82295 30.08031 100.0000 38.91896 31.22382 95.08937 
245 32.33635 69.52512 64.97723 26.42401 35.18940 39.68852 
246 61.06984 100.0000 64.51991 56.11626 72.94938 48.16952 
247 84.38367 100.0000 66.36802 69.88731 80.66153 51.50138 
248 0.00000 86.28806 0.00000 22.69101 39.23379 9.552290 
249 39.06448 100.0000 0.00000 37.83487 58.33857 13.21377 
250 75.44238 100.0000 0.00000 53.76547 67.13455 14.54355 
251 84.80219 100.0000 18.22610 62.30089 73.65665 18.02519 
252 80.66900 86.99690 27.79472 51.56699 58.69584 18.50933 
253 83.99580 88.31019 49.15016 57.79388 64.16137 32.21547 
254 13.49141 54.24358 0.00000 8.673368 14.23313 3.988303 
255 19.62993 63.97199 14.86388 14.20407 22.60410 7.528539 
256 24.79450 73.26767 37.43308 21.88735 33.45239 17.78724 
257 0.00000 57.62416 31.51175 11.45354 18.69696 10.68744 
258 0.00000 57.73029 65.05709 16.34694 22.92914 32.74632 
259 16.13038 62.85113 65.97015 20.72245 28.32610 37.88177 
260 14.51731 72.93889 100.0000 38.84434 49.69692 99.02354 
261 0.00000 27.76291 100.0000 21.66031 20.72074 91.08328 
262 0.00000 40.36481 100.0000 24.54104 25.83799 92.44610 
263 0.00000 52.79651 100.0000 28.68113 32.95970 94.04285 
264 0.00000 64.05806 100.0000 33.08727 40.75678 95.86612 
265 0.00000 87.85105 100.0000 46.89203 64.24648 100.8908 
266 26.39815 100.0000 100.0000 57.83246 79.32921 104.9665 
267 39.62078 100.0000 100.0000 61.07226 81.13893 105.6331 
268 36.32667 33.84852 20.10447 8.800895 9.132072 5.539494 
269 45.45748 44.15223 31.92488 14.82234 15.77250 11.23521 
270 66.51915 65.73880 36.83116 32.44051 35.15437 18.05001 
271 88.62107 66.03864 57.66535 49.94241 45.96111 35.71018 
272 71.94324 0.00000 100.0000 35.43369 25.72046 93.94749 
273 85.80314 0.00000 100.0000 42.94280 29.91363 94.61610 
274 100.0000 0.00000 100.0000 54.31204 36.19164 95.28593 
275 100.0000 12.35580 100.0000 56.91743 38.30355 95.73641 
276 52.43716 81.59915 0.00000 29.67691 39.65100 9.470427 
277 66.08243 86.92823 0.00000 39.52072 49.22343 11.26287 
278 26.08374 50.66313 0.00000 9.446861 13.50438 3.768506 
279 27.88913 51.33911 23.54339 11.59332 16.15661 8.183857 
280 55.29276 57.12973 40.22718 23.63601 25.97591 18.16480 
281 57.05378 71.07941 100.0000 48.72728 54.10495 100.5700 
282 71.58764 74.13374 100.0000 58.32357 61.44934 102.1441 
283 0.00000 26.52956 0.00000 2.160708 3.510506 1.408118 
284 0.00000 43.33748 0.00000 5.247778 9.011724 2.746828 
285 0.00000 48.40964 13.26211 7.293705 12.35438 4.776687 
286 0.00000 70.00161 72.91768 24.45080 35.10365 44.26892 
287 0.00000 83.04072 84.73785 34.79058 49.75995 62.68851 
288 25.31275 90.33600 91.32336 46.19528 63.11845 82.92857 
289 55.91010 62.85146 0.00000 22.16504 25.32176 6.230069 
290 87.83837 100.0000 0.00000 62.00937 71.60708 15.07666 
291 100.0000 100.0000 0.00000 71.63809 76.96558 15.51835 
292 43.97591 15.17106 39.06744 9.494675 6.815885 12.76074 
293 53.64583 14.07486 50.92454 14.37010 9.732230 21.48412 
294 65.97239 15.32140 63.01021 22.02701 14.63328 33.79815 
295 42.36621 0.00000 32.20316 6.941052 4.356163 8.528115 
296 71.61582 0.00000 40.50770 18.72109 11.07693 14.56491 
297 79.31824 19.07655 40.66636 25.97440 16.50213 16.16402 
298 100.0000 38.12990 46.16050 45.98634 31.57750 22.38356 
299 100.0000 53.60079 52.04029 52.39924 40.92400 29.46545 
300 63.28228 0.00000 0.00000 12.20122 6.994295 1.803717 
301 65.64566 15.37070 0.00000 15.42221 9.564095 2.303590 
302 87.32463 36.98225 0.00000 31.41402 21.69984 4.437535 
303 100.0000 51.88718 20.04915 47.19618 35.93808 10.13765 
304 42.82173 0.00000 100.0000 24.79837 19.75926 92.61217 
305 42.67225 69.20694 100.0000 42.60261 49.47143 99.66954 
306 0.00000 34.36456 69.13414 10.67743 11.84613 34.65961 
307 16.44087 46.30047 72.10290 16.27383 19.06327 42.86390 
308 0.00000 51.89150 75.55073 17.13801 21.73695 44.17122 
309 33.29994 60.29047 76.16881 25.62093 30.72489 52.36266 
310 60.54806 36.70519 30.73560 18.03187 15.21927 10.36162 
311 71.60900 100.0000 29.11160 55.48770 70.55248 21.28339 
312 83.60279 100.0000 37.41158 63.72518 75.52111 26.27889 
313 100.0000 100.0000 50.99960 78.69401 84.54753 37.12678 
314 100.0000 100.0000 63.74805 81.59658 86.92556 49.95285 
315 100.0000 30.95596 0.00000 40.37513 25.46638 4.529776 
316 100.0000 39.30669 12.04695 42.84572 29.13878 6.685840 
317 100.0000 37.10525 100.0000 62.21021 46.05521 97.55526 
318 100.0000 49.18696 100.0000 66.13210 52.50333 99.14697 
319 30.79928 0.00000 42.76197 5.827978 3.950059 14.08235 
320 30.40956 12.12202 52.51563 8.106831 6.124030 21.82824 
321 0.00000 28.16263 30.54523 3.826355 5.292308 7.230047 
322 0.00000 35.70465 47.75927 7.216155 9.428030 16.86888 
323 17.94605 69.73810 81.11057 28.89057 38.22922 59.73021 
324 30.95855 69.36922 81.70070 30.99213 39.21378 61.94622 
325 21.70922 16.18716 17.77121 3.295466 3.066760 3.508210 
326 47.00695 24.01655 19.89020 9.975312 7.894878 5.176627 
327 72.08975 30.60291 35.49896 23.19586 16.70484 13.15836 
328 72.26817 32.58699 89.61428 36.37260 27.79898 73.78987 
329 34.58316 40.46558 54.50816 14.03715 14.97249 25.38800 
330 41.60980 42.81108 67.33388 19.22034 19.21015 39.31326 
331 42.17973 50.27743 86.60907 27.56496 28.18178 67.84802 
332 51.80703 54.96156 100.0000 39.34909 40.33285 97.60737 
333 68.20700 59.46731 100.0000 48.37922 47.33682 98.95929 
334 0.00000 84.64064 69.59266 31.41485 47.86397 42.74671 
335 15.43547 86.11541 74.79978 35.80950 52.32361 53.84005 
336 100.0000 64.77507 14.03232 51.78299 43.83426 10.45960 
337 100.0000 70.00104 29.04482 56.09239 50.25599 16.49939 
338 100.0000 80.37766 46.48938 64.45605 62.03769 29.66346 
339 49.41061 0.00000 19.53229 8.157028 4.870493 4.440749 
340 57.39567 0.00000 34.67754 11.68409 7.036177 10.29883 
341 59.24997 0.00000 54.03624 15.16111 9.490475 23.81218 
342 66.52084 0.00000 70.46022 21.94781 14.06886 42.53928 
343 81.90055 0.00000 84.17031 34.02759 21.85085 63.32870 
344 100.0000 16.02096 84.26467 50.74586 32.16066 65.78381 
345 100.0000 69.10670 84.09920 67.67443 59.47891 71.71535 
346 100.0000 75.10245 100.0000 78.66826 73.63005 103.7129 
347 0.00000 41.22772 37.50706 7.050137 10.40950 11.27436 
348 0.00000 52.16652 47.22170 11.41667 17.06455 17.73272 
349 33.68973 100.0000 72.93697 48.14037 69.08174 56.15108 
350 52.84571 100.0000 81.76317 57.41489 75.12691 70.12851 
351 67.24835 100.0000 86.06537 65.73880 80.28505 78.11720 
352 0.00000 32.41340 14.92565 3.617217 5.790483 3.411916 
353 0.00000 44.81686 25.70701 7.100006 11.41728 7.321185 
354 7.806245 49.68744 36.13424 9.987773 15.18728 12.69335 
355 19.61339 58.72041 49.10346 16.21635 23.01522 22.53561 
356 25.67566 67.13047 53.14750 21.36800 30.19477 27.48813 
357 52.57871 73.47158 73.48034 37.26228 44.33039 52.65355 
358 55.29043 86.88130 83.56741 50.14559 62.04055 70.48752 
359 65.45377 86.69676 100.0000 62.81152 72.58323 104.4402 
360 85.07663 0.00000 35.09703 25.26903 14.55464 12.01870 
361 100.0000 24.32638 49.55806 43.52167 27.15486 23.64337 
362 100.0000 25.55669 61.71662 46.27076 29.39722 35.68864 
363 34.41609 0.00000 14.05352 4.209986 2.620783 2.617768 
364 39.41941 16.50027 26.22704 7.251301 5.465977 6.729828 
365 13.24230 0.00000 0.00000 1.045099 0.791084 0.731334 
366 14.52923 0.00000 33.41823 2.677074 1.981701 8.248105 
367 17.40448 0.00000 50.03120 5.059131 3.711744 18.82027 
368 49.15440 45.77677 54.10601 19.61780 19.74588 26.19617 
369 49.99648 50.70371 64.71415 23.84063 24.56302 37.99690 
370 60.26172 53.65648 64.36012 29.02317 28.73412 38.45058 
371 63.56932 66.53253 70.48209 38.11339 40.60856 48.84797 
372 74.01133 81.47585 80.16168 54.87683 59.97056 65.57085 
373 100.0000 0.00000 75.28509 44.99763 27.13530 51.79957 
374 100.0000 0.00000 87.60739 48.76335 30.43351 70.43238 
375 100.0000 24.69141 100.0000 59.16139 41.30557 96.41816 
376 83.67552 70.40334 83.98852 55.75932 53.99649 70.61177 
377 83.76460 84.77934 100.0000 72.16886 76.35794 104.8751 
378 100.0000 87.81479 100.0000 86.62769 86.69030 106.2322 
379 0.00000 0.00000 11.03211 0.652139 0.608923 1.576088 
380 16.82974 0.00000 15.65777 1.703442 1.232774 2.606525 
381 28.70087 0.00000 26.99043 3.893323 2.581683 6.248579 
382 86.53176 0.00000 53.72959 29.29150 17.33379 25.69866 
383 88.55128 21.16603 68.62486 38.20790 24.76093 42.93476 
384 65.14852 21.20904 47.22111 19.67967 13.48985 19.36381 
385 75.40793 46.22463 53.19154 31.77997 26.74131 27.49193 
386 76.30781 58.57977 53.17788 37.11296 34.58215 29.30813 
387 14.52372 15.18733 0.00000 1.848352 2.025803 1.031156 
388 15.63828 35.47488 18.93848 5.301818 7.472305 4.741023 
389 82.49165 37.98591 17.84304 29.71467 21.69613 7.096458 
390 100.0000 40.47926 73.95097 53.07882 37.76394 52.30156 
391 100.0000 53.86652 83.30616 60.40979 47.76449 67.43155 
392 47.54971 80.98697 18.10801 29.77702 41.34270 12.28805 
393 50.76553 84.57955 30.77445 34.48263 47.36574 17.63007 
394 14.48490 68.82587 0.00000 14.20441 23.81143 6.214022 
395 25.50551 74.08324 25.83099 21.05047 32.76060 12.76925 
396 55.62167 79.41542 45.79178 35.76070 45.45255 26.05669 
397 86.11707 83.80770 67.22883 60.36681 63.68503 50.06237 
398 85.40961 83.85575 81.21610 64.09199 67.04870 68.91763 
399 26.34575 0.00000 0.00000 2.467750 1.585840 0.882657 
400 32.83227 13.43814 0.00000 4.350982 3.256996 1.244181 
401 49.11323 16.80601 0.00000 8.921659 6.084356 1.766406 
402 52.53562 34.27984 45.99432 16.50763 14.24270 18.97136 
