powerbook5_4/2022-06-13/srgb_srgb_gamma/13_jun_2022_srgb_powerbook_g4_srgb_gamma_luminance_preserve.cal
CAL    

DESCRIPTOR "Argyll Device Calibration Curves"
ORIGINATOR "Argyll dispcal"
CREATED "Mon Jun 13 17:51:08 2022"
DEVICE_CLASS "DISPLAY"
COLOR_REP "RGB"
VIDEO_LUT_CALIBRATION_POSSIBLE "YES"
TV_OUTPUT_ENCODING "NO"
DEVICE_TYPE "n"
TARGET_WHITE_XYZ "79.167289 83.296413 90.701495"
TARGET_GAMMA "sRGB"
DEGREE_OF_BLACK_OUTPUT_OFFSET "1.000000"
BLACK_POINT_CORRECTION "0.000000"
BLACK_NEUTRAL_BLEND_RATE "4.000000"
BLACK_POINT_HACK "YES"
QUALITY "high"

NUMBER_OF_FIELDS 4
BEGIN_DATA_FORMAT
RGB_I RGB_R RGB_G RGB_B 
END_DATA_FORMAT

NUMBER_OF_SETS 256
BEGIN_DATA
0.00000 0.00000 0.00000 0.00000 
0.00392157 0.0147171 0.0141230 0.0109616 
0.00784314 0.0278199 0.0265853 0.0208177 
0.0117647 0.0395220 0.0376626 0.0297274 
0.0156863 0.0499041 0.0476145 0.0378228 
0.0196078 0.0591908 0.0566197 0.0452471 
0.0235294 0.0675873 0.0648010 0.0521214 
0.0274510 0.0753179 0.0722849 0.0585511 
0.0313725 0.0825397 0.0791903 0.0646170 
0.0352941 0.0893565 0.0856348 0.0703935 
0.0392157 0.0958171 0.0917107 0.0759400 
0.0431373 0.101923 0.0974583 0.0812895 
0.0470588 0.107705 0.102922 0.0864688 
0.0509804 0.113211 0.108138 0.0915045 
0.0549020 0.118464 0.113157 0.0964098 
0.0588235 0.123494 0.118012 0.101192 
0.0627451 0.128344 0.122715 0.105847 
0.0666667 0.133023 0.127300 0.110377 
0.0705882 0.137528 0.131783 0.114787 
0.0745098 0.141882 0.136158 0.119108 
0.0784314 0.146136 0.140406 0.123353 
0.0823529 0.150295 0.144541 0.127519 
0.0862745 0.154359 0.148592 0.131596 
0.0901961 0.158328 0.152557 0.135594 
0.0941176 0.162204 0.156437 0.139510 
0.0980392 0.165993 0.160238 0.143348 
0.101961 0.169723 0.163950 0.147099 
0.105882 0.173413 0.167569 0.150764 
0.109804 0.177042 0.171108 0.154348 
0.113725 0.180610 0.174602 0.157873 
0.117647 0.184116 0.178052 0.161334 
0.121569 0.187567 0.181455 0.164732 
0.125490 0.190965 0.184811 0.168071 
0.129412 0.194308 0.188119 0.171352 
0.133333 0.197595 0.191385 0.174573 
0.137255 0.200831 0.194610 0.177740 
0.141176 0.204021 0.197791 0.180853 
0.145098 0.207169 0.200920 0.183915 
0.149020 0.210307 0.204003 0.186931 
0.152941 0.213442 0.207042 0.189902 
0.156863 0.216573 0.210037 0.192825 
0.160784 0.219692 0.213016 0.195703 
0.164706 0.222798 0.215987 0.198536 
0.168627 0.225894 0.218949 0.201332 
0.172549 0.228984 0.221902 0.204095 
0.176471 0.232074 0.224844 0.206825 
0.180392 0.235168 0.227774 0.209519 
0.184314 0.238270 0.230694 0.212177 
0.188235 0.241384 0.233607 0.214798 
0.192157 0.244507 0.236518 0.217390 
0.196078 0.247635 0.239437 0.219951 
0.200000 0.250754 0.242374 0.222483 
0.203922 0.253864 0.245327 0.224985 
0.207843 0.256965 0.248300 0.227460 
0.211765 0.260063 0.251285 0.229941 
0.215686 0.263160 0.254267 0.232436 
0.219608 0.266249 0.257249 0.234940 
0.223529 0.269320 0.260232 0.237449 
0.227451 0.272375 0.263221 0.239963 
0.231373 0.275434 0.266218 0.242483 
0.235294 0.278501 0.269220 0.245010 
0.239216 0.281577 0.272215 0.247545 
0.243137 0.284661 0.275200 0.250084 
0.247059 0.287751 0.278188 0.252627 
0.250980 0.290824 0.281186 0.255180 
0.254902 0.293868 0.284188 0.257744 
0.258824 0.296883 0.287197 0.260323 
0.262745 0.299876 0.290212 0.262919 
0.266667 0.302852 0.293236 0.265532 
0.270588 0.305813 0.296252 0.268150 
0.274510 0.308762 0.299258 0.270770 
0.278431 0.311704 0.302253 0.273392 
0.282353 0.314635 0.305241 0.276021 
0.286275 0.317558 0.308220 0.278655 
0.290196 0.320476 0.311187 0.281299 
0.294118 0.323395 0.314146 0.283953 
0.298039 0.326320 0.317102 0.286615 
0.301961 0.329250 0.320049 0.289280 
0.305882 0.332190 0.322985 0.291949 
0.309804 0.335144 0.325910 0.294627 
0.313725 0.338110 0.328836 0.297313 
0.317647 0.341084 0.331767 0.300005 
0.321569 0.344064 0.334705 0.302701 
0.325490 0.347043 0.337655 0.305402 
0.329412 0.350005 0.340619 0.308107 
0.333333 0.352944 0.343596 0.310817 
0.337255 0.355861 0.346587 0.313518 
0.341176 0.358762 0.349590 0.316202 
0.345098 0.361650 0.352595 0.318870 
0.349020 0.364524 0.355581 0.321522 
0.352941 0.367386 0.358547 0.324159 
0.356863 0.370243 0.361492 0.326782 
0.360784 0.373095 0.364421 0.329392 
0.364706 0.375946 0.367334 0.331990 
0.368627 0.378794 0.370233 0.334581 
0.372549 0.381639 0.373121 0.337169 
0.376471 0.384479 0.376012 0.339750 
0.380392 0.387309 0.378906 0.342325 
0.384314 0.390132 0.381799 0.344894 
0.388235 0.392950 0.384690 0.347457 
0.392157 0.395763 0.387579 0.350022 
0.396078 0.398564 0.390460 0.352592 
0.400000 0.401348 0.393332 0.355167 
0.403922 0.404112 0.396196 0.357748 
0.407843 0.406857 0.399066 0.360338 
0.411765 0.409588 0.401941 0.362939 
0.415686 0.412308 0.404810 0.365554 
0.419608 0.415038 0.407670 0.368182 
0.423529 0.417789 0.410519 0.370823 
0.427451 0.420561 0.413354 0.373463 
0.431373 0.423353 0.416178 0.376096 
0.435294 0.426167 0.418993 0.378720 
0.439216 0.429015 0.421817 0.381335 
0.443137 0.431904 0.424655 0.383942 
0.447059 0.434810 0.427506 0.386543 
0.450980 0.437728 0.430372 0.389143 
0.454902 0.440657 0.433252 0.391741 
0.458824 0.443597 0.436163 0.394336 
0.462745 0.446546 0.439110 0.396931 
0.466667 0.449499 0.442067 0.399527 
0.470588 0.452453 0.445030 0.402121 
0.474510 0.455404 0.447997 0.404714 
0.478431 0.458352 0.450970 0.407308 
0.482353 0.461296 0.453948 0.409905 
0.486275 0.464239 0.456932 0.412507 
0.490196 0.467184 0.459922 0.415110 
0.494118 0.470128 0.462915 0.417714 
0.498039 0.473073 0.465916 0.420320 
0.501961 0.476023 0.468928 0.422933 
0.505882 0.478981 0.471955 0.425558 
0.509804 0.481948 0.474997 0.428196 
0.513725 0.484927 0.478048 0.430840 
0.517647 0.487918 0.481106 0.433490 
0.521569 0.490917 0.484172 0.436149 
0.525490 0.493914 0.487256 0.438818 
0.529412 0.496906 0.490354 0.441495 
0.533333 0.499902 0.493461 0.444181 
0.537255 0.502905 0.496576 0.446873 
0.541176 0.505915 0.499689 0.449571 
0.545098 0.508930 0.502788 0.452276 
0.549020 0.511950 0.505878 0.454987 
0.552941 0.514984 0.508963 0.457714 
0.556863 0.518027 0.512046 0.460485 
0.560784 0.521075 0.515124 0.463304 
0.564706 0.524127 0.518192 0.466147 
0.568627 0.527186 0.521252 0.469001 
0.572549 0.530245 0.524324 0.471864 
0.576471 0.533298 0.527410 0.474737 
0.580392 0.536347 0.530507 0.477620 
0.584314 0.539400 0.533613 0.480513 
0.588235 0.542460 0.536724 0.483415 
0.592157 0.545522 0.539827 0.486330 
0.596078 0.548589 0.542922 0.489258 
0.600000 0.551668 0.546016 0.492199 
0.603922 0.554767 0.549120 0.495154 
0.607843 0.557887 0.552232 0.498118 
0.611765 0.561030 0.555355 0.501094 
0.615686 0.564194 0.558502 0.504087 
0.619608 0.567376 0.561673 0.507098 
0.623529 0.570577 0.564875 0.510122 
0.627451 0.573791 0.568110 0.513163 
0.631373 0.576996 0.571382 0.516221 
0.635294 0.580181 0.574694 0.519294 
0.639216 0.583323 0.578048 0.522379 
0.643137 0.586417 0.581437 0.525480 
0.647059 0.589466 0.584834 0.528600 
0.650980 0.592475 0.588212 0.531729 
0.654902 0.595454 0.591556 0.534854 
0.658824 0.598406 0.594866 0.537974 
0.662745 0.601337 0.598141 0.541095 
0.666667 0.604252 0.601380 0.544221 
0.670588 0.607152 0.604587 0.547354 
0.674510 0.610037 0.607765 0.550490 
0.678431 0.612913 0.610919 0.553625 
0.682353 0.615784 0.614051 0.556762 
0.686275 0.618650 0.617161 0.559902 
0.690196 0.621513 0.620248 0.563042 
0.694118 0.624371 0.623325 0.566184 
0.698039 0.627221 0.626396 0.569330 
0.701961 0.630066 0.629460 0.572475 
0.705882 0.632900 0.632514 0.575615 
0.709804 0.635718 0.635552 0.578753 
0.713725 0.638520 0.638574 0.581896 
0.717647 0.641310 0.641580 0.585055 
0.721569 0.644110 0.644567 0.588230 
0.725490 0.646919 0.647535 0.591423 
0.729412 0.649739 0.650489 0.594642 
0.733333 0.652570 0.653455 0.597889 
0.737255 0.655415 0.656435 0.601175 
0.741176 0.658276 0.659431 0.604503 
0.745098 0.661148 0.662441 0.607880 
0.749020 0.664026 0.665471 0.611308 
0.752941 0.666908 0.668521 0.614788 
0.756863 0.669796 0.671583 0.618314 
0.760784 0.672692 0.674648 0.621832 
0.764706 0.675601 0.677714 0.625330 
0.768627 0.678531 0.680792 0.628809 
0.772549 0.681482 0.683882 0.632269 
0.776471 0.684451 0.686987 0.635710 
0.780392 0.687433 0.690113 0.639129 
0.784314 0.690407 0.693260 0.642534 
0.788235 0.693370 0.696428 0.645931 
0.792157 0.696321 0.699589 0.649322 
0.796078 0.699260 0.702735 0.652714 
0.800000 0.702187 0.705868 0.656109 
0.803922 0.705106 0.708986 0.659506 
0.807843 0.708014 0.712086 0.662910 
0.811765 0.710910 0.715182 0.666321 
0.815686 0.713798 0.718274 0.669735 
0.819608 0.716689 0.721361 0.673155 
0.823529 0.719591 0.724445 0.676577 
0.827451 0.722500 0.727540 0.680000 
0.831373 0.725413 0.730647 0.683432 
0.835294 0.728332 0.733768 0.686871 
0.839216 0.731261 0.736903 0.690316 
0.843137 0.734201 0.740058 0.693765 
0.847059 0.737146 0.743234 0.697218 
0.850980 0.740084 0.746428 0.700727 
0.854902 0.743011 0.749622 0.704311 
0.858824 0.745925 0.752811 0.707972 
0.862745 0.748826 0.755993 0.711713 
0.866667 0.751720 0.759165 0.715532 
0.870588 0.754612 0.762333 0.719417 
0.874510 0.757507 0.765510 0.723368 
0.878431 0.760405 0.768694 0.727381 
0.882353 0.763306 0.771890 0.731470 
0.886275 0.766208 0.775095 0.735652 
0.890196 0.769113 0.778304 0.739937 
0.894118 0.772027 0.781518 0.744307 
0.898039 0.774957 0.784743 0.748727 
0.901961 0.777901 0.787983 0.753200 
0.905882 0.780858 0.791236 0.757741 
0.909804 0.783825 0.794493 0.762368 
0.913725 0.786803 0.797756 0.767086 
0.917647 0.789796 0.801031 0.771897 
0.921569 0.792797 0.804315 0.776809 
0.925490 0.795801 0.807596 0.781855 
0.929412 0.798815 0.810881 0.787050 
0.933333 0.801837 0.814174 0.792424 
0.937255 0.804871 0.817472 0.797973 
0.941176 0.807917 0.820771 0.803651 
0.945098 0.810977 0.824066 0.809476 
0.949020 0.814047 0.827354 0.815484 
0.952941 0.817128 0.830632 0.821722 
0.956863 0.820224 0.833898 0.828206 
0.960784 0.823336 0.837147 0.834941 
0.964706 0.826470 0.840379 0.841979 
0.968627 0.829626 0.843593 0.849349 
0.972549 0.832807 0.846787 0.857098 
0.976471 0.836014 0.849962 0.865261 
0.980392 0.839246 0.853118 0.873891 
0.984314 0.842503 0.856256 0.883037 
0.988235 0.845787 0.859375 0.892733 
0.992157 0.849097 0.862476 0.902998 
0.996078 0.852434 0.865559 0.913878 
1.000000 0.855798 0.868624 0.925431 
END_DATA
CAL    

DESCRIPTOR "Argyll Calibration options and model"
ORIGINATOR "Argyll dispcal"
CREATED "Mon Jun 13 17:51:08 202"

NUMBER_OF_FIELDS 3
BEGIN_DATA_FORMAT
R_P G_P B_P 
END_DATA_FORMAT

NUMBER_OF_SETS 32
BEGIN_DATA
0.00257593 0.00202238 0.00554224 
0.997424 0.997978 0.994458 
1.925398 1.582300 0.929660 
0.880375 0.879000 0.991337 
0.0877610 0.109627 0.129075 
0.128686 0.140327 0.123318 
0.0889661 0.109600 0.0938474 
0.124822 0.0941908 0.149325 
0.0741177 0.0827461 0.111570 
0.0852945 0.106905 0.0744956 
0.0706042 0.0817877 0.0680382 
0.0637267 0.0638422 0.0711354 
0.0564174 0.0610572 0.0610480 
0.0495740 0.0487865 0.0547658 
0.0527640 0.0521523 0.0530714 
0.0542478 0.0475947 0.0536290 
0.0433736 0.0426087 0.0434776 
0.0395949 0.0413768 0.0461323 
0.0350009 0.0398069 0.0451658 
0.0374139 0.0402672 0.0393587 
0.0328754 0.0313135 0.0376361 
0.0325765 0.0301478 0.0326837 
0.0292631 0.0282159 0.0336099 
0.0245807 0.0261711 0.0329830 
0.0238314 0.0260458 0.0317608 
0.0253682 0.0235077 0.0306138 
0.0236212 0.0225683 0.0264450 
0.0216684 0.0201963 0.0248687 
0.0189443 0.0157548 0.0248740 
0.0182440 0.0134712 0.0237801 
0.0171877 0.0166065 0.0236042 
0.0194587 0.0148921 0.0223447 
END_DATA
