dell_u2412m/srgb_80nits_U2412m_2022_with_sRGB_gamma_curve/srgb_80nits_U2412m_2022_with_sRGB_gamma_curve.cal
CAL    

DESCRIPTOR "Argyll Device Calibration Curves"
ORIGINATOR "Argyll dispcal"
CREATED "Sun Apr  3 18:44:49 2022"
DEVICE_CLASS "DISPLAY"
COLOR_REP "RGB"
VIDEO_LUT_CALIBRATION_POSSIBLE "YES"
TV_OUTPUT_ENCODING "NO"
DEVICE_TYPE "n"
TARGET_WHITE_XYZ "74.535335 78.422870 85.394693"
TARGET_GAMMA "sRGB"
DEGREE_OF_BLACK_OUTPUT_OFFSET "1.000000"
BLACK_POINT_CORRECTION "0.000000"
BLACK_NEUTRAL_BLEND_RATE "4.000000"
BLACK_POINT_HACK "YES"
QUALITY "high"

NUMBER_OF_FIELDS 4
BEGIN_DATA_FORMAT
RGB_I RGB_R RGB_G RGB_B 
END_DATA_FORMAT

NUMBER_OF_SETS 256
BEGIN_DATA
0.00000 0.00000 0.00000 0.00000 
0.00392157 0.0135186 0.0138364 0.00923411 
0.00784314 0.0250355 0.0255948 0.0176867 
0.0117647 0.0349640 0.0357086 0.0254529 
0.0156863 0.0435675 0.0444243 0.0326132 
0.0196078 0.0510289 0.0519119 0.0392330 
0.0235294 0.0575713 0.0584169 0.0453651 
0.0274510 0.0633883 0.0641527 0.0510585 
0.0313725 0.0686405 0.0692953 0.0563714 
0.0352941 0.0734551 0.0739829 0.0613642 
0.0392157 0.0779325 0.0783210 0.0660939 
0.0431373 0.0821440 0.0823879 0.0706090 
0.0470588 0.0861513 0.0862518 0.0749505 
0.0509804 0.0899919 0.0899512 0.0791527 
0.0549020 0.0937082 0.0935291 0.0832424 
0.0588235 0.0973126 0.0970005 0.0872477 
0.0627451 0.100840 0.100404 0.0911808 
0.0666667 0.104297 0.103741 0.0950582 
0.0705882 0.107687 0.107018 0.0988849 
0.0745098 0.111035 0.110260 0.102685 
0.0784314 0.114339 0.113464 0.106459 
0.0823529 0.117599 0.116627 0.110204 
0.0862745 0.120824 0.119765 0.113921 
0.0901961 0.124040 0.122896 0.117608 
0.0941176 0.127240 0.126014 0.121257 
0.0980392 0.130414 0.129110 0.124890 
0.101961 0.133562 0.132183 0.128512 
0.105882 0.136694 0.135246 0.132118 
0.109804 0.139832 0.138318 0.135704 
0.113725 0.142980 0.141399 0.139266 
0.117647 0.146132 0.144485 0.142812 
0.121569 0.149283 0.147568 0.146338 
0.125490 0.152437 0.150653 0.149836 
0.129412 0.155590 0.153740 0.153309 
0.133333 0.158748 0.156838 0.156751 
0.137255 0.161924 0.159960 0.160153 
0.141176 0.165121 0.163109 0.163531 
0.145098 0.168340 0.166286 0.166903 
0.149020 0.171566 0.169475 0.170264 
0.152941 0.174796 0.172668 0.173607 
0.156863 0.178033 0.175869 0.176935 
0.160784 0.181278 0.179081 0.180253 
0.164706 0.184523 0.182301 0.183562 
0.168627 0.187750 0.185506 0.186850 
0.172549 0.190986 0.188722 0.190126 
0.176471 0.194238 0.191958 0.193391 
0.180392 0.197507 0.195212 0.196654 
0.184314 0.200795 0.198485 0.199921 
0.188235 0.204094 0.201777 0.203185 
0.192157 0.207385 0.205060 0.206435 
0.196078 0.210668 0.208333 0.209671 
0.200000 0.213943 0.211593 0.212887 
0.203922 0.217226 0.214854 0.216095 
0.207843 0.220518 0.218120 0.219300 
0.211765 0.223818 0.221389 0.222500 
0.215686 0.227105 0.224654 0.225690 
0.219608 0.230373 0.227893 0.228866 
0.223529 0.233637 0.231125 0.232039 
0.227451 0.236892 0.234348 0.235210 
0.231373 0.240154 0.237573 0.238372 
0.235294 0.243437 0.240813 0.241529 
0.239216 0.246738 0.244068 0.244693 
0.243137 0.250070 0.247345 0.247879 
0.247059 0.253430 0.250656 0.251091 
0.250980 0.256787 0.253968 0.254305 
0.254902 0.260136 0.257270 0.257518 
0.258824 0.263479 0.260562 0.260729 
0.262745 0.266816 0.263847 0.263941 
0.266667 0.270140 0.267119 0.267154 
0.270588 0.273473 0.270394 0.270364 
0.274510 0.276824 0.273687 0.273580 
0.278431 0.280196 0.276999 0.276806 
0.282353 0.283589 0.280329 0.280044 
0.286275 0.286995 0.283672 0.283293 
0.290196 0.290391 0.287013 0.286549 
0.294118 0.293749 0.290318 0.289792 
0.298039 0.297077 0.293588 0.293018 
0.301961 0.300401 0.296850 0.296235 
0.305882 0.303727 0.300115 0.299452 
0.309804 0.307051 0.303381 0.302681 
0.313725 0.310356 0.306638 0.305922 
0.317647 0.313641 0.309876 0.309168 
0.321569 0.316912 0.313104 0.312413 
0.325490 0.320169 0.316318 0.315665 
0.329412 0.323428 0.319532 0.318921 
0.333333 0.326693 0.322759 0.322181 
0.337255 0.329969 0.325997 0.325456 
0.341176 0.333282 0.329271 0.328752 
0.345098 0.336625 0.332587 0.332069 
0.349020 0.339974 0.335920 0.335405 
0.352941 0.343320 0.339252 0.338734 
0.356863 0.346668 0.342585 0.342057 
0.360784 0.350019 0.345920 0.345371 
0.364706 0.353374 0.349258 0.348678 
0.368627 0.356733 0.352596 0.351978 
0.372549 0.360111 0.355949 0.355266 
0.376471 0.363501 0.359315 0.358552 
0.380392 0.366878 0.362676 0.361839 
0.384314 0.370240 0.366016 0.365119 
0.388235 0.373617 0.369355 0.368387 
0.392157 0.377011 0.372716 0.371647 
0.396078 0.380417 0.376089 0.374912 
0.400000 0.383838 0.379475 0.378191 
0.403922 0.387292 0.382894 0.381481 
0.407843 0.390783 0.386353 0.384791 
0.411765 0.394308 0.389850 0.388129 
0.415686 0.397867 0.393383 0.391499 
0.419608 0.401437 0.396945 0.394902 
0.423529 0.404971 0.400489 0.398335 
0.427451 0.408455 0.403984 0.401774 
0.431373 0.411896 0.407429 0.405197 
0.435294 0.415308 0.410833 0.408603 
0.439216 0.418715 0.414225 0.411997 
0.443137 0.422116 0.417611 0.415388 
0.447059 0.425536 0.420998 0.418789 
0.450980 0.428988 0.424411 0.422197 
0.454902 0.432468 0.427844 0.425616 
0.458824 0.435976 0.431291 0.429046 
0.462745 0.439522 0.434764 0.432481 
0.466667 0.443103 0.438262 0.435921 
0.470588 0.446691 0.441773 0.439376 
0.474510 0.450273 0.445271 0.442843 
0.478431 0.453870 0.448764 0.446316 
0.482353 0.457495 0.452281 0.449793 
0.486275 0.461137 0.455818 0.453281 
0.490196 0.464775 0.459358 0.456789 
0.494118 0.468422 0.462902 0.460315 
0.498039 0.472071 0.466456 0.463844 
0.501961 0.475724 0.470016 0.467383 
0.505882 0.479379 0.473582 0.470929 
0.509804 0.483039 0.477156 0.474482 
0.513725 0.486713 0.480742 0.478043 
0.517647 0.490410 0.484351 0.481612 
0.521569 0.494134 0.487985 0.485189 
0.525490 0.497927 0.491660 0.488778 
0.529412 0.501775 0.495421 0.492392 
0.533333 0.505631 0.499206 0.496034 
0.537255 0.509492 0.502990 0.499722 
0.541176 0.513360 0.506775 0.503421 
0.545098 0.517232 0.510559 0.507125 
0.549020 0.521106 0.514342 0.510836 
0.552941 0.524982 0.518123 0.514553 
0.556863 0.528863 0.521900 0.518277 
0.560784 0.532750 0.525680 0.522007 
0.564706 0.536636 0.529457 0.525743 
0.568627 0.540539 0.533240 0.529486 
0.572549 0.544448 0.537043 0.533236 
0.576471 0.548332 0.540850 0.536993 
0.580392 0.552201 0.544636 0.540769 
0.584314 0.556083 0.548417 0.544560 
0.588235 0.559985 0.552219 0.548354 
0.592157 0.563923 0.556051 0.552152 
0.596078 0.567897 0.559926 0.555955 
0.600000 0.571875 0.563837 0.559765 
0.603922 0.575812 0.567749 0.563595 
0.607843 0.579714 0.571621 0.567446 
0.611765 0.583610 0.575461 0.571302 
0.615686 0.587503 0.579302 0.575142 
0.619608 0.591387 0.583143 0.578969 
0.623529 0.595269 0.586981 0.582802 
0.627451 0.599165 0.590825 0.586648 
0.631373 0.603062 0.594691 0.590499 
0.635294 0.606953 0.598559 0.594354 
0.639216 0.610844 0.602427 0.598221 
0.643137 0.614721 0.606298 0.602088 
0.647059 0.618569 0.610158 0.605956 
0.650980 0.622406 0.613996 0.609824 
0.654902 0.626253 0.617832 0.613692 
0.658824 0.630106 0.621687 0.617543 
0.662745 0.633969 0.625553 0.621377 
0.666667 0.637872 0.629440 0.625209 
0.670588 0.641837 0.633379 0.629051 
0.674510 0.645889 0.637399 0.632896 
0.678431 0.650041 0.641522 0.636758 
0.682353 0.654294 0.645758 0.640646 
0.686275 0.658652 0.650102 0.644584 
0.690196 0.663114 0.654559 0.648585 
0.694118 0.667568 0.659112 0.652656 
0.698039 0.671926 0.663608 0.656800 
0.701961 0.676182 0.667999 0.661019 
0.705882 0.680328 0.672283 0.665275 
0.709804 0.684375 0.676454 0.669500 
0.713725 0.688345 0.680528 0.673674 
0.717647 0.692266 0.684536 0.677795 
0.721569 0.696153 0.688504 0.681860 
0.725490 0.700037 0.692464 0.685886 
0.729412 0.703914 0.696431 0.689889 
0.733333 0.707775 0.700392 0.693883 
0.737255 0.711653 0.704361 0.697880 
0.741176 0.715553 0.708362 0.701899 
0.745098 0.719481 0.712392 0.705930 
0.749020 0.723439 0.716460 0.709974 
0.752941 0.727394 0.720540 0.714029 
0.756863 0.731351 0.724612 0.718091 
0.760784 0.735318 0.728694 0.722168 
0.764706 0.739294 0.732781 0.726252 
0.768627 0.743289 0.736880 0.730338 
0.772549 0.747329 0.741021 0.734439 
0.776471 0.751388 0.745179 0.738550 
0.780392 0.755464 0.749348 0.742671 
0.784314 0.759551 0.753523 0.746798 
0.788235 0.763655 0.757709 0.750935 
0.792157 0.767758 0.761886 0.755086 
0.796078 0.771843 0.766041 0.759248 
0.800000 0.775934 0.770203 0.763423 
0.803922 0.780047 0.774387 0.767606 
0.807843 0.784203 0.778621 0.771780 
0.811765 0.788419 0.782917 0.775945 
0.815686 0.792691 0.787271 0.780102 
0.819608 0.796998 0.791644 0.784266 
0.823529 0.801254 0.795953 0.788455 
0.827451 0.805449 0.800192 0.792674 
0.831373 0.809596 0.804376 0.796910 
0.835294 0.813717 0.808539 0.801120 
0.839216 0.817845 0.812708 0.805287 
0.843137 0.821974 0.816873 0.809421 
0.847059 0.826100 0.821031 0.813538 
0.850980 0.830236 0.825194 0.817654 
0.854902 0.834390 0.829361 0.821764 
0.858824 0.838555 0.833522 0.825859 
0.862745 0.842737 0.837699 0.829935 
0.866667 0.846958 0.841908 0.834002 
0.870588 0.851221 0.846140 0.838071 
0.874510 0.855482 0.850332 0.842138 
0.878431 0.859691 0.854461 0.846221 
0.882353 0.863859 0.858549 0.850322 
0.886275 0.868002 0.862607 0.854431 
0.890196 0.872144 0.866669 0.858518 
0.894118 0.876305 0.870751 0.862582 
0.898039 0.880500 0.874863 0.866638 
0.901961 0.884725 0.878986 0.870688 
0.905882 0.888937 0.883087 0.874756 
0.909804 0.893131 0.887172 0.878857 
0.913725 0.897335 0.891279 0.883005 
0.917647 0.901572 0.895418 0.887189 
0.921569 0.905828 0.899562 0.891407 
0.925490 0.910070 0.903692 0.895666 
0.929412 0.914324 0.907841 0.899995 
0.933333 0.918598 0.912004 0.904400 
0.937255 0.922861 0.916159 0.908866 
0.941176 0.927131 0.920326 0.913401 
0.945098 0.931405 0.924501 0.918026 
0.949020 0.935689 0.928695 0.922716 
0.952941 0.939981 0.932903 0.927492 
0.956863 0.944283 0.937123 0.932359 
0.960784 0.948596 0.941355 0.937328 
0.964706 0.952918 0.945599 0.942396 
0.968627 0.957252 0.949858 0.947562 
0.972549 0.961601 0.954133 0.952824 
0.976471 0.965962 0.958420 0.958187 
0.980392 0.970334 0.962717 0.963653 
0.984314 0.974719 0.967025 0.969219 
0.988235 0.979115 0.971343 0.974888 
0.992157 0.983523 0.975672 0.980663 
0.996078 0.987943 0.980012 0.986546 
1.000000 0.992375 0.984363 0.992541 
END_DATA
CAL    

DESCRIPTOR "Argyll Calibration options and model"
ORIGINATOR "Argyll dispcal"
CREATED "Sun Apr  3 18:44:49 202"

NUMBER_OF_FIELDS 3
BEGIN_DATA_FORMAT
R_P G_P B_P 
END_DATA_FORMAT

NUMBER_OF_SETS 32
BEGIN_DATA
0.000289106 0.000751444 0.00159066 
0.999711 0.999249 0.998409 
1.526151 1.328398 1.214997 
0.586770 0.599272 0.676591 
0.0941651 0.159832 0.146848 
0.130880 0.129132 0.127945 
0.134791 0.0929307 0.100522 
0.105083 0.0798264 0.126376 
0.0778229 0.0906973 0.0832139 
0.0606860 0.0824039 0.0649083 
0.0582200 0.0690378 0.0737889 
0.0637736 0.0629466 0.0659196 
0.0603132 0.0642043 0.0542036 
0.0622160 0.0593038 0.0434253 
0.0496231 0.0548176 0.0519315 
0.0508212 0.0504805 0.0522437 
0.0406916 0.0483160 0.0481961 
0.0339691 0.0459132 0.0421289 
0.0310697 0.0480390 0.0369625 
0.0306469 0.0435529 0.0365885 
0.0311184 0.0415658 0.0371374 
0.0249635 0.0414669 0.0350743 
0.0317703 0.0392100 0.0309118 
0.0253027 0.0365518 0.0305314 
0.0258644 0.0358253 0.0272761 
0.0257283 0.0356853 0.0259659 
0.0233981 0.0352600 0.0224359 
0.0238999 0.0340923 0.0231532 
0.0181515 0.0324223 0.0214585 
0.0193922 0.0298938 0.0200458 
0.0189876 0.0284341 0.0193759 
0.0187099 0.0287549 0.0161484 
END_DATA
