dell_u2412m/srgb_80nits_U2412m_2022_with_sRGB_gamma_curve/srgb_80nits_U2412m_2022_with_sRGB_gamma_curve.ti3
CTI3   

DESCRIPTOR "Argyll Calibration Target chart information 3"
ORIGINATOR "Argyll dispread"
CREATED "Sun Apr  3 18:44:54 2022"
DEVICE_CLASS "DISPLAY"
COLOR_REP "RGB_XYZ"
TARGET_INSTRUMENT "X-Rite i1 DisplayPro, ColorMunki Display"
DISPLAY_TYPE_REFRESH "NO"
DISPLAY_TYPE_BASE_ID "1"
INSTRUMENT_TYPE_SPECTRAL "NO"
LUMINANCE_XYZ_CDM2 "74.377549 78.230754 84.667994"
NORMALIZED_TO_Y_100 "YES"
VIDEO_LUT_CALIBRATION_POSSIBLE "YES"

NUMBER_OF_FIELDS 7
BEGIN_DATA_FORMAT
SAMPLE_ID RGB_R RGB_G RGB_B XYZ_X XYZ_Y XYZ_Z 
END_DATA_FORMAT

NUMBER_OF_SETS 836
BEGIN_DATA
1 100.0000 100.0000 100.0000 95.07456 100.0000 108.2285 
2 39.60025 0.00000 0.00000 5.408736 2.742764 0.289173 
3 51.23213 0.00000 0.00000 9.472050 4.754292 0.346156 
4 59.22988 19.30410 31.34008 15.64859 9.298262 8.476246 
5 0.00000 86.90899 20.26359 26.08875 53.08112 10.23431 
6 13.46706 88.08354 22.36019 27.70883 55.10122 11.18712 
7 17.30515 100.0000 31.78814 37.23985 73.40262 17.54388 
8 0.00000 0.00000 71.98058 8.217683 3.042836 46.42296 
9 16.81811 0.00000 82.98448 12.36427 4.682357 64.63089 
10 18.32074 17.01863 100.0000 19.27945 8.628999 98.07647 
11 51.26895 19.59589 100.0000 27.94675 13.34758 98.31548 
12 53.46364 35.70716 100.0000 31.24076 19.04583 98.82412 
13 66.49950 44.72248 100.0000 40.12546 26.92607 99.56251 
14 76.18808 100.0000 100.0000 75.12772 90.14053 107.7588 
15 88.33274 100.0000 100.0000 83.98776 94.34246 107.5211 
16 82.70985 0.00000 16.16562 28.19564 13.96253 2.789221 
17 89.34815 10.59635 25.96354 34.33889 17.54210 6.188799 
18 100.0000 13.56827 29.08798 44.83533 23.03015 7.920940 
19 100.0000 0.00000 12.96134 43.19309 21.42578 2.355836 
20 100.0000 0.00000 25.12398 43.84135 21.66243 5.961717 
21 100.0000 0.00000 37.57789 45.05609 22.08498 12.48848 
22 100.0000 11.92838 46.13284 46.32702 23.34953 18.99947 
23 100.0000 0.00000 49.48357 46.64757 22.66422 21.68966 
24 100.0000 0.00000 62.16930 48.99033 23.51970 35.20777 
25 100.0000 13.03572 65.23003 50.17442 24.88426 38.79273 
26 100.0000 27.04558 75.05191 54.21888 28.90491 52.88614 
27 47.18709 68.58071 88.56511 36.15746 39.76366 78.97628 
28 49.64192 83.41522 100.0000 49.71172 59.21334 104.2926 
29 12.65826 13.07018 20.21387 1.869850 1.768470 3.682626 
30 24.12105 15.93196 29.06903 4.030641 3.121453 7.075215 
31 56.34936 50.78912 77.37506 29.33680 25.51524 57.20951 
32 67.23541 64.46371 81.46435 41.13491 39.37488 65.76145 
33 75.72254 0.00000 0.00000 22.43136 11.17736 0.528926 
34 78.35240 15.83880 14.40839 25.63896 13.86906 2.551452 
35 85.53729 48.55999 31.36508 38.31441 29.76322 10.38420 
36 100.0000 75.97514 69.34435 69.44857 63.01438 49.36433 
37 100.0000 88.16955 72.07236 77.68764 78.90143 55.36119 
38 33.73300 46.19677 12.01769 10.36328 14.93129 3.263724 
39 34.09378 61.36455 34.05495 17.19840 26.45843 12.43295 
40 46.22300 65.98225 48.06293 24.74985 33.25039 23.28296 
41 48.41618 77.13905 53.79299 32.18714 46.03829 30.00638 
42 74.27290 74.80885 64.90496 46.55534 50.77338 42.87520 
43 83.81905 74.96399 71.78588 54.90905 54.68003 51.94506 
44 10.16290 52.34590 10.63778 8.771848 17.07490 3.429853 
45 15.42191 57.75234 32.42043 12.55470 22.01598 11.17878 
46 74.54351 94.04903 39.59229 54.43043 74.53733 21.40294 
47 50.92142 100.0000 0.00000 44.44097 77.21683 9.788438 
48 52.78558 100.0000 18.78953 45.87019 77.92371 12.73659 
49 61.13795 100.0000 36.53564 51.10705 80.31548 20.43598 
50 75.65487 65.93456 25.08945 37.17242 39.74250 9.144247 
51 77.26992 74.92251 46.54489 44.99572 50.31765 23.52816 
52 84.39015 100.0000 83.63850 75.55737 91.15498 75.73809 
53 0.00000 0.00000 58.12631 5.104041 1.921046 28.64831 
54 16.76053 0.00000 65.77843 7.790442 3.019740 38.43225 
55 50.56612 0.00000 67.02538 16.13989 7.115315 40.37855 
56 67.10130 33.89736 67.54001 27.51952 17.77979 41.77401 
57 89.92376 49.48012 67.94767 47.83577 34.18373 43.72111 
58 90.97280 61.02353 78.38309 55.99879 44.69204 60.79615 
59 100.0000 84.69534 85.44626 79.17406 75.56520 76.75381 
60 50.89880 45.65960 0.00000 15.46797 16.91687 1.902685 
61 68.11784 56.58264 0.00000 27.53746 28.62841 2.991960 
62 84.87260 66.79420 0.00000 43.05107 42.94712 4.269557 
63 85.45413 73.30975 34.16682 48.77113 51.08194 14.48050 
64 39.04833 31.63763 31.31424 9.652079 9.110893 8.796546 
65 56.03732 31.90629 57.75326 19.67094 13.58973 29.96021 
66 74.44068 34.57700 58.47445 30.37140 19.68867 30.98308 
67 86.50602 35.47889 49.37512 38.01700 23.91480 22.27148 
68 100.0000 70.14006 55.25882 63.39614 55.68547 31.63312 
69 39.69235 54.21608 0.00000 14.20077 20.59234 2.578347 
70 39.71916 58.22579 16.82288 16.32092 24.19662 5.410541 
71 54.48774 70.75773 30.55848 28.46806 39.02430 12.10180 
72 58.71336 73.08348 16.00871 30.57963 41.88426 7.083557 
73 66.49591 86.08630 14.63228 42.37065 60.23326 8.896110 
74 62.72091 100.0000 0.00000 50.09232 79.98673 9.864974 
75 67.68572 100.0000 14.98621 53.13393 81.51486 11.76967 
76 0.00000 100.0000 25.62919 35.78050 72.84264 14.58812 
77 0.00000 100.0000 38.02026 36.78949 73.24085 20.82690 
78 0.00000 100.0000 75.94552 44.05034 75.87866 62.08375 
79 0.00000 100.0000 87.84604 47.47563 77.03152 82.33158 
80 37.11003 100.0000 86.73327 52.25642 79.43137 80.91862 
81 63.49847 100.0000 100.0000 67.68077 86.48901 107.5240 
82 0.00000 14.68076 63.37174 6.880901 3.700152 35.20131 
83 17.24656 33.72193 64.64874 10.79985 9.575698 37.84522 
84 20.05510 43.47235 81.38039 17.88191 16.16020 63.53440 
85 25.31735 59.98208 86.35683 25.76707 28.79699 73.50620 
86 72.94196 0.00000 54.44580 25.10704 11.90535 25.80946 
87 82.90934 0.00000 68.66359 35.06103 16.42150 42.72907 
88 85.05265 33.46712 78.52929 42.80372 24.84547 58.31808 
89 84.45809 35.81130 100.0000 49.85456 28.22162 99.29374 
90 28.75042 28.45392 42.81728 7.849256 7.234430 15.78666 
91 36.41243 29.13117 54.36619 11.41270 8.848395 26.05420 
92 83.34103 18.38844 0.00000 29.48318 16.14103 0.865262 
93 86.94392 23.38573 15.24379 33.20134 18.87492 3.078645 
94 100.0000 35.50364 25.35955 47.48565 29.07893 7.083409 
95 73.98115 32.32891 0.00000 24.54220 16.60137 1.260150 
96 72.64776 49.85877 12.40381 28.13627 25.42787 3.856766 
97 82.21272 56.43318 18.85218 37.79111 33.88633 6.143730 
98 81.65949 56.86986 40.99098 39.40159 34.72420 17.04671 
99 26.00899 25.19997 0.00000 4.053960 4.731210 0.696407 
100 42.49659 30.48608 0.00000 8.925946 8.457004 0.974976 
101 58.19295 30.34185 0.00000 15.14580 11.43064 1.044590 
102 62.55268 41.98756 43.91662 23.00915 19.05282 17.58249 
103 61.72667 82.56300 57.92722 42.44551 56.23817 35.62093 
104 65.59553 88.24871 72.87807 51.19250 65.65237 55.59690 
105 67.03653 42.99951 0.00000 22.62655 19.46496 1.844904 
106 82.07782 50.94878 0.00000 34.88396 29.21836 2.603646 
107 100.0000 59.86939 0.00000 53.91434 43.88937 3.736150 
108 20.44230 44.53381 58.51505 12.56508 14.76608 31.14790 
109 23.12720 78.71220 71.02063 30.15812 46.02285 50.80234 
110 40.71736 84.86659 84.65692 41.81177 57.04665 74.16512 
111 6.892000 28.87877 89.81449 16.18545 10.07407 77.38026 
112 17.02608 32.46044 100.0000 21.22646 13.06244 98.34412 
113 26.49390 46.56775 100.0000 26.09231 20.98879 99.80816 
114 33.01190 59.06240 100.0000 31.91819 30.76032 100.8139 
115 85.34946 68.01783 100.0000 61.82627 51.43242 102.2798 
116 33.29984 13.73491 65.53381 11.02690 5.571756 38.10910 
117 33.16889 37.94790 87.12711 20.71432 15.14009 73.40275 
118 19.83291 19.14958 82.49872 13.69207 7.040228 63.94012 
119 42.51813 18.30156 85.15475 19.33656 9.585625 68.88302 
120 0.00000 0.00000 35.00399 1.766505 0.719012 9.582377 
121 0.00000 0.00000 46.60894 3.186927 1.231348 17.70242 
122 0.00000 0.00000 100.0000 17.22852 6.220979 97.82813 
123 0.00000 14.30480 100.0000 17.79042 7.557554 97.60244 
124 83.60841 17.63563 100.0000 46.58290 22.24030 98.54687 
125 28.83372 68.51270 0.00000 17.68163 31.86585 4.156383 
126 43.78753 70.22084 0.00000 22.37730 35.60947 4.437415 
127 68.29998 71.63987 0.00000 34.35599 42.71925 4.802616 
128 86.70879 77.03611 13.07096 50.21116 54.95550 7.244269 
129 0.00000 100.0000 51.43547 38.58411 73.77322 31.43940 
130 0.00000 100.0000 63.45529 40.93124 74.56452 44.57610 
131 17.15728 100.0000 64.85883 42.39296 75.44353 46.37597 
132 0.00000 76.57760 54.97787 23.45618 41.00777 30.38718 
133 13.36635 78.01031 60.75120 26.30336 43.75202 37.43684 
134 36.72225 80.93584 61.10711 32.03180 49.15477 38.51245 
135 49.36478 87.86501 74.94998 43.90887 61.70278 58.18460 
136 100.0000 46.91551 0.00000 49.33050 34.35160 2.511646 
137 100.0000 73.82830 0.00000 60.31388 57.12651 5.436981 
138 100.0000 82.65319 17.53441 66.04936 68.45188 9.583861 
139 32.47542 0.00000 73.47048 12.07471 4.901771 48.85573 
140 32.96186 0.00000 87.76967 16.42581 6.474024 73.34215 
141 0.00000 58.69114 0.00000 10.56280 21.63325 2.983930 
142 0.00000 73.43892 0.00000 17.00813 35.35433 4.754803 
143 16.26577 75.77015 12.31725 19.73242 38.98134 6.497288 
144 19.34610 95.15631 74.12665 41.39496 68.96183 58.26380 
145 17.72841 100.0000 82.67740 47.19897 77.13872 73.85584 
146 100.0000 0.00000 0.00000 42.85225 21.30142 0.834974 
147 100.0000 15.25927 0.00000 43.78121 22.81087 1.017040 
148 100.0000 100.0000 12.77605 78.11212 93.87558 11.79749 
149 100.0000 100.0000 25.99514 78.78505 94.15401 15.77553 
150 100.0000 100.0000 39.00696 79.90376 94.46236 22.73660 
151 11.64634 46.81457 100.0000 24.28240 20.10741 99.57289 
152 17.46290 60.32972 100.0000 29.64421 30.33829 100.5850 
153 0.00000 13.63272 31.78752 2.059731 1.831176 8.060050 
154 15.64724 18.05992 41.67025 4.401753 3.407868 14.40893 
155 15.88626 18.60571 58.61824 7.166323 4.487781 29.78357 
156 33.08727 29.30574 70.90423 14.07883 9.840523 46.01785 
157 51.87441 34.42160 80.37457 23.68592 15.72006 61.14827 
158 62.66517 42.76003 89.46326 33.74357 23.37622 77.89316 
159 100.0000 47.73994 35.34141 51.54742 35.92451 12.83633 
160 100.0000 61.48909 39.14058 56.99840 46.38483 16.61759 
161 100.0000 62.96474 67.77765 62.66188 49.71033 45.50322 
162 22.41416 84.30502 15.05054 25.83097 50.20125 8.458540 
163 25.48234 92.51702 23.52421 32.29117 62.11758 12.44903 
164 18.49407 84.51092 0.00000 25.04017 49.96598 6.590091 
165 37.26505 84.42178 0.00000 28.45713 51.29567 6.573493 
166 55.17329 86.35178 9.315094 36.43873 57.26765 7.914134 
167 46.77176 0.00000 48.60097 11.09780 5.095406 20.03690 
168 64.61241 0.00000 85.80290 28.07263 12.29339 70.51601 
169 100.0000 35.79719 86.82542 58.92032 33.31478 73.15830 
170 100.0000 100.0000 100.0000 95.07456 100.0000 108.2285 
171 34.34916 0.00000 58.40938 9.169086 3.916914 29.60213 
172 49.11542 0.00000 81.88925 19.46933 8.219379 62.98218 
173 60.82752 20.44088 81.95037 26.11642 13.42748 63.23514 
174 0.00000 0.00000 22.54997 0.818264 0.377367 4.164202 
175 0.00000 14.93718 84.30231 12.44220 5.743554 66.75990 
176 0.00000 38.48700 84.76511 16.12032 13.21356 68.46072 
177 14.99034 24.67029 30.44088 3.962376 4.551313 8.073151 
178 19.08052 42.16557 33.38938 8.079988 11.97488 10.33217 
179 32.92956 45.84548 43.19587 12.50667 15.59106 17.05201 
180 44.40247 59.35368 57.11846 22.85071 27.72042 31.53300 
181 88.23262 0.00000 0.00000 32.03456 15.91523 0.664034 
182 100.0000 19.52784 15.31497 44.51249 23.76837 3.180818 
183 0.00000 61.18269 17.09986 11.92814 23.98788 5.671067 
184 0.00000 73.61788 28.04295 18.52705 36.64800 10.98361 
185 14.32593 34.36936 0.00000 4.119852 7.169229 1.083324 
186 31.92997 38.52218 0.00000 7.579179 10.20910 1.343357 
187 48.46209 44.14088 16.41574 14.58564 16.13497 4.106986 
188 58.69833 55.87186 20.54185 22.98715 26.10371 6.242012 
189 64.22686 81.25523 34.12466 39.28247 53.52164 15.47200 
190 0.00000 100.0000 100.0000 52.05033 78.74251 107.2893 
191 13.31213 100.0000 100.0000 52.67644 79.05022 107.2892 
192 51.65206 100.0000 100.0000 61.76928 83.33732 107.0512 
193 0.00000 0.00000 86.07768 12.31763 4.502001 69.81044 
194 13.73917 0.00000 100.0000 17.92702 6.566273 97.82809 
195 27.86799 0.00000 100.0000 19.84560 7.499042 98.06333 
196 36.04760 14.63226 100.0000 22.30727 9.794891 98.07321 
197 82.75928 51.75202 100.0000 53.29101 36.94496 100.5363 
198 100.0000 62.06723 100.0000 72.12781 52.40362 101.7699 
199 0.00000 13.25978 0.00000 0.666773 1.249363 0.358919 
200 0.00000 16.56132 15.93866 1.293937 1.927952 2.508038 
201 0.00000 19.08297 45.32613 4.096590 3.383468 17.08524 
202 11.95633 30.53426 51.55691 7.172927 7.249448 22.99503 
203 10.11717 54.39444 84.73442 21.30421 23.18493 69.70679 
204 30.17553 74.26940 100.0000 38.27960 44.82896 102.7991 
205 35.10017 87.47520 100.0000 47.34497 62.01020 104.8006 
206 0.00000 68.59460 42.46298 17.42822 31.78914 18.33812 
207 0.00000 88.54075 54.54183 30.85351 56.51762 31.81919 
208 35.92781 100.0000 58.72912 44.61707 76.66487 39.52449 
209 47.25901 100.0000 66.88481 50.17729 78.98927 49.83811 
210 100.0000 100.0000 76.21651 87.15245 97.19314 63.72970 
211 100.0000 100.0000 88.23162 90.72196 98.44399 84.44876 
212 0.00000 0.00000 0.00000 0.126899 0.128342 0.214696 
213 0.00000 100.0000 0.00000 34.85783 72.46285 9.642904 
214 13.25232 100.0000 0.00000 35.48840 72.77070 9.663841 
215 26.35892 100.0000 0.00000 37.16328 73.46172 9.667926 
216 37.84788 100.0000 15.28843 40.32089 75.18030 11.70463 
217 83.33075 83.20448 0.00000 51.15287 61.39757 6.706615 
218 100.0000 87.11890 0.00000 68.32254 73.83082 7.603657 
219 100.0000 87.41775 35.64511 70.41064 75.26738 18.07676 
220 0.00000 100.0000 12.97366 35.13574 72.61962 11.08310 
221 18.25722 100.0000 15.79657 36.45488 73.29169 11.73815 
222 32.26536 100.0000 29.88943 39.59858 74.48092 16.72482 
223 47.02167 100.0000 32.35213 44.34522 77.07449 17.94896 
224 83.09754 21.98039 57.15719 34.48984 18.62766 29.45359 
225 100.0000 38.71015 60.14152 52.97924 32.28582 33.67328 
226 62.60084 0.00000 14.77228 15.16758 7.525693 2.297647 
227 69.52708 0.00000 26.33339 19.50047 9.589418 6.026557 
228 80.67027 23.41040 25.77600 28.79481 16.63204 6.366677 
229 82.93123 34.17888 38.44137 33.36898 21.42552 13.45213 
230 46.62696 14.21053 14.20462 8.727813 5.315366 2.187971 
231 64.67254 21.02926 16.09213 17.66030 10.74665 2.943038 
232 63.71593 90.15166 43.81891 45.91569 65.98857 23.68198 
233 72.11886 100.0000 71.81606 63.68918 85.65003 56.66663 
234 0.00000 85.31656 38.49415 26.52738 51.50039 18.13103 
235 29.32492 85.04493 37.83544 29.15762 52.23714 17.97940 
236 18.75546 83.69498 45.17352 27.44555 49.98902 23.08845 
237 39.71451 100.0000 44.83130 43.16682 76.06529 26.09121 
238 53.46206 100.0000 50.22947 49.27407 79.13796 30.90146 
239 61.29149 36.70163 12.07622 18.23353 15.06625 2.782101 
240 70.59899 44.09408 33.41001 26.84427 21.91284 10.83946 
241 77.03252 50.01429 80.01035 41.32507 30.99928 61.67918 
242 56.59801 0.00000 100.0000 28.86007 11.99044 98.06311 
243 65.88235 14.22587 100.0000 34.26054 15.72211 98.07265 
244 68.82295 30.08031 100.0000 38.07544 20.69594 98.80763 
245 32.33635 69.52512 64.97723 25.37586 35.87107 41.68751 
246 61.06984 100.0000 64.51991 55.75354 81.95106 46.82551 
247 84.38367 100.0000 66.36802 70.94331 89.37257 49.36693 
248 0.00000 86.28806 0.00000 24.85438 51.53211 6.850548 
249 39.06448 100.0000 0.00000 40.35123 75.09547 9.730896 
250 75.44238 100.0000 0.00000 57.42297 83.44779 9.966371 
251 84.80219 100.0000 18.22610 64.82287 87.29261 12.77761 
252 80.66900 86.99690 27.79472 52.92957 66.27917 13.60559 
253 83.99580 88.31019 49.15016 58.67479 70.11950 27.90471 
254 13.49141 54.24358 0.00000 9.359518 18.19652 2.508796 
255 19.62993 63.97199 14.86388 14.35447 27.01387 5.477040 
256 24.79450 73.26767 37.43308 21.32258 37.56164 15.84155 
257 0.00000 57.62416 31.51175 11.48698 21.52305 10.40432 
258 0.00000 57.73029 65.05709 16.71632 23.56640 39.59467 
259 16.13038 62.85113 65.97015 19.96244 28.38501 41.65117 
260 14.51731 72.93889 100.0000 35.24633 42.25844 102.3183 
261 0.00000 27.76291 100.0000 19.43738 10.87366 98.33210 
262 0.00000 40.36481 100.0000 22.07750 16.14823 99.07535 
263 0.00000 52.79651 100.0000 25.69026 23.92546 99.60184 
264 0.00000 64.05806 100.0000 29.89741 32.85212 100.8427 
265 0.00000 87.85105 100.0000 43.34323 60.46749 104.8049 
266 26.39815 100.0000 100.0000 54.48842 79.93236 107.5245 
267 39.62078 100.0000 100.0000 57.73536 81.51349 107.5240 
268 36.32667 33.84852 20.10447 8.400085 9.103581 4.373870 
269 45.45748 44.15223 31.92488 14.53657 16.03621 9.836765 
270 66.51915 65.73880 36.83116 32.47893 37.22129 14.93215 
271 88.62107 66.03864 57.66535 51.22879 46.24308 33.22330 
272 71.94324 0.00000 100.0000 37.12811 16.07545 98.06258 
273 85.80314 0.00000 100.0000 47.18371 21.04691 98.53298 
274 100.0000 0.00000 100.0000 60.15185 27.42331 98.76737 
275 100.0000 12.35580 100.0000 60.71522 28.53599 98.77509 
276 52.43716 81.59915 0.00000 32.17684 50.32363 6.176006 
277 66.08243 86.92823 0.00000 42.24690 60.93736 7.208926 
278 26.08374 50.66313 0.00000 9.830141 16.58065 2.218568 
279 27.88913 51.33911 23.54339 11.36638 17.91678 6.697647 
280 55.29276 57.12973 40.22718 23.79182 27.25846 16.28932 
281 57.05378 71.07941 100.0000 45.46776 45.85746 102.0686 
282 71.58764 74.13374 100.0000 55.39505 53.27605 103.0334 
283 0.00000 26.52956 0.00000 2.026350 4.072579 0.722675 
284 0.00000 43.33748 0.00000 5.431632 11.14606 1.633729 
285 0.00000 48.40964 13.26211 7.116971 14.24398 3.511969 
286 0.00000 70.00161 72.91768 24.20815 35.81958 51.91269 
287 0.00000 83.04072 84.73785 34.98409 52.23956 73.44573 
288 25.31275 90.33600 91.32336 44.03470 63.67057 87.63990 
289 55.91010 62.85146 0.00000 23.88823 30.71553 3.564454 
290 87.83837 100.0000 0.00000 66.69837 88.16871 10.10063 
291 100.0000 100.0000 0.00000 77.81476 93.71818 10.26586 
292 43.97591 15.17106 39.06744 9.750279 5.726257 12.83344 
293 53.64583 14.07486 50.92454 15.13142 8.030271 22.30111 
294 65.97239 15.32140 63.01021 23.41522 11.98809 35.69469 
295 42.36621 0.00000 32.20316 7.653951 3.659654 8.525697 
296 71.61582 0.00000 40.50770 22.34491 10.81188 13.81179 
297 79.31824 19.07655 40.66636 28.54331 15.57052 14.40263 
298 100.0000 38.12990 46.16050 50.30664 31.00769 19.98001 
299 100.0000 53.60079 52.04029 55.72088 40.80462 26.56079 
300 63.28228 0.00000 0.00000 15.02359 7.502875 0.423363 
301 65.64566 15.37070 0.00000 17.10199 9.607888 0.624756 
302 87.32463 36.98225 0.00000 35.37503 23.40173 1.646042 
303 100.0000 51.88718 20.04915 51.55151 38.04073 6.328001 
304 42.82173 0.00000 100.0000 23.45322 9.292313 98.06320 
305 42.67225 69.20694 100.0000 38.88480 40.94919 101.8182 
306 0.00000 34.36456 69.13414 10.77603 9.737711 42.79171 
307 16.44087 46.30047 72.10290 15.50696 16.58579 48.71288 
308 0.00000 51.89150 75.55073 17.12982 20.04163 53.68296 
309 33.29994 60.29047 76.16881 24.41522 28.75266 56.08503 
310 60.54806 36.70519 30.73560 19.02297 15.35145 8.906874 
311 71.60900 100.0000 29.11160 56.30338 82.79828 16.67076 
312 83.60279 100.0000 37.41158 65.48602 87.40773 21.22155 
313 100.0000 100.0000 50.99960 81.62705 95.17918 32.60062 
314 100.0000 100.0000 63.74805 84.28711 96.16723 46.79491 
315 100.0000 30.95596 0.00000 45.63999 26.73691 1.523632 
316 100.0000 39.30669 12.04695 47.46408 30.39974 3.389511 
317 100.0000 37.10525 100.0000 64.24236 35.88999 99.76904 
318 100.0000 49.18696 100.0000 67.47965 42.52919 100.5222 
319 30.79928 0.00000 42.76197 5.884176 2.628527 15.11550 
320 30.40956 12.12202 52.51563 7.860094 4.173918 23.67641 
321 0.00000 28.16263 30.54523 3.592447 5.164380 7.985967 
322 0.00000 35.70465 47.75927 6.950801 8.717920 19.72117 
323 17.94605 69.73810 81.11057 27.50260 36.85873 65.33054 
324 30.95855 69.36922 81.70070 29.58749 37.49272 66.03323 
325 21.70922 16.18716 17.77121 2.940214 2.674933 3.023183 
326 47.00695 24.01655 19.89020 10.16670 7.544965 4.012533 
327 72.08975 30.60291 35.49896 24.94214 16.29096 11.39094 
328 72.26817 32.58699 89.61428 36.87861 21.27748 78.09455 
329 34.58316 40.46558 54.50816 13.25661 13.41165 26.63019 
330 41.60980 42.81108 67.33388 18.49595 16.66725 42.09613 
331 42.17973 50.27743 86.60907 26.48305 23.37999 73.68800 
332 51.80703 54.96156 100.0000 36.30874 30.33865 100.5540 
333 68.20700 59.46731 100.0000 46.35642 38.22792 101.0516 
334 0.00000 84.64064 69.59266 31.29738 52.33094 48.73617 
335 15.43547 86.11541 74.79978 34.88782 55.60466 57.69892 
336 100.0000 64.77507 14.03232 56.40195 48.41168 6.058267 
337 100.0000 70.00104 29.04482 59.71589 54.16663 11.90127 
338 100.0000 80.37766 46.48938 67.51189 66.56178 24.89504 
339 49.41061 0.00000 19.53229 9.209622 4.550645 3.495972 
340 57.39567 0.00000 34.67754 13.74772 6.653628 9.808792 
341 59.24997 0.00000 54.03624 17.39365 8.082089 25.26388 
342 66.52084 0.00000 70.46022 24.61394 11.19518 45.18528 
343 81.90055 0.00000 84.17031 38.96000 17.73460 67.68989 
344 100.0000 16.02096 84.26467 55.52077 27.25290 68.17226 
345 100.0000 69.10670 84.09920 69.92263 56.97701 71.44306 
346 100.0000 75.10245 100.0000 78.41369 65.69163 103.2771 
347 0.00000 41.22772 37.50706 6.858227 10.86582 12.44320 
348 0.00000 52.16652 47.22170 11.33802 18.08882 20.11339 
349 33.68973 100.0000 72.93697 47.14503 77.48569 57.60977 
350 52.84571 100.0000 81.76317 56.21233 81.68772 71.73665 
351 67.24835 100.0000 86.06537 64.62243 85.67390 79.97707 
352 0.00000 32.41340 14.92565 3.366736 6.319072 2.787031 
353 0.00000 44.81686 25.70701 6.775516 12.41463 6.863863 
354 7.806245 49.68744 36.13424 9.497192 16.05875 12.36927 
355 19.61339 58.72041 49.10346 15.49850 24.06334 22.99893 
356 25.67566 67.13047 53.14750 20.58685 31.94427 27.99053 
357 52.57871 73.47158 73.48034 36.11984 44.07133 53.58244 
358 55.29043 86.88130 83.56741 48.51352 62.74450 72.77389 
359 65.45377 86.69676 100.0000 59.08285 66.99566 105.0278 
360 85.07663 0.00000 35.09703 31.24278 15.27837 10.50276 
361 100.0000 24.32638 49.55806 48.16331 26.06038 22.08161 
362 100.0000 25.55669 61.71662 50.69833 27.28526 34.82305 
363 34.41609 0.00000 14.05352 4.330095 2.169522 1.968741 
364 39.41941 16.50027 26.22704 7.327427 4.838861 6.000007 
365 13.24230 0.00000 0.00000 0.781543 0.452294 0.223958 
366 14.52923 0.00000 33.41823 2.413128 1.054352 8.933062 
367 17.40448 0.00000 50.03120 4.796090 1.947359 21.14487 
368 49.15440 45.77677 54.10601 19.23393 18.68758 26.75464 
369 49.99648 50.70371 64.71415 23.09026 22.70152 39.16943 
370 60.26172 53.65648 64.36012 28.99243 27.30033 39.16300 
371 63.56932 66.53253 70.48209 37.24137 39.46823 48.82440 
372 74.01133 81.47585 80.16168 54.19971 60.29309 65.65959 
373 100.0000 0.00000 75.28509 52.07822 24.62601 52.85633 
374 100.0000 0.00000 87.60739 55.72968 25.94430 73.57564 
375 100.0000 24.69141 100.0000 62.03360 31.20492 99.26476 
376 83.67552 70.40334 83.98852 56.14953 51.56151 71.22135 
377 83.76460 84.77934 100.0000 70.08729 70.40930 104.7728 
378 100.0000 87.81479 100.0000 86.36746 81.72498 105.7442 
379 0.00000 0.00000 11.03211 0.321258 0.198328 1.324860 
380 16.82974 0.00000 15.65777 1.463824 0.741276 2.299468 
381 28.70087 0.00000 26.99043 3.861028 1.841014 5.994467 
382 86.53176 0.00000 53.72959 35.02376 16.82619 25.33856 
383 88.55128 21.16603 68.62486 41.02063 21.43376 43.19467 
384 65.14852 21.20904 47.22111 20.67388 11.88893 19.16379 
385 75.40793 46.22463 53.19154 33.08284 25.72697 26.40480 
386 76.30781 58.57977 53.17788 38.07418 34.83112 27.54318 
387 14.52372 15.18733 0.00000 1.595465 1.933447 0.408108 
388 15.63828 35.47488 18.93848 4.996891 7.930332 4.053165 
389 82.49165 37.98591 17.84304 32.27273 22.39837 4.327888 
390 100.0000 40.47926 73.95097 56.54788 34.32738 52.21921 
391 100.0000 53.86652 83.30616 63.28633 43.67778 68.28881 
392 47.54971 80.98697 18.10801 30.43578 49.34283 8.803611 
393 50.76553 84.57955 30.77445 34.66357 54.75306 14.23432 
394 14.48490 68.82587 0.00000 15.75150 31.23681 4.181104 
395 25.50551 74.08324 25.83099 20.88589 38.11541 10.22660 
396 55.62167 79.41542 45.79178 35.40356 49.97577 23.26242 
397 86.11707 83.80770 67.22883 61.25339 66.54520 47.19371 
398 85.40961 83.85575 81.21610 64.36102 67.68032 68.27146 
399 26.34575 0.00000 0.00000 2.370242 1.238794 0.245997 
400 32.83227 13.43814 0.00000 4.292208 3.043271 0.409830 
401 49.11323 16.80601 0.00000 9.515335 6.060489 0.552188 
402 52.53562 34.27984 45.99432 16.47373 12.96225 18.59849 
