x201_tablet/2022-03-16/04_correction_test_srgb_x201t_HB140WX1-300_912bright_80nit.ti3
CTI3   

DESCRIPTOR "Argyll Calibration Target chart information 3"
ORIGINATOR "Argyll dispread"
CREATED "Wed Mar 16 21:11:39 2022"
DEVICE_CLASS "DISPLAY"
COLOR_REP "RGB_XYZ"
TARGET_INSTRUMENT "X-Rite i1 DisplayPro, ColorMunki Display"
DISPLAY_TYPE_REFRESH "NO"
INSTRUMENT_TYPE_SPECTRAL "NO"
LUMINANCE_XYZ_CDM2 "61.597644 64.781920 71.133016"
NORMALIZED_TO_Y_100 "YES"
VIDEO_LUT_CALIBRATION_POSSIBLE "YES"

NUMBER_OF_FIELDS 7
BEGIN_DATA_FORMAT
SAMPLE_ID RGB_R RGB_G RGB_B XYZ_X XYZ_Y XYZ_Z 
END_DATA_FORMAT

NUMBER_OF_SETS 836
BEGIN_DATA
1 100.0000 100.0000 100.0000 95.08462 100.0000 109.8038 
2 39.60025 0.00000 0.00000 4.078341 2.580591 0.918287 
3 51.23213 0.00000 0.00000 7.013417 4.412234 1.382554 
4 59.22988 19.30410 31.34008 12.69780 9.251119 9.465576 
5 0.00000 86.90899 20.26359 31.91287 48.11230 10.73491 
6 13.46706 88.08354 22.36019 33.61728 50.09782 11.72565 
7 17.30515 100.0000 31.78814 45.64349 67.74839 18.72926 
8 0.00000 0.00000 71.98058 9.814395 7.002266 44.40394 
9 16.81811 0.00000 82.98448 14.22819 10.07259 61.41167 
10 18.32074 17.01863 100.0000 22.58366 16.32243 95.11390 
11 51.26895 19.59589 100.0000 29.24591 20.81757 95.93740 
12 53.46364 35.70716 100.0000 32.83038 26.01437 96.23626 
13 66.49950 44.72248 100.0000 40.88690 33.50756 98.19153 
14 76.18808 100.0000 100.0000 80.48322 90.71334 107.3288 
15 88.33274 100.0000 100.0000 87.20094 94.91405 108.4276 
16 82.70985 0.00000 16.16562 20.91946 13.13606 5.507386 
17 89.34815 10.59635 25.96354 25.98845 16.75977 9.194165 
18 100.0000 13.56827 29.08798 33.49455 21.72704 11.93927 
19 100.0000 0.00000 12.96134 31.60603 19.79904 6.698039 
20 100.0000 0.00000 25.12398 32.70029 20.44231 9.887263 
21 100.0000 0.00000 37.57789 33.72645 21.29525 15.97034 
22 100.0000 11.92838 46.13284 35.85807 23.22815 22.32468 
23 100.0000 0.00000 49.48357 35.91019 22.80428 24.65735 
24 100.0000 0.00000 62.16930 38.62840 24.66909 36.98877 
25 100.0000 13.03572 65.23003 39.63566 26.16450 40.35171 
26 100.0000 27.04558 75.05191 44.66447 31.27046 55.65447 
27 47.18709 68.58071 88.56511 39.65713 42.39814 75.99909 
28 49.64192 83.41522 100.0000 55.61792 61.75899 101.6848 
29 12.65826 13.07018 20.21387 1.924759 1.880914 3.614484 
30 24.12105 15.93196 29.06903 3.988545 3.488093 7.165664 
31 56.34936 50.78912 77.37506 30.05353 28.45797 56.44200 
32 67.23541 64.46371 81.46435 41.58839 41.45787 64.55082 
33 75.72254 0.00000 0.00000 16.56944 10.39705 2.914789 
34 78.35240 15.83880 14.40839 19.41983 12.97915 5.045903 
35 85.53729 48.55999 31.36508 32.51078 28.26622 13.16116 
36 100.0000 75.97514 69.34435 64.01400 62.17543 51.69892 
37 100.0000 88.16955 72.07236 73.54245 76.00626 57.93075 
38 33.73300 46.19677 12.01769 10.92913 13.74238 3.803341 
39 34.09378 61.36455 34.05495 19.27458 24.90476 12.87103 
40 46.22300 65.98225 48.06293 26.53658 32.11777 23.75166 
41 48.41618 77.13905 53.79299 35.52683 44.46150 30.65513 
42 74.27290 74.80885 64.90496 46.40947 50.07209 43.91265 
43 83.81905 74.96399 71.78588 53.72860 54.85361 53.19366 
44 10.16290 52.34590 10.63778 10.67648 15.73847 3.710572 
45 15.42191 57.75234 32.42043 14.84877 20.66141 11.34151 
46 74.54351 94.04903 39.59229 56.61495 69.75783 24.20557 
47 50.92142 100.0000 0.00000 49.89462 70.29072 11.79423 
48 52.78558 100.0000 18.78953 51.24939 71.15262 14.66136 
49 61.13795 100.0000 36.53564 55.77935 74.12081 22.97894 
50 75.65487 65.93456 25.08945 34.61665 37.01847 11.59302 
51 77.26992 74.92251 46.54489 43.86775 48.18055 25.57204 
52 84.39015 100.0000 83.63850 78.71510 89.57745 77.24279 
53 0.00000 0.00000 58.12631 6.055823 4.340110 27.39691 
54 16.76053 0.00000 65.77843 8.752758 6.154438 36.05894 
55 50.56612 0.00000 67.02538 15.12680 10.14431 38.52313 
56 67.10130 33.89736 67.54001 24.98111 20.05497 41.28744 
57 89.92376 49.48012 67.94767 42.05399 35.11435 45.19127 
58 90.97280 61.02353 78.38309 51.32902 45.90867 61.72618 
59 100.0000 84.69534 85.44626 75.25201 74.91263 77.68713 
60 50.89880 45.65960 0.00000 14.36813 15.77023 3.090944 
61 68.11784 56.58264 0.00000 24.86335 26.35377 5.097867 
62 84.87260 66.79420 0.00000 39.09882 40.18854 7.694421 
63 85.45413 73.30975 34.16682 45.53213 48.02121 17.78882 
64 39.04833 31.63763 31.31424 9.306154 9.128254 9.119870 
65 56.03732 31.90629 57.75326 18.23573 15.12763 29.67068 
66 74.44068 34.57700 58.47445 26.41851 20.95020 31.47174 
67 86.50602 35.47889 49.37512 31.68129 24.16051 24.67047 
68 100.0000 70.14006 55.25882 56.15271 52.95269 35.12856 
69 39.69235 54.21608 0.00000 14.92097 19.16457 3.411794 
70 39.71916 58.22579 16.82288 17.26835 22.19960 6.063448 
71 54.48774 70.75773 30.55848 29.08915 35.91618 13.27098 
72 58.71336 73.08348 16.00871 31.25230 38.66318 8.726325 
73 66.49591 86.08630 14.63228 43.54338 54.93034 11.15241 
74 62.72091 100.0000 0.00000 53.97388 72.79579 12.38523 
75 67.68572 100.0000 14.98621 56.47542 74.41086 14.62350 
76 0.00000 100.0000 25.62919 44.34372 66.82240 15.70873 
77 0.00000 100.0000 38.02026 45.66370 67.86980 22.41486 
78 0.00000 100.0000 75.94552 54.68259 74.56646 62.53259 
79 0.00000 100.0000 87.84604 58.35315 76.73971 80.07527 
80 37.11003 100.0000 86.73327 61.87457 79.19892 79.79096 
81 63.49847 100.0000 100.0000 75.01921 87.33478 106.5061 
82 0.00000 14.68076 63.37174 8.182338 6.494959 33.54740 
83 17.24656 33.72193 64.64874 12.37628 12.07851 36.01709 
84 20.05510 43.47235 81.38039 20.90188 20.18333 60.61776 
85 25.31735 59.98208 86.35683 29.87322 32.05333 70.40878 
86 72.94196 0.00000 54.44580 20.56575 13.30720 26.61303 
87 82.90934 0.00000 68.66359 29.12857 18.98481 42.68953 
88 85.05265 33.46712 78.52929 38.13269 28.28661 59.15874 
89 84.45809 35.81130 100.0000 46.65207 34.74851 98.43384 
90 28.75042 28.45392 42.81728 8.203487 7.916350 15.58245 
91 36.41243 29.13117 54.36619 11.75850 10.46001 25.57720 
92 83.34103 18.38844 0.00000 22.12958 14.92956 3.875646 
93 86.94392 23.38573 15.24379 25.01025 17.44012 6.225330 
94 100.0000 35.50364 25.35955 36.86271 27.41595 11.15847 
95 73.98115 32.32891 0.00000 19.33303 15.36151 3.600586 
96 72.64776 49.85877 12.40381 24.42890 23.63080 6.126411 
97 82.21272 56.43318 18.85218 32.76756 31.37433 9.000051 
98 81.65949 56.86986 40.99098 34.78993 32.97957 19.46034 
99 26.00899 25.19997 0.00000 3.906068 4.381851 1.043543 
100 42.49659 30.48608 0.00000 7.891858 7.857732 1.751341 
101 58.19295 30.34185 0.00000 12.38843 10.59919 2.454484 
102 62.55268 41.98756 43.91662 20.57440 18.82730 18.76729 
103 61.72667 82.56300 57.92722 44.46110 53.44133 36.28908 
104 65.59553 88.24871 72.87807 54.60183 64.13025 56.02427 
105 67.03653 42.99951 0.00000 19.18823 18.02126 3.796400 
106 82.07782 50.94878 0.00000 29.47798 27.25388 5.673941 
107 100.0000 59.86939 0.00000 44.96652 40.37759 8.484608 
108 20.44230 44.53381 58.51505 14.48667 16.12020 30.13403 
109 23.12720 78.71220 71.02063 36.38515 46.44911 49.67195 
110 40.71736 84.86659 84.65692 48.01118 57.69348 71.89795 
111 6.892000 28.87877 89.81449 18.77336 15.71545 72.85118 
112 17.02608 32.46044 100.0000 25.06715 20.34932 94.85345 
113 26.49390 46.56775 100.0000 30.10240 27.32048 95.99315 
114 33.01190 59.06240 100.0000 36.51202 36.06062 97.41706 
115 85.34946 68.01783 100.0000 60.58487 55.28818 101.5806 
116 33.29984 13.73491 65.53381 11.50814 8.541911 36.49004 
117 33.16889 37.94790 87.12711 22.93564 20.12216 69.23702 
118 19.83291 19.14958 82.49872 15.42130 11.95051 60.02680 
119 42.51813 18.30156 85.15475 20.22338 14.79981 65.86493 
120 0.00000 0.00000 35.00399 2.128183 1.537434 9.359035 
121 0.00000 0.00000 46.60894 3.824519 2.739490 17.13776 
122 0.00000 0.00000 100.0000 20.43023 14.18441 93.71821 
123 0.00000 14.30480 100.0000 21.13134 15.34740 94.00219 
124 83.60841 17.63563 100.0000 42.75008 29.17859 97.57681 
125 28.83372 68.51270 0.00000 20.25562 28.99433 4.777282 
126 43.78753 70.22084 0.00000 24.12463 32.27438 5.460515 
127 68.29998 71.63987 0.00000 33.64601 39.57013 7.030271 
128 86.70879 77.03611 13.07096 47.27518 51.45275 10.89287 
129 0.00000 100.0000 51.43547 48.04271 69.62798 32.57298 
130 0.00000 100.0000 63.45529 50.63049 71.41081 44.76103 
131 17.15728 100.0000 64.85883 51.83000 72.08913 46.74281 
132 0.00000 76.57760 54.97787 29.14703 40.13949 30.30735 
133 13.36635 78.01031 60.75120 31.72180 42.52738 36.72795 
134 36.72225 80.93584 61.10711 36.59926 47.29034 37.86080 
135 49.36478 87.86501 74.94998 49.43566 60.61848 58.54106 
136 100.0000 46.91551 0.00000 39.22838 31.93389 7.158422 
137 100.0000 73.82830 0.00000 53.06591 52.85501 10.35758 
138 100.0000 82.65319 17.53441 59.92875 62.72955 14.22140 
139 32.47542 0.00000 73.47048 12.86227 8.989939 46.66119 
140 32.96186 0.00000 87.76967 18.13008 12.52156 69.76096 
141 0.00000 58.69114 0.00000 12.91447 19.59105 3.228880 
142 0.00000 73.43892 0.00000 21.23449 32.47321 5.189337 
143 16.26577 75.77015 12.31725 24.12652 35.88130 7.052518 
144 19.34610 95.15631 74.12665 50.57032 67.54072 58.31992 
145 17.72841 100.0000 82.67740 57.32452 76.06958 72.27634 
146 100.0000 0.00000 0.00000 31.25207 19.52840 5.333655 
147 100.0000 15.25927 0.00000 32.27894 20.95566 5.519355 
148 100.0000 100.0000 12.77605 74.61676 85.75211 17.22284 
149 100.0000 100.0000 25.99514 75.63699 86.52747 20.90336 
150 100.0000 100.0000 39.00696 77.18415 87.45022 27.84654 
151 11.64634 46.81457 100.0000 28.71550 26.33378 95.99522 
152 17.46290 60.32972 100.0000 35.01986 35.60742 97.42518 
153 0.00000 13.63272 31.78752 2.477620 2.353139 7.946585 
154 15.64724 18.05992 41.67025 4.860762 4.349224 13.99750 
155 15.88626 18.60571 58.61824 8.074240 6.653189 28.45705 
156 33.08727 29.30574 70.90423 15.27208 13.12219 44.34631 
157 51.87441 34.42160 80.37457 23.92624 19.75411 59.19522 
158 62.66517 42.76003 89.46326 33.69415 28.26500 76.19091 
159 100.0000 47.73994 35.34141 41.80926 33.93263 16.86966 
160 100.0000 61.48909 39.14058 48.39342 43.52509 20.58020 
161 100.0000 62.96474 67.77765 55.27163 48.99976 48.30478 
162 22.41416 84.30502 15.05054 30.78539 45.43930 8.987688 
163 25.48234 92.51702 23.52421 38.61821 56.79560 13.12256 
164 18.49407 84.51092 0.00000 30.41005 45.42799 7.245771 
165 37.26505 84.42178 0.00000 32.48561 46.26725 7.500235 
166 55.17329 86.35178 9.315094 39.35583 52.35626 9.650265 
167 46.77176 0.00000 48.60097 9.948306 6.579981 19.83108 
168 64.61241 0.00000 85.80290 26.18804 17.76055 67.79387 
169 100.0000 35.79719 86.82542 50.93522 37.22448 74.18288 
170 100.0000 100.0000 100.0000 94.97927 99.77054 109.8025 
171 34.34916 0.00000 58.40938 9.180814 6.300397 28.19507 
172 49.11542 0.00000 81.88925 19.49691 13.27618 60.00547 
173 60.82752 20.44088 81.95037 24.77031 17.90654 61.39914 
174 0.00000 0.00000 22.54997 0.969863 0.708711 4.040494 
175 0.00000 14.93718 84.30231 14.79659 11.12872 63.92461 
176 0.00000 38.48700 84.76511 19.09727 17.76713 65.34586 
177 14.99034 24.67029 30.44088 4.347528 4.729780 8.044068 
178 19.08052 42.16557 33.38938 9.154233 11.61694 10.32360 
179 32.92956 45.84548 43.19587 13.91794 15.83744 17.21605 
180 44.40247 59.35368 57.11846 24.26320 27.60455 31.03303 
181 88.23262 0.00000 0.00000 23.22038 14.55099 3.972922 
182 100.0000 19.52784 15.31497 33.16313 22.02159 7.558946 
183 0.00000 61.18269 17.09986 14.68267 21.72601 5.809918 
184 0.00000 73.61788 28.04295 22.99587 33.90238 11.49904 
185 14.32593 34.36936 0.00000 4.831896 6.776118 1.335140 
186 31.92997 38.52218 0.00000 7.791713 9.553150 1.876239 
187 48.46209 44.14088 16.41574 13.84976 15.10327 5.052967 
188 58.69833 55.87186 20.54185 21.79678 24.23453 7.626781 
189 64.22686 81.25523 34.12466 40.27881 49.27415 17.33293 
190 0.00000 100.0000 100.0000 63.72980 80.42457 105.1407 
191 13.31213 100.0000 100.0000 64.50952 80.97709 105.4182 
192 51.65206 100.0000 100.0000 70.94935 84.82999 105.9587 
193 0.00000 0.00000 86.07768 14.41001 10.26154 65.86973 
194 13.73917 0.00000 100.0000 20.97248 14.61080 93.99640 
195 27.86799 0.00000 100.0000 22.62290 15.42642 94.26907 
196 36.04760 14.63226 100.0000 24.83031 17.76420 94.83042 
197 82.75928 51.75202 100.0000 51.35882 42.57652 99.86320 
198 100.0000 62.06723 100.0000 66.65268 56.29362 102.6539 
199 0.00000 13.25978 0.00000 0.820338 1.152872 0.454186 
200 0.00000 16.56132 15.93866 1.534507 1.890402 2.514422 
201 0.00000 19.08297 45.32613 4.901273 4.533279 16.69702 
202 11.95633 30.53426 51.55691 8.318657 8.524417 22.10849 
203 10.11717 54.39444 84.73442 25.35444 26.93574 66.77520 
204 30.17553 74.26940 100.0000 44.92764 49.29218 99.70346 
205 35.10017 87.47520 100.0000 55.43246 64.53156 101.9918 
206 0.00000 68.59460 42.46298 21.14787 29.65732 18.55345 
207 0.00000 88.54075 54.54183 37.91183 53.41063 32.50069 
208 35.92781 100.0000 58.72912 53.03612 72.68659 40.67542 
209 47.25901 100.0000 66.88481 57.73379 75.79133 50.58855 
210 100.0000 100.0000 76.21651 85.68627 93.63133 67.19366 
211 100.0000 100.0000 88.23162 90.49623 97.13091 86.68989 
212 0.00000 0.00000 0.00000 0.156842 0.134483 0.301440 
213 0.00000 100.0000 0.00000 43.27125 66.02711 10.72467 
214 13.25232 100.0000 0.00000 43.67654 66.36041 10.81309 
215 26.35892 100.0000 0.00000 45.20912 67.57779 10.99953 
216 37.84788 100.0000 15.28843 47.36852 68.68257 13.27757 
217 83.33075 83.20448 0.00000 48.78150 55.88172 10.08882 
218 100.0000 87.11890 0.00000 62.73998 67.60607 12.54029 
219 100.0000 87.41775 35.64511 65.38753 69.64604 22.80463 
220 0.00000 100.0000 12.97366 43.46111 66.27747 12.17924 
221 18.25722 100.0000 15.79657 44.61600 66.93610 12.89289 
222 32.26536 100.0000 29.88943 47.74572 69.21992 18.29717 
223 47.02167 100.0000 32.35213 51.03681 71.36946 19.79741 
224 83.09754 21.98039 57.15719 28.34543 19.77744 30.87015 
225 100.0000 38.71015 60.14152 43.25131 32.49151 36.11600 
226 62.60084 0.00000 14.77228 11.36128 7.166188 3.738489 
227 69.52708 0.00000 26.33339 14.86910 9.426541 7.595899 
228 80.67027 23.41040 25.77600 22.32558 15.77432 8.707596 
229 82.93123 34.17888 38.44137 27.34536 20.99832 16.01133 
230 46.62696 14.21053 14.20462 6.882860 5.044079 2.988489 
231 64.67254 21.02926 16.09213 13.85679 10.12849 4.511126 
232 63.71593 90.15166 43.81891 48.82744 61.54649 25.61392 
233 72.11886 100.0000 71.81606 67.92597 82.33365 58.03903 
234 0.00000 85.31656 38.49415 32.53780 47.45994 18.93344 
235 29.32492 85.04493 37.83544 34.37303 48.53659 18.64606 
236 18.75546 83.69498 45.17352 32.79163 46.28876 23.20181 
237 39.71451 100.0000 44.83130 50.79919 71.16967 27.91451 
238 53.46206 100.0000 50.22947 55.46374 74.13427 33.02108 
239 61.29149 36.70163 12.07622 15.44245 13.95342 4.300433 
240 70.59899 44.09408 33.41001 23.11275 20.88027 12.52713 
241 77.03252 50.01429 80.01035 38.93427 33.91342 61.71396 
242 56.59801 0.00000 100.0000 29.47950 19.95748 95.64851 
243 65.88235 14.22587 100.0000 33.67904 23.31258 96.48162 
244 68.82295 30.08031 100.0000 37.42372 27.62213 97.32777 
245 32.33635 69.52512 64.97723 29.24410 35.90871 40.43068 
246 61.06984 100.0000 64.51991 61.52642 78.42995 47.89211 
247 84.38367 100.0000 66.36802 72.98411 85.31619 51.75185 
248 0.00000 86.28806 0.00000 30.50314 46.59893 7.361984 
249 39.06448 100.0000 0.00000 47.42650 68.93965 11.34558 
250 75.44238 100.0000 0.00000 59.36131 76.23779 13.26118 
251 84.80219 100.0000 18.22610 65.41856 79.92627 16.75806 
252 80.66900 86.99690 27.79472 52.05763 60.99551 16.68782 
253 83.99580 88.31019 49.15016 57.92133 65.75612 30.72122 
254 13.49141 54.24358 0.00000 11.37564 16.91617 2.862439 
255 19.62993 63.97199 14.86388 17.21347 24.94807 5.855182 
256 24.79450 73.26767 37.43308 25.50745 35.62020 16.31467 
257 0.00000 57.62416 31.51175 13.96557 19.93667 10.60820 
258 0.00000 57.73029 65.05709 20.08237 24.36712 38.69604 
259 16.13038 62.85113 65.97015 23.66119 28.79586 40.49127 
260 14.51731 72.93889 100.0000 42.27967 46.83330 99.14463 
261 0.00000 27.76291 100.0000 22.99102 18.25704 94.57199 
262 0.00000 40.36481 100.0000 26.28987 23.00298 95.42610 
263 0.00000 52.79651 100.0000 30.63663 29.88080 96.29206 
264 0.00000 64.05806 100.0000 36.13334 37.90386 97.71668 
265 0.00000 87.85105 100.0000 52.27550 62.74385 101.4437 
266 26.39815 100.0000 100.0000 65.43266 81.33670 105.1353 
267 39.62078 100.0000 100.0000 67.82748 82.86445 105.4086 
268 36.32667 33.84852 20.10447 8.236365 8.803445 4.790241 
269 45.45748 44.15223 31.92488 14.32043 15.49247 10.47109 
270 66.51915 65.73880 36.83116 31.86804 35.25073 16.77560 
271 88.62107 66.03864 57.66535 46.86602 45.14569 35.21450 
272 71.94324 0.00000 100.0000 35.30736 23.47037 96.19089 
273 85.80314 0.00000 100.0000 42.87283 28.17469 97.56607 
274 100.0000 0.00000 100.0000 51.93270 33.78842 98.93753 
275 100.0000 12.35580 100.0000 52.60716 34.87444 99.22100 
276 52.43716 81.59915 0.00000 34.47829 45.93588 7.685920 
277 66.08243 86.92823 0.00000 43.83693 55.82599 9.503313 
278 26.08374 50.66313 0.00000 11.21716 15.51984 2.724684 
279 27.88913 51.33911 23.54339 12.66933 16.78526 6.883404 
280 55.29276 57.12973 40.22718 23.51410 26.04958 17.08555 
281 57.05378 71.07941 100.0000 49.59414 50.29973 100.2313 
282 71.58764 74.13374 100.0000 57.49561 57.20417 101.6250 
283 0.00000 26.52956 0.00000 2.490609 3.710007 0.837891 
284 0.00000 43.33748 0.00000 6.737396 10.20998 1.815328 
285 0.00000 48.40964 13.26211 8.738188 12.99014 3.680963 
286 0.00000 70.00161 72.91768 29.14708 36.15504 50.99967 
287 0.00000 83.04072 84.73785 41.92528 52.58066 70.78504 
288 25.31275 90.33600 91.32336 52.41171 64.79061 84.46719 
289 55.91010 62.85146 0.00000 23.42742 28.13583 5.043837 
290 87.83837 100.0000 0.00000 66.16057 80.37521 14.32974 
291 100.0000 100.0000 0.00000 74.77380 86.01217 15.75052 
292 43.97591 15.17106 39.06744 8.466938 6.357387 12.91735 
293 53.64583 14.07486 50.92454 13.20199 9.350378 22.39917 
294 65.97239 15.32140 63.01021 20.48343 14.27289 35.47727 
295 42.36621 0.00000 32.20316 6.448330 4.210638 8.626104 
296 71.61582 0.00000 40.50770 17.28829 11.12540 14.92644 
297 79.31824 19.07655 40.66636 22.72507 15.64992 16.32044 
298 100.0000 38.12990 46.16050 40.40598 30.19019 23.34650 
299 100.0000 53.60079 52.04029 47.05832 39.70066 29.69213 
300 63.28228 0.00000 0.00000 11.04537 6.927556 2.023316 
301 65.64566 15.37070 0.00000 12.88910 8.866586 2.386183 
302 87.32463 36.98225 0.00000 27.60825 21.63334 5.029754 
303 100.0000 51.88718 20.04915 42.13597 35.45309 10.72847 
304 42.82173 0.00000 100.0000 25.35830 17.36842 94.54355 
305 42.67225 69.20694 100.0000 43.84179 45.40490 99.11772 
306 0.00000 34.36456 69.13414 13.08518 12.63114 41.50160 
307 16.44087 46.30047 72.10290 18.08097 19.20884 46.95578 
308 0.00000 51.89150 75.55073 21.00597 22.81924 53.08303 
309 33.29994 60.29047 76.16881 27.95127 30.83028 55.19506 
310 60.54806 36.70519 30.73560 16.44753 14.72400 10.21902 
311 71.60900 100.0000 29.11160 59.20235 76.18257 19.78607 
312 83.60279 100.0000 37.41158 66.73127 81.12329 25.30883 
313 100.0000 100.0000 50.99960 79.42147 89.20413 37.34710 
314 100.0000 100.0000 63.74805 82.01700 91.00554 50.63216 
315 100.0000 30.95596 0.00000 34.60601 24.71307 6.090649 
316 100.0000 39.30669 12.04695 37.20745 28.31843 7.885756 
317 100.0000 37.10525 100.0000 56.84281 41.42531 100.0847 
318 100.0000 49.18696 100.0000 60.92767 47.51907 101.2239 
319 30.79928 0.00000 42.76197 5.638129 3.814953 14.65921 
320 30.40956 12.12202 52.51563 7.887477 5.932917 22.67455 
321 0.00000 28.16263 30.54523 4.370969 5.290621 8.086686 
322 0.00000 35.70465 47.75927 8.448763 9.620699 19.59372 
323 17.94605 69.73810 81.11057 32.71169 38.65687 63.48365 
324 30.95855 69.36922 81.70070 34.03558 39.12335 63.75569 
325 21.70922 16.18716 17.77121 2.775367 2.661243 3.105822 
326 47.00695 24.01655 19.89020 8.473313 7.127350 4.686644 
327 72.08975 30.60291 35.49896 20.39268 15.90227 13.12842 
328 72.26817 32.58699 89.61428 34.30792 26.36044 75.61012 
329 34.58316 40.46558 54.50816 14.22659 14.64959 26.21686 
330 41.60980 42.81108 67.33388 19.59481 18.90498 40.94340 
331 42.17973 50.27743 86.60907 28.84422 27.64944 70.65340 
332 51.80703 54.96156 100.0000 39.41999 36.28585 98.50932 
333 68.20700 59.46731 100.0000 47.65502 43.40829 99.90228 
334 0.00000 84.64064 69.59266 38.24222 51.07824 47.88596 
335 15.43547 86.11541 74.79978 42.06096 54.86136 57.15410 
336 100.0000 64.77507 14.03232 48.10619 44.89554 10.77260 
337 100.0000 70.00104 29.04482 52.13904 50.07188 16.39532 
338 100.0000 80.37766 46.48938 61.95913 62.88252 28.94928 
339 49.41061 0.00000 19.53229 7.206608 4.580515 4.203892 
340 57.39567 0.00000 34.67754 11.03719 7.084948 10.61034 
341 59.24997 0.00000 54.03624 15.08053 9.850055 25.25008 
342 66.52084 0.00000 70.46022 21.90459 14.57092 44.24996 
343 81.90055 0.00000 84.17031 33.84863 22.46214 66.38213 
344 100.0000 16.02096 84.26467 46.21026 30.91750 68.86786 
345 100.0000 69.10670 84.09920 63.90189 57.84817 72.60214 
346 100.0000 75.10245 100.0000 74.96593 69.05117 104.3793 
347 0.00000 41.22772 37.50706 8.498786 10.87090 12.65381 
348 0.00000 52.16652 47.22170 13.94888 18.03843 20.15223 
349 33.68973 100.0000 72.93697 56.67293 75.62178 58.06838 
350 52.84571 100.0000 81.76317 63.90361 80.36090 71.42691 
351 67.24835 100.0000 86.06537 70.45192 84.27978 79.48964 
352 0.00000 32.41340 14.92565 4.091751 5.880320 2.893748 
353 0.00000 44.81686 25.70701 8.264532 11.62402 6.900904 
354 7.806245 49.68744 36.13424 11.52854 15.59837 12.44310 
355 19.61339 58.72041 49.10346 18.14842 23.49888 22.79309 
356 25.67566 67.13047 53.14750 24.11249 31.24661 27.42883 
357 52.57871 73.47158 73.48034 39.29160 44.77990 53.18820 
358 55.29043 86.88130 83.56741 53.83986 63.26946 71.90307 
359 65.45377 86.69676 100.0000 63.84271 69.23890 103.3599 
360 85.07663 0.00000 35.09703 23.94712 15.13188 12.84298 
361 100.0000 24.32638 49.55806 37.66061 25.78184 25.38971 
362 100.0000 25.55669 61.71662 40.64905 28.09988 37.00644 
363 34.41609 0.00000 14.05352 3.507556 2.253264 2.374368 
364 39.41941 16.50027 26.22704 6.278729 4.939385 6.367558 
365 13.24230 0.00000 0.00000 0.644018 0.438540 0.376537 
366 14.52923 0.00000 33.41823 2.517970 1.761968 8.572528 
367 17.40448 0.00000 50.03120 5.312537 3.740003 20.41392 
368 49.15440 45.77677 54.10601 19.42956 19.58424 26.93372 
369 49.99648 50.70371 64.71415 23.86128 24.18976 38.32370 
370 60.26172 53.65648 64.36012 28.39241 28.17699 38.77491 
371 63.56932 66.53253 70.48209 38.02414 40.13489 48.97816 
372 74.01133 81.47585 80.16168 55.75825 60.48947 66.00930 
373 100.0000 0.00000 75.28509 42.17963 27.43033 54.81344 
374 100.0000 0.00000 87.60739 46.40007 30.12592 73.31636 
375 100.0000 24.69141 100.0000 54.09653 37.09812 99.78725 
376 83.67552 70.40334 83.98852 54.44863 52.77761 70.96062 
377 83.76460 84.77934 100.0000 71.52582 72.74549 104.4439 
378 100.0000 87.81479 100.0000 83.96090 82.78182 106.6657 
379 0.00000 0.00000 11.03211 0.391512 0.299220 1.383644 
380 16.82974 0.00000 15.65777 1.319858 0.893524 2.318534 
381 28.70087 0.00000 26.99043 3.393153 2.260613 6.040962 
382 86.53176 0.00000 53.72959 27.64962 17.80622 26.88398 
383 88.55128 21.16603 68.62486 33.94459 23.43848 44.46750 
384 65.14852 21.20904 47.22111 17.52799 12.67985 19.98113 
385 75.40793 46.22463 53.19154 29.52624 25.87780 27.64045 
386 76.30781 58.57977 53.17788 34.78400 33.84176 28.58067 
387 14.52372 15.18733 0.00000 1.561963 1.776775 0.582283 
388 15.63828 35.47488 18.93848 5.737693 7.587942 4.115517 
389 82.49165 37.98591 17.84304 25.93791 20.87819 7.102679 
390 100.0000 40.47926 73.95097 48.17402 36.44706 55.16025 
391 100.0000 53.86652 83.30616 55.74549 45.82160 69.48940 
392 47.54971 80.98697 18.10801 33.09116 44.69384 9.888047 
393 50.76553 84.57955 30.77445 38.10505 50.70246 15.58244 
394 14.48490 68.82587 0.00000 19.03886 28.46534 4.593732 
395 25.50551 74.08324 25.83099 24.97862 35.54921 10.67728 
396 55.62167 79.41542 45.79178 37.93018 47.22644 24.45068 
397 86.11707 83.80770 67.22883 59.67971 63.93005 48.98378 
398 85.40961 83.85575 81.21610 63.64331 66.71456 68.78956 
399 26.34575 0.00000 0.00000 1.855105 1.194210 0.567336 
400 32.83227 13.43814 0.00000 3.564445 2.877729 0.884602 
401 49.11323 16.80601 0.00000 7.350405 5.540849 1.509999 
402 52.53562 34.27984 45.99432 15.41365 13.68017 18.97566 
