x201_tablet/2022-03-16/04_correction_test_srgb_x201t_HB140WX1-300_912bright_80nit.cal
CAL    

DESCRIPTOR "Argyll Device Calibration Curves"
ORIGINATOR "Argyll dispcal"
CREATED "Wed Mar 16 20:58:58 2022"
DEVICE_CLASS "DISPLAY"
COLOR_REP "RGB"
VIDEO_LUT_CALIBRATION_POSSIBLE "YES"
TV_OUTPUT_ENCODING "NO"
DEVICE_TYPE "n"
TARGET_WHITE_XYZ "61.904139 65.132870 70.923207"
TARGET_GAMMA "sRGB"
DEGREE_OF_BLACK_OUTPUT_OFFSET "1.000000"
BLACK_POINT_CORRECTION "0.000000"
BLACK_NEUTRAL_BLEND_RATE "4.000000"
BLACK_POINT_HACK "YES"
QUALITY "high"

NUMBER_OF_FIELDS 4
BEGIN_DATA_FORMAT
RGB_I RGB_R RGB_G RGB_B 
END_DATA_FORMAT

NUMBER_OF_SETS 256
BEGIN_DATA
0.00000 0.00000 0.00000 0.00000 
0.00392157 0.00198406 0.00247106 0.00221211 
0.00784314 0.00397473 0.00494794 0.00444557 
0.0117647 0.00597204 0.00743066 0.00670069 
0.0156863 0.00797603 0.00991926 0.00897779 
0.0196078 0.00998673 0.0124137 0.0112772 
0.0235294 0.0120042 0.0149141 0.0135992 
0.0274510 0.0140284 0.0174204 0.0159442 
0.0313725 0.0160594 0.0199327 0.0183125 
0.0352941 0.0180973 0.0224510 0.0207045 
0.0392157 0.0201420 0.0249752 0.0231205 
0.0431373 0.0221937 0.0275054 0.0255608 
0.0470588 0.0242523 0.0300417 0.0280259 
0.0509804 0.0263179 0.0325841 0.0305161 
0.0549020 0.0283905 0.0351336 0.0330320 
0.0588235 0.0304702 0.0376969 0.0355783 
0.0627451 0.0325615 0.0402836 0.0381651 
0.0666667 0.0346729 0.0429027 0.0408047 
0.0705882 0.0368121 0.0455642 0.0435113 
0.0745098 0.0389902 0.0482789 0.0462962 
0.0784314 0.0412140 0.0510591 0.0491706 
0.0823529 0.0434886 0.0539159 0.0521463 
0.0862745 0.0458230 0.0568617 0.0552351 
0.0901961 0.0482268 0.0599106 0.0584528 
0.0941176 0.0507122 0.0630740 0.0618117 
0.0980392 0.0532935 0.0663653 0.0653233 
0.101961 0.0559881 0.0697947 0.0689964 
0.105882 0.0588125 0.0733620 0.0728277 
0.109804 0.0617802 0.0770630 0.0768072 
0.113725 0.0648926 0.0808921 0.0809144 
0.117647 0.0681472 0.0848480 0.0851324 
0.121569 0.0715375 0.0889331 0.0894495 
0.125490 0.0750454 0.0931336 0.0938515 
0.129412 0.0786606 0.0974361 0.0983266 
0.133333 0.0823793 0.101828 0.102879 
0.137255 0.0862025 0.106312 0.107524 
0.141176 0.0901246 0.110891 0.112264 
0.145098 0.0941367 0.115551 0.117082 
0.149020 0.0982456 0.120284 0.122000 
0.152941 0.102452 0.125099 0.127023 
0.156863 0.106752 0.129985 0.132134 
0.160784 0.111157 0.134943 0.137324 
0.164706 0.115672 0.139975 0.142588 
0.168627 0.120264 0.145079 0.147905 
0.172549 0.124914 0.150237 0.153265 
0.176471 0.129598 0.155443 0.158673 
0.180392 0.134309 0.160689 0.164113 
0.184314 0.139023 0.165973 0.169571 
0.188235 0.143741 0.171282 0.174972 
0.192157 0.148472 0.176547 0.180322 
0.196078 0.153211 0.181758 0.185632 
0.200000 0.157967 0.186928 0.190915 
0.203922 0.162713 0.192081 0.196180 
0.207843 0.167483 0.197212 0.201422 
0.211765 0.172282 0.202323 0.206629 
0.215686 0.177130 0.207399 0.211764 
0.219608 0.182040 0.212407 0.216819 
0.223529 0.187019 0.217319 0.221797 
0.227451 0.192029 0.222146 0.226702 
0.231373 0.196995 0.226885 0.231518 
0.235294 0.201895 0.231544 0.236248 
0.239216 0.206709 0.236122 0.240890 
0.243137 0.211417 0.240625 0.245453 
0.247059 0.215998 0.245064 0.249982 
0.250980 0.220446 0.249446 0.254489 
0.254902 0.224768 0.253805 0.258943 
0.258824 0.228974 0.258148 0.263312 
0.262745 0.233108 0.262455 0.267595 
0.266667 0.237180 0.266700 0.271783 
0.270588 0.241195 0.270881 0.275884 
0.274510 0.245130 0.274993 0.279924 
0.278431 0.248982 0.279034 0.283909 
0.282353 0.252755 0.283027 0.287839 
0.286275 0.256460 0.286982 0.291726 
0.290196 0.260124 0.290890 0.295564 
0.294118 0.263747 0.294762 0.299360 
0.298039 0.267326 0.298597 0.303121 
0.301961 0.270883 0.302392 0.306857 
0.305882 0.274416 0.306157 0.310570 
0.309804 0.277926 0.309891 0.314259 
0.313725 0.281415 0.313603 0.317923 
0.317647 0.284888 0.317293 0.321560 
0.321569 0.288357 0.320963 0.325207 
0.325490 0.291814 0.324614 0.328875 
0.329412 0.295254 0.328249 0.332551 
0.333333 0.298676 0.331901 0.336237 
0.337255 0.302104 0.335566 0.339930 
0.341176 0.305553 0.339237 0.343630 
0.345098 0.309010 0.342913 0.347340 
0.349020 0.312474 0.346591 0.351056 
0.352941 0.315932 0.350267 0.354777 
0.356863 0.319385 0.353944 0.358510 
0.360784 0.322837 0.357612 0.362261 
0.364706 0.326274 0.361273 0.366027 
0.368627 0.329693 0.364926 0.369799 
0.372549 0.333100 0.368578 0.373567 
0.376471 0.336501 0.372226 0.377326 
0.380392 0.339911 0.375864 0.381058 
0.384314 0.343317 0.379482 0.384778 
0.388235 0.346701 0.383071 0.388515 
0.392157 0.350056 0.386623 0.392271 
0.396078 0.353362 0.390151 0.396008 
0.400000 0.356622 0.393684 0.399726 
0.403922 0.359855 0.397242 0.403438 
0.407843 0.363093 0.400804 0.407149 
0.411765 0.366327 0.404355 0.410845 
0.415686 0.369536 0.407903 0.414523 
0.419608 0.372724 0.411462 0.418187 
0.423529 0.375905 0.415032 0.421840 
0.427451 0.379086 0.418613 0.425477 
0.431373 0.382261 0.422202 0.429091 
0.435294 0.385423 0.425802 0.432691 
0.439216 0.388576 0.429416 0.436282 
0.443137 0.391724 0.433031 0.439863 
0.447059 0.394862 0.436642 0.443450 
0.450980 0.397993 0.440260 0.447037 
0.454902 0.401128 0.443886 0.450625 
0.458824 0.404279 0.447516 0.454221 
0.462745 0.407432 0.451165 0.457827 
0.466667 0.410590 0.454826 0.461444 
0.470588 0.413765 0.458501 0.465069 
0.474510 0.416955 0.462185 0.468703 
0.478431 0.420167 0.465883 0.472342 
0.482353 0.423400 0.469594 0.475983 
0.486275 0.426655 0.473319 0.479623 
0.490196 0.429920 0.477053 0.483263 
0.494118 0.433191 0.480801 0.486922 
0.498039 0.436466 0.484563 0.490627 
0.501961 0.439736 0.488338 0.494360 
0.505882 0.442993 0.492126 0.498119 
0.509804 0.446236 0.495954 0.501904 
0.513725 0.449477 0.499826 0.505717 
0.517647 0.452732 0.503708 0.509562 
0.521569 0.456013 0.507599 0.513445 
0.525490 0.459316 0.511498 0.517365 
0.529412 0.462633 0.515407 0.521325 
0.533333 0.465963 0.519325 0.525316 
0.537255 0.469307 0.523251 0.529326 
0.541176 0.472668 0.527185 0.533353 
0.545098 0.476058 0.531128 0.537396 
0.549020 0.479484 0.535075 0.541459 
0.552941 0.482946 0.539023 0.545529 
0.556863 0.486452 0.542977 0.549582 
0.560784 0.489990 0.546934 0.553610 
0.564706 0.493541 0.550902 0.557630 
0.568627 0.497103 0.554864 0.561653 
0.572549 0.500670 0.558801 0.565679 
0.576471 0.504244 0.562718 0.569720 
0.580392 0.507816 0.566636 0.573774 
0.584314 0.511374 0.570561 0.577842 
0.588235 0.514914 0.574490 0.581925 
0.592157 0.518459 0.578439 0.586018 
0.596078 0.522018 0.582415 0.590117 
0.600000 0.525584 0.586426 0.594215 
0.603922 0.529182 0.590470 0.598293 
0.607843 0.532820 0.594542 0.602360 
0.611765 0.536501 0.598639 0.606421 
0.615686 0.540212 0.602745 0.610473 
0.619608 0.543950 0.606838 0.614504 
0.623529 0.547715 0.610922 0.618506 
0.627451 0.551475 0.614995 0.622485 
0.631373 0.555215 0.619063 0.626431 
0.635294 0.558947 0.623120 0.630323 
0.639216 0.562677 0.627154 0.634156 
0.643137 0.566410 0.631168 0.637941 
0.647059 0.570129 0.635154 0.641700 
0.650980 0.573809 0.639098 0.645447 
0.654902 0.577449 0.642990 0.649182 
0.658824 0.581058 0.646837 0.652900 
0.662745 0.584624 0.650662 0.656622 
0.666667 0.588133 0.654490 0.660356 
0.670588 0.591602 0.658323 0.664103 
0.674510 0.595050 0.662162 0.667883 
0.678431 0.598503 0.666003 0.671713 
0.682353 0.601968 0.669842 0.675596 
0.686275 0.605448 0.673680 0.679511 
0.690196 0.608938 0.677525 0.683440 
0.694118 0.612421 0.681399 0.687382 
0.698039 0.615898 0.685317 0.691350 
0.701961 0.619377 0.689277 0.695353 
0.705882 0.622881 0.693267 0.699394 
0.709804 0.626433 0.697273 0.703461 
0.713725 0.630034 0.701299 0.707545 
0.717647 0.633656 0.705351 0.711657 
0.721569 0.637288 0.709434 0.715803 
0.725490 0.640932 0.713542 0.719989 
0.729412 0.644582 0.717665 0.724211 
0.733333 0.648236 0.721816 0.728464 
0.737255 0.651897 0.726003 0.732706 
0.741176 0.655551 0.730235 0.736960 
0.745098 0.659192 0.734513 0.741231 
0.749020 0.662835 0.738836 0.745520 
0.752941 0.666479 0.743197 0.749830 
0.756863 0.670125 0.747579 0.754174 
0.760784 0.673757 0.751996 0.758562 
0.764706 0.677367 0.756447 0.762980 
0.768627 0.680953 0.760920 0.767411 
0.772549 0.684528 0.765420 0.771836 
0.776471 0.688087 0.769944 0.776271 
0.780392 0.691621 0.774487 0.780757 
0.784314 0.695129 0.779020 0.785264 
0.788235 0.698627 0.783520 0.789763 
0.792157 0.702128 0.787989 0.794274 
0.796078 0.705636 0.792457 0.798799 
0.800000 0.709149 0.796938 0.803319 
0.803922 0.712658 0.801396 0.807831 
0.807843 0.716158 0.805842 0.812337 
0.811765 0.719648 0.810307 0.816811 
0.815686 0.723155 0.814781 0.821212 
0.819608 0.726724 0.819252 0.825554 
0.823529 0.730338 0.823725 0.829820 
0.827451 0.733982 0.828203 0.834012 
0.831373 0.737673 0.832647 0.838145 
0.835294 0.741440 0.837032 0.842225 
0.839216 0.745283 0.841353 0.846267 
0.843137 0.749205 0.845604 0.850277 
0.847059 0.753193 0.849808 0.854244 
0.850980 0.757227 0.853967 0.858159 
0.854902 0.761285 0.858087 0.862001 
0.858824 0.765377 0.862185 0.865770 
0.862745 0.769501 0.866258 0.869472 
0.866667 0.773621 0.870294 0.873110 
0.870588 0.777749 0.874277 0.876692 
0.874510 0.781896 0.878198 0.880216 
0.878431 0.786056 0.882070 0.883687 
0.882353 0.790242 0.885889 0.887112 
0.886275 0.794439 0.889662 0.890490 
0.890196 0.798622 0.893394 0.893826 
0.894118 0.802756 0.897086 0.897120 
0.898039 0.806863 0.900742 0.900373 
0.901961 0.810945 0.904373 0.903594 
0.905882 0.814994 0.907978 0.906788 
0.909804 0.819022 0.911568 0.909954 
0.913725 0.823027 0.915149 0.913092 
0.917647 0.827021 0.918724 0.916197 
0.921569 0.830996 0.922291 0.919269 
0.925490 0.834953 0.925851 0.922308 
0.929412 0.838897 0.929400 0.925319 
0.933333 0.842838 0.932938 0.928304 
0.937255 0.846778 0.936466 0.931265 
0.941176 0.850711 0.939989 0.934202 
0.945098 0.854632 0.943509 0.937117 
0.949020 0.858535 0.947029 0.940007 
0.952941 0.862421 0.950544 0.942871 
0.956863 0.866287 0.954048 0.945710 
0.960784 0.870128 0.957541 0.948525 
0.964706 0.873944 0.961022 0.951317 
0.968627 0.877738 0.964492 0.954086 
0.972549 0.881517 0.967950 0.956833 
0.976471 0.885288 0.971398 0.959557 
0.980392 0.889051 0.974835 0.962259 
0.984314 0.892805 0.978261 0.964939 
0.988235 0.896552 0.981677 0.967597 
0.992157 0.900290 0.985082 0.970235 
0.996078 0.904021 0.988476 0.972851 
1.000000 0.907743 0.991860 0.975446 
END_DATA
CAL    

DESCRIPTOR "Argyll Calibration options and model"
ORIGINATOR "Argyll dispcal"
CREATED "Wed Mar 16 20:58:58 202"

NUMBER_OF_FIELDS 3
BEGIN_DATA_FORMAT
R_P G_P B_P 
END_DATA_FORMAT

NUMBER_OF_SETS 32
BEGIN_DATA
0.00142248 0.000907280 0.00292419 
0.998578 0.999093 0.997076 
1.762846 1.601594 1.865985 
0.382925 0.471045 0.387855 
0.177370 0.141592 0.164215 
0.0831249 0.126086 0.114241 
0.122377 0.0988294 0.0979017 
0.0968434 0.0715147 0.0768059 
0.0383231 0.0741701 0.0770077 
0.0479060 0.0597195 0.0480661 
0.0419973 0.0437128 0.0228523 
0.0462886 0.0299796 0.0484925 
0.0369299 0.0316299 0.0326326 
0.0338520 0.0334049 0.0286425 
0.0197130 0.0249114 0.0236582 
0.0137571 0.0188738 0.0157075 
0.0153407 0.0139619 0.0162655 
0.0145286 0.00800309 0.0150435 
0.0116264 0.00505232 0.0143660 
0.0104692 0.00688252 0.0119635 
0.00754534 0.00428644 0.0103469 
0.00933469 0.00769180 0.00795277 
0.00592551 0.00336685 0.00675067 
0.00556684 0.0000905524 0.00669234 
0.00434580 0.00120155 0.00598946 
0.00293304 -0.000294122 0.00575519 
0.00228798 -0.00418470 0.00454306 
0.00231464 0.0000698283 0.00337687 
0.00517482 0.00145309 0.00338305 
0.00320555 0.00249430 0.00357503 
0.00220104 0.000668562 0.00285695 
-0.00113211 -0.00363474 0.00292174 
END_DATA
