x201_tablet/2022-03-16/04_correction_test_srgb_x201t_HB140WX1-300_912bright_80nit.ti1
CTI1   

DESCRIPTOR "Argyll Calibration Target chart information 1"
ORIGINATOR "Argyll targen"
CREATED "Wed Mar 16 20:58:58 2022"
APPROX_WHITE_POINT "95.106486 100.000000 108.844025"
COLOR_REP "RGB"
WHITE_COLOR_PATCHES "4"
BLACK_COLOR_PATCHES "4"
OFPS_PATCHES "828"

NUMBER_OF_FIELDS 7
BEGIN_DATA_FORMAT
SAMPLE_ID RGB_R RGB_G RGB_B XYZ_X XYZ_Y XYZ_Z 
END_DATA_FORMAT

NUMBER_OF_SETS 836
BEGIN_DATA
1 100.0000 100.0000 100.0000 95.10649 100.0000 108.8440 
2 39.60025 0.00000 0.00000 6.311347 3.738548 1.248880 
3 51.23213 0.00000 0.00000 10.21224 5.749860 1.431669 
4 59.22988 19.30410 31.34008 16.16968 10.28381 9.493054 
5 0.00000 86.90899 20.26359 27.36815 52.75882 12.78131 
6 13.46706 88.08354 22.36019 28.95059 54.73695 13.73645 
7 17.30515 100.0000 31.78814 38.91175 72.92256 20.60716 
8 0.00000 0.00000 71.98058 9.519389 4.407217 45.87250 
9 16.81811 0.00000 82.98448 13.69891 6.192307 62.76208 
10 18.32074 17.01863 100.0000 20.88860 10.47825 95.47264 
11 51.26895 19.59589 100.0000 29.22570 15.16025 95.93730 
12 53.46364 35.70716 100.0000 32.68554 20.77390 96.83868 
13 66.49950 44.72248 100.0000 41.15517 28.48586 97.88123 
14 76.18808 100.0000 100.0000 76.37448 90.34172 107.9663 
15 88.33274 100.0000 100.0000 85.09583 94.83848 108.3749 
16 82.70985 0.00000 16.16562 27.97164 14.86038 4.352597 
17 89.34815 10.59635 25.96354 33.99421 18.47521 7.771516 
18 100.0000 13.56827 29.08798 43.64323 23.71068 9.584180 
19 100.0000 0.00000 12.96134 42.10268 22.16115 4.348553 
20 100.0000 0.00000 25.12398 42.74828 22.41935 7.748998 
21 100.0000 0.00000 37.57789 43.91253 22.88498 13.88124 
22 100.0000 11.92838 46.13284 45.51675 24.27878 20.01099 
23 100.0000 0.00000 49.48357 45.57045 23.54805 22.61369 
24 100.0000 0.00000 62.16930 47.98598 24.51411 35.33654 
25 100.0000 13.03572 65.23003 49.22062 25.87994 39.15002 
26 100.0000 27.04558 75.05191 53.28762 30.00189 52.87545 
27 47.18709 68.58071 88.56511 37.43849 40.70990 77.88678 
28 49.64192 83.41522 100.0000 50.96145 59.54876 103.3608 
29 12.65826 13.07018 20.21387 2.749489 2.644847 4.389764 
30 24.12105 15.93196 29.06903 4.936828 4.034051 7.816139 
31 56.34936 50.78912 77.37506 30.18622 26.52486 56.88355 
32 67.23541 64.46371 81.46435 42.17655 40.53827 65.38961 
33 75.72254 0.00000 0.00000 22.79712 12.23867 2.021375 
34 78.35240 15.83880 14.40839 25.62041 14.79091 4.077622 
35 85.53729 48.55999 31.36508 38.20941 30.57877 12.26200 
36 100.0000 75.97514 69.34435 68.71276 63.26721 50.55589 
37 100.0000 88.16955 72.07236 76.98702 78.68809 56.78455 
38 33.73300 46.19677 12.01769 11.43269 15.83643 4.573998 
39 34.09378 61.36455 34.05495 18.43294 27.37954 14.06939 
40 46.22300 65.98225 48.06293 25.80216 34.02633 24.48344 
41 48.41618 77.13905 53.79299 33.33734 46.39451 31.56094 
42 74.27290 74.80885 64.90496 47.03988 51.25518 43.76847 
43 83.81905 74.96399 71.78588 55.32871 55.45926 53.04544 
44 10.16290 52.34590 10.63778 9.986759 18.03255 4.848926 
45 15.42191 57.75234 32.42043 13.74559 22.78696 12.57293 
46 74.54351 94.04903 39.59229 55.16916 74.37176 24.49237 
47 50.92142 100.0000 0.00000 45.49682 76.48818 13.22785 
48 52.78558 100.0000 18.78953 46.76094 77.07907 16.03525 
49 61.13795 100.0000 36.53564 51.92393 79.57491 23.77890 
50 75.65487 65.93456 25.08945 37.55723 40.35462 11.47141 
51 77.26992 74.92251 46.54489 45.54267 50.97991 25.48849 
52 84.39015 100.0000 83.63850 76.13395 90.90532 76.92117 
53 0.00000 0.00000 58.12631 6.309746 3.123563 28.96698 
54 16.76053 0.00000 65.77843 8.948982 4.291932 37.77537 
55 50.56612 0.00000 67.02538 17.22460 8.524586 39.71031 
56 67.10130 33.89736 67.54001 28.37479 19.20068 41.83613 
57 89.92376 49.48012 67.94767 47.99117 35.35774 44.44305 
58 90.97280 61.02353 78.38309 55.95536 45.51571 60.73758 
59 100.0000 84.69534 85.44626 78.65054 75.66140 76.93265 
60 50.89880 45.65960 0.00000 16.31571 18.14710 3.503240 
61 68.11784 56.58264 0.00000 28.13331 29.70833 5.112482 
62 84.87260 66.79420 0.00000 43.45455 44.10152 7.083844 
63 85.45413 73.30975 34.16682 48.88860 51.58676 17.19854 
64 39.04833 31.63763 31.31424 10.47432 10.00808 9.727176 
65 56.03732 31.90629 57.75326 20.37237 14.74602 30.07970 
66 74.44068 34.57700 58.47445 30.82939 20.90634 31.47512 
67 86.50602 35.47889 49.37512 37.78108 24.96479 23.20473 
68 100.0000 70.14006 55.25882 62.51544 55.81245 33.26074 
69 39.69235 54.21608 0.00000 15.37142 21.81748 4.261463 
70 39.71916 58.22579 16.82288 17.33378 25.04264 7.034330 
71 54.48774 70.75773 30.55848 29.13703 39.46112 14.06592 
72 58.71336 73.08348 16.00871 31.25524 42.46762 9.472381 
73 66.49591 86.08630 14.63228 42.87001 59.97114 11.93680 
74 62.72091 100.0000 0.00000 50.74614 79.19475 13.47383 
75 67.68572 100.0000 14.98621 53.72960 80.69256 15.43981 
76 0.00000 100.0000 25.62919 37.36009 72.18241 17.83128 
77 0.00000 100.0000 38.02026 38.53926 72.65400 24.04211 
78 0.00000 100.0000 75.94552 46.00865 75.64129 63.38414 
79 0.00000 100.0000 87.84604 49.72740 77.12855 82.97119 
80 37.11003 100.0000 86.73327 53.98393 79.36695 81.19752 
81 63.49847 100.0000 100.0000 69.01267 86.54594 107.6213 
82 0.00000 14.68076 63.37174 8.090127 4.905082 35.04613 
83 17.24656 33.72193 64.64874 12.03262 10.80097 37.49418 
84 20.05510 43.47235 81.38039 19.18496 17.40851 61.99937 
85 25.31735 59.98208 86.35683 27.21813 29.76277 72.36936 
86 72.94196 0.00000 54.44580 25.65116 13.17790 26.17978 
87 82.90934 0.00000 68.66359 35.38610 17.84241 42.65128 
88 85.05265 33.46712 78.52929 42.89070 26.21461 57.92632 
89 84.45809 35.81130 100.0000 50.45511 29.96939 97.67778 
90 28.75042 28.45392 42.81728 8.816938 8.171512 16.35185 
91 36.41243 29.13117 54.36619 12.48538 10.01746 26.18632 
92 83.34103 18.38844 0.00000 29.03221 16.94074 2.600621 
93 86.94392 23.38573 15.24379 32.67742 19.63751 4.819014 
94 100.0000 35.50364 25.35955 46.42999 29.75449 9.060323 
95 73.98115 32.32891 0.00000 24.71254 17.70862 2.976354 
96 72.64776 49.85877 12.40381 28.65410 26.40759 5.775182 
97 82.21272 56.43318 18.85218 37.60325 34.44490 8.305045 
98 81.65949 56.86986 40.99098 39.34668 35.36471 18.72290 
99 26.00899 25.19997 0.00000 5.075796 5.817061 1.715168 
100 42.49659 30.48608 0.00000 9.846158 9.537163 2.182010 
101 58.19295 30.34185 0.00000 15.81508 12.57662 2.454342 
102 62.55268 41.98756 43.91662 23.36373 19.93205 18.65355 
103 61.72667 82.56300 57.92722 43.06348 56.13766 37.05590 
104 65.59553 88.24871 72.87807 52.25961 65.99390 56.76121 
105 67.03653 42.99951 0.00000 23.09859 20.53175 3.606305 
106 82.07782 50.94878 0.00000 35.00970 30.24938 4.854753 
107 100.0000 59.86939 0.00000 53.05449 44.49767 6.654701 
108 20.44230 44.53381 58.51505 13.70529 15.69692 31.41442 
109 23.12720 78.71220 71.02063 31.66642 46.44886 51.50475 
110 40.71736 84.86659 84.65692 43.30475 57.63155 73.95557 
111 6.892000 28.87877 89.81449 17.64640 11.52595 75.58472 
112 17.02608 32.46044 100.0000 22.92033 14.75496 96.19116 
113 26.49390 46.56775 100.0000 27.70269 22.35018 97.40538 
114 33.01190 59.06240 100.0000 33.40156 31.80817 98.93090 
115 85.34946 68.01783 100.0000 62.27109 52.60819 101.4254 
116 33.29984 13.73491 65.53381 12.21329 6.865836 37.79989 
117 33.16889 37.94790 87.12711 21.95978 16.54396 71.45504 
118 19.83291 19.14958 82.49872 14.97445 8.471277 62.32857 
119 42.51813 18.30156 85.15475 20.58601 11.13645 67.03202 
120 0.00000 0.00000 35.00399 2.796141 1.718343 10.46046 
121 0.00000 0.00000 46.60894 4.288024 2.315002 18.31836 
122 0.00000 0.00000 100.0000 18.87111 8.147314 95.12896 
123 0.00000 14.30480 100.0000 19.51012 9.425164 95.34197 
124 83.60841 17.63563 100.0000 47.02485 24.04070 96.71404 
125 28.83372 68.51270 0.00000 18.88152 32.66192 6.169886 
126 43.78753 70.22084 0.00000 23.54540 36.32983 6.632262 
127 68.29998 71.63987 0.00000 35.01904 43.32590 7.378410 
128 86.70879 77.03611 13.07096 50.47422 55.62954 10.38846 
129 0.00000 100.0000 51.43547 40.47212 73.42702 34.22267 
130 0.00000 100.0000 63.45529 42.84553 74.37624 46.72368 
131 17.15728 100.0000 64.85883 44.18247 75.02866 48.45215 
132 0.00000 76.57760 54.97787 25.08294 41.63879 32.22066 
133 13.36635 78.01031 60.75120 27.71063 44.08047 38.58189 
134 36.72225 80.93584 61.10711 33.40493 49.59087 39.74261 
135 49.36478 87.86501 74.94998 45.23135 61.91699 59.31153 
136 100.0000 46.91551 0.00000 48.43657 35.26312 5.115382 
137 100.0000 73.82830 0.00000 59.69047 57.76778 8.866714 
138 100.0000 82.65319 17.53441 65.29922 68.24220 13.02312 
139 32.47542 0.00000 73.47048 13.43332 6.379163 48.13605 
140 32.96186 0.00000 87.76967 17.92055 8.186384 71.20150 
141 0.00000 58.69114 0.00000 11.74488 22.48675 4.581655 
142 0.00000 73.43892 0.00000 18.65063 36.29632 6.883591 
143 16.26577 75.77015 12.31725 21.10220 39.42660 8.670628 
144 19.34610 95.15631 74.12665 42.99530 68.54124 59.51593 
145 17.72841 100.0000 82.67740 49.10562 77.00486 74.05576 
146 100.0000 0.00000 0.00000 41.83017 22.05217 2.913230 
147 100.0000 15.25927 0.00000 42.54561 23.48284 3.151711 
148 100.0000 100.0000 12.77605 77.50137 92.95906 16.11606 
149 100.0000 100.0000 25.99514 78.21742 93.24544 19.88758 
150 100.0000 100.0000 39.00696 79.48740 93.75335 26.57670 
151 11.64634 46.81457 100.0000 25.96843 21.56613 97.34538 
152 17.46290 60.32972 100.0000 31.33715 31.51597 98.98323 
153 0.00000 13.63272 31.78752 3.060845 2.765201 8.952637 
154 15.64724 18.05992 41.67025 5.420997 4.418630 15.00060 
155 15.88626 18.60571 58.61824 8.319054 5.668018 29.87163 
156 33.08727 29.30574 70.90423 15.36403 11.12348 45.38645 
157 51.87441 34.42160 80.37457 24.80625 17.11394 60.02620 
158 62.66517 42.76003 89.46326 34.61409 24.76730 76.59929 
159 100.0000 47.73994 35.34141 50.52097 36.50011 14.85014 
160 100.0000 61.48909 39.14058 56.00186 46.76281 18.82834 
161 100.0000 62.96474 67.77765 61.82468 50.11389 46.34493 
162 22.41416 84.30502 15.05054 27.08562 50.10764 10.95317 
163 25.48234 92.51702 23.52421 33.63877 61.77587 15.24419 
164 18.49407 84.51092 0.00000 26.35427 49.96807 9.116902 
165 37.26505 84.42178 0.00000 29.80395 51.66148 9.262090 
166 55.17329 86.35178 9.315094 37.37476 57.41884 10.81721 
167 46.77176 0.00000 48.60097 12.16642 6.341297 20.30466 
168 64.61241 0.00000 85.80290 28.94686 13.94827 68.25720 
169 100.0000 35.79719 86.82542 58.53340 34.69632 72.49801 
170 100.0000 100.0000 100.0000 95.10649 100.0000 108.8440 
171 34.34916 0.00000 58.40938 10.31284 5.180992 29.45144 
172 49.11542 0.00000 81.88925 20.78097 9.883749 61.29261 
173 60.82752 20.44088 81.95037 27.01680 14.90932 62.03439 
174 0.00000 0.00000 22.54997 1.743676 1.297423 4.917016 
175 0.00000 14.93718 84.30231 13.82956 7.233396 65.17481 
176 0.00000 38.48700 84.76511 17.62868 14.58949 67.18473 
177 14.99034 24.67029 30.44088 4.902749 5.460802 8.723617 
178 19.08052 42.16557 33.38938 9.126310 12.80739 11.39169 
179 32.92956 45.84548 43.19587 13.69918 16.55563 17.98497 
180 44.40247 59.35368 57.11846 23.89433 28.55786 31.90385 
181 88.23262 0.00000 0.00000 31.74065 16.84998 2.440453 
182 100.0000 19.52784 15.31497 43.31429 24.43855 5.201132 
183 0.00000 61.18269 17.09986 13.21594 24.72010 7.256645 
184 0.00000 73.61788 28.04295 19.88914 36.94552 12.93238 
185 14.32593 34.36936 0.00000 5.164880 8.232107 2.176651 
186 31.92997 38.52218 0.00000 8.741319 11.44117 2.607730 
187 48.46209 44.14088 16.41574 15.37863 16.97096 5.481841 
188 58.69833 55.87186 20.54185 23.66373 26.93064 8.073851 
189 64.22686 81.25523 34.12466 39.95611 53.74665 18.06310 
190 0.00000 100.0000 100.0000 54.27632 78.94783 106.9308 
191 13.31213 100.0000 100.0000 54.92768 79.28368 106.9613 
192 51.65206 100.0000 100.0000 63.65305 83.78251 107.3702 
193 0.00000 0.00000 86.07768 13.72450 6.088997 68.02125 
194 13.73917 0.00000 100.0000 19.55853 8.501751 95.16117 
195 27.86799 0.00000 100.0000 21.44842 9.476186 95.24973 
196 36.04760 14.63226 100.0000 23.89777 11.72552 95.55491 
197 82.75928 51.75202 100.0000 53.64343 38.19393 99.09744 
198 100.0000 62.06723 100.0000 71.85272 53.49897 101.0927 
199 0.00000 13.25978 0.00000 1.561058 2.121959 1.187021 
200 0.00000 16.56132 15.93866 2.218037 2.811595 3.330874 
201 0.00000 19.08297 45.32613 5.170549 4.385251 17.67053 
202 11.95633 30.53426 51.55691 8.319778 8.290128 23.45206 
203 10.11717 54.39444 84.73442 22.79674 24.32179 68.73858 
204 30.17553 74.26940 100.0000 39.99665 45.90161 101.3040 
205 35.10017 87.47520 100.0000 49.14040 62.55237 104.0365 
206 0.00000 68.59460 42.46298 18.85650 32.39697 20.24754 
207 0.00000 88.54075 54.54183 32.48697 56.57425 34.28938 
208 35.92781 100.0000 58.72912 46.16837 76.20622 41.61194 
209 47.25901 100.0000 66.88481 51.38027 78.68474 51.27731 
210 100.0000 100.0000 76.21651 86.91569 96.72420 65.70224 
211 100.0000 100.0000 88.23162 90.69002 98.23369 85.58206 
212 0.00000 0.00000 0.00000 1.000000 1.000000 1.000000 
213 0.00000 100.0000 0.00000 36.40521 71.80052 12.80184 
214 13.25232 100.0000 0.00000 37.05162 72.13381 12.83212 
215 26.35892 100.0000 0.00000 38.71158 72.98969 12.90991 
216 37.84788 100.0000 15.28843 41.59700 74.43551 14.93662 
217 83.33075 83.20448 0.00000 51.37496 61.63111 10.05041 
218 100.0000 87.11890 0.00000 67.73259 73.84976 11.54744 
219 100.0000 87.41775 35.64511 69.79876 74.99772 21.43829 
220 0.00000 100.0000 12.97366 36.67815 71.90968 14.23946 
221 18.25722 100.0000 15.79657 37.92964 72.54211 14.87765 
222 32.26536 100.0000 29.88943 41.17327 74.10868 19.80687 
223 47.02167 100.0000 32.35213 45.58769 76.35844 21.20202 
224 83.09754 21.98039 57.15719 34.37291 19.69677 29.68129 
225 100.0000 38.71015 60.14152 51.94302 33.12052 34.51694 
226 62.60084 0.00000 14.77228 15.62155 8.499464 3.465890 
227 69.52708 0.00000 26.33339 20.02521 10.69292 7.151119 
228 80.67027 23.41040 25.77600 28.67064 17.50640 7.791725 
229 82.93123 34.17888 38.44137 33.30270 22.42934 14.88466 
230 46.62696 14.21053 14.20462 9.468777 6.267246 3.241223 
231 64.67254 21.02926 16.09213 18.03107 11.64817 4.239061 
232 63.71593 90.15166 43.81891 46.71417 65.76994 26.19985 
233 72.11886 100.0000 71.81606 64.42900 85.26928 58.36197 
234 0.00000 85.31656 38.49415 27.89937 51.28730 20.77271 
235 29.32492 85.04493 37.83544 30.50019 52.37461 20.43731 
236 18.75546 83.69498 45.17352 28.93700 50.16810 25.13946 
237 39.71451 100.0000 44.83130 44.77413 75.76564 28.98638 
238 53.46206 100.0000 50.22947 50.37374 78.55589 33.62333 
239 61.29149 36.70163 12.07622 18.79943 15.97743 4.223345 
240 70.59899 44.09408 33.41001 27.05767 22.83216 12.39323 
241 77.03252 50.01429 80.01035 42.02744 32.15920 61.44314 
242 56.59801 0.00000 100.0000 30.31468 14.04766 95.66519 
243 65.88235 14.22587 100.0000 35.49199 17.65642 96.08910 
244 68.82295 30.08031 100.0000 39.09275 22.44296 96.82340 
245 32.33635 69.52512 64.97723 26.89415 36.75209 42.11749 
246 61.06984 100.0000 64.51991 56.60877 81.44471 48.62787 
247 84.38367 100.0000 66.36802 71.31557 88.97772 51.56742 
248 0.00000 86.28806 0.00000 26.34826 51.68943 9.449491 
249 39.06448 100.0000 0.00000 41.56638 74.46164 13.04368 
250 75.44238 100.0000 0.00000 58.02232 82.94637 13.81478 
251 84.80219 100.0000 18.22610 65.01219 86.49281 16.73995 
252 80.66900 86.99690 27.79472 53.06264 66.03468 16.69444 
253 83.99580 88.31019 49.15016 58.90601 70.06980 30.60723 
254 13.49141 54.24358 0.00000 10.71036 19.42903 4.045914 
255 19.62993 63.97199 14.86388 15.63977 27.78691 7.207424 
256 24.79450 73.26767 37.43308 22.66831 37.99274 17.82851 
257 0.00000 57.62416 31.51175 12.76785 22.21811 12.06004 
258 0.00000 57.73029 65.05709 18.16814 24.44458 40.29821 
259 16.13038 62.85113 65.97015 21.42166 29.25807 42.17410 
260 14.51731 72.93889 100.0000 37.01064 43.29924 100.9589 
261 0.00000 27.76291 100.0000 21.08913 12.58274 95.86831 
262 0.00000 40.36481 100.0000 23.66637 17.73650 96.72739 
263 0.00000 52.79651 100.0000 27.39825 25.19921 97.97136 
264 0.00000 64.05806 100.0000 31.89963 34.20072 99.47184 
265 0.00000 87.85105 100.0000 45.26767 60.93305 103.9279 
266 26.39815 100.0000 100.0000 56.58951 80.14052 107.0392 
267 39.62078 100.0000 100.0000 59.59347 81.68937 107.1799 
268 36.32667 33.84852 20.10447 9.349728 10.16276 5.461101 
269 45.45748 44.15223 31.92488 15.40676 16.86591 11.09269 
270 66.51915 65.73880 36.83116 33.12608 37.80955 16.88155 
271 88.62107 66.03864 57.66535 51.20185 46.96435 34.58358 
272 71.94324 0.00000 100.0000 38.31287 18.17155 96.03997 
273 85.80314 0.00000 100.0000 47.73407 23.02915 96.48143 
274 100.0000 0.00000 100.0000 59.70128 29.19948 97.04219 
275 100.0000 12.35580 100.0000 60.19962 30.19604 97.20831 
276 52.43716 81.59915 0.00000 33.03974 50.69112 8.904360 
277 66.08243 86.92823 0.00000 42.87036 60.84106 10.34583 
278 26.08374 50.66313 0.00000 11.05615 17.75710 3.704968 
279 27.88913 51.33911 23.54339 12.41414 18.70086 8.054037 
280 55.29276 57.12973 40.22718 24.40607 27.82181 17.54284 
281 57.05378 71.07941 100.0000 46.92811 46.96916 101.1450 
282 71.58764 74.13374 100.0000 56.12510 54.10798 102.0386 
283 0.00000 26.52956 0.00000 3.025740 5.050914 1.675252 
284 0.00000 43.33748 0.00000 6.575309 12.14906 2.858452 
285 0.00000 48.40964 13.26211 8.350701 15.24615 4.847911 
286 0.00000 70.00161 72.91768 25.63071 36.22639 52.47342 
287 0.00000 83.04072 84.73785 36.53129 52.40367 73.44170 
288 25.31275 90.33600 91.32336 45.78772 64.13557 87.07855 
289 55.91010 62.85146 0.00000 24.63437 31.72657 5.686344 
290 87.83837 100.0000 0.00000 66.83646 87.49097 14.22779 
291 100.0000 100.0000 0.00000 77.23538 92.85269 14.71507 
292 43.97591 15.17106 39.06744 10.60069 6.739808 13.44722 
293 53.64583 14.07486 50.92454 15.78229 9.083616 22.64657 
294 65.97239 15.32140 63.01021 24.09800 13.24540 35.39038 
295 42.36621 0.00000 32.20316 8.639310 4.763925 9.252799 
296 71.61582 0.00000 40.50770 22.68367 11.89811 14.74610 
297 79.31824 19.07655 40.66636 28.71680 16.59860 15.44174 
298 100.0000 38.12990 46.16050 49.30416 31.84592 21.29388 
299 100.0000 53.60079 52.04029 54.81375 41.34242 27.82169 
300 63.28228 0.00000 0.00000 15.62578 8.541099 1.685338 
301 65.64566 15.37070 0.00000 17.58572 10.62717 1.984784 
302 87.32463 36.98225 0.00000 35.02068 24.46262 3.737161 
303 100.0000 51.88718 20.04915 50.63593 38.71037 8.780938 
304 42.82173 0.00000 100.0000 25.13894 11.37903 95.42266 
305 42.67225 69.20694 100.0000 40.55671 42.27917 100.5753 
306 0.00000 34.36456 69.13414 12.21253 10.96368 43.15904 
307 16.44087 46.30047 72.10290 16.91587 17.74795 48.22750 
308 0.00000 51.89150 75.55073 18.70497 21.21970 53.73350 
309 33.29994 60.29047 76.16881 25.76681 29.56862 55.88879 
310 60.54806 36.70519 30.73560 19.57165 16.24575 10.17274 
311 71.60900 100.0000 29.11160 56.87782 82.21381 20.19051 
312 83.60279 100.0000 37.41158 65.68997 86.66120 24.94406 
313 100.0000 100.0000 50.99960 81.22797 94.44947 35.74443 
314 100.0000 100.0000 63.74805 83.74152 95.45473 48.98360 
315 100.0000 30.95596 0.00000 44.59397 27.57899 3.834503 
316 100.0000 39.30669 12.04695 46.60543 31.21543 5.695164 
317 100.0000 37.10525 100.0000 63.71893 37.23367 98.38142 
318 100.0000 49.18696 100.0000 67.01574 43.82636 99.48036 
319 30.79928 0.00000 42.76197 6.889753 3.720399 15.55468 
320 30.40956 12.12202 52.51563 8.811209 5.251954 23.71413 
321 0.00000 28.16263 30.54523 4.640157 6.107388 8.911608 
322 0.00000 35.70465 47.75927 8.172863 9.800587 20.48612 
323 17.94605 69.73810 81.11057 28.96487 37.47562 64.92058 
324 30.95855 69.36922 81.70070 31.04618 38.25385 65.91995 
325 21.70922 16.18716 17.77121 3.849024 3.593299 3.840852 
326 47.00695 24.01655 19.89020 10.90114 8.508416 4.997517 
327 72.08975 30.60291 35.49896 25.07942 17.20863 12.55545 
328 72.26817 32.58699 89.61428 37.64393 22.83792 76.34538 
329 34.58316 40.46558 54.50816 14.43636 14.54850 27.09529 
330 41.60980 42.81108 67.33388 19.67354 17.84064 41.76984 
331 42.17973 50.27743 86.60907 27.64166 24.62644 71.79930 
332 51.80703 54.96156 100.0000 37.61603 31.62499 98.67358 
333 68.20700 59.46731 100.0000 47.19662 39.16539 99.62450 
334 0.00000 84.64064 69.59266 33.17283 52.69393 50.71480 
335 15.43547 86.11541 74.79978 36.35834 55.60740 58.34217 
336 100.0000 64.77507 14.03232 55.49534 48.87956 9.007662 
337 100.0000 70.00104 29.04482 58.91774 54.26132 14.65757 
338 100.0000 80.37766 46.48938 66.70609 66.56584 27.33843 
339 49.41061 0.00000 19.53229 10.08416 5.618365 4.379854 
340 57.39567 0.00000 34.67754 14.56113 7.788406 10.83140 
341 59.24997 0.00000 54.03624 18.17885 9.333836 25.43759 
342 66.52084 0.00000 70.46022 25.45701 12.67048 44.55358 
343 81.90055 0.00000 84.17031 39.08787 19.23893 65.93763 
344 100.0000 16.02096 84.26467 54.73850 28.46261 67.05407 
345 100.0000 69.10670 84.09920 69.31930 57.70587 71.64999 
346 100.0000 75.10245 100.0000 78.25782 66.30738 103.2278 
347 0.00000 41.22772 37.50706 8.088799 11.85742 13.59634 
348 0.00000 52.16652 47.22170 12.68923 18.96540 21.58039 
349 33.68973 100.0000 72.93697 48.97047 77.26436 59.19282 
350 52.84571 100.0000 81.76317 57.59172 81.41352 72.95496 
351 67.24835 100.0000 86.06537 65.85772 85.51500 80.58549 
352 0.00000 32.41340 14.92565 4.383783 7.210936 3.841682 
353 0.00000 44.81686 25.70701 7.949886 13.36105 8.056112 
354 7.806245 49.68744 36.13424 10.67867 16.86389 13.61182 
355 19.61339 58.72041 49.10346 16.73818 24.65329 24.02181 
356 25.67566 67.13047 53.14750 22.00867 32.77645 28.91955 
357 52.57871 73.47158 73.48034 37.33446 44.92397 54.33151 
358 55.29043 86.88130 83.56741 49.52038 62.84641 72.78706 
359 65.45377 86.69676 100.0000 60.24965 67.50528 104.4074 
360 85.07663 0.00000 35.09703 31.12089 16.32153 11.83948 
361 100.0000 24.32638 49.55806 47.28990 26.96698 23.24690 
362 100.0000 25.55669 61.71662 49.76881 28.23663 35.44550 
363 34.41609 0.00000 14.05352 5.274959 3.168001 2.833279 
364 39.41941 16.50027 26.22704 8.082274 5.756591 6.785023 
365 13.24230 0.00000 0.00000 1.645580 1.332863 1.030251 
366 14.52923 0.00000 33.41823 3.389101 2.043064 9.631245 
367 17.40448 0.00000 50.03120 5.874997 3.070526 21.22361 
368 49.15440 45.77677 54.10601 20.23018 19.69123 27.39563 
369 49.99648 50.70371 64.71415 24.27496 23.81484 39.44026 
370 60.26172 53.65648 64.36012 29.60857 28.09002 39.55937 
371 63.56932 66.53253 70.48209 38.07069 40.20149 49.23296 
372 74.01133 81.47585 80.16168 54.82631 60.55793 66.49149 
373 100.0000 0.00000 75.28509 51.24778 25.81862 52.51673 
374 100.0000 0.00000 87.60739 55.07077 27.34757 72.65281 
375 100.0000 24.69141 100.0000 61.45913 32.71469 97.62814 
376 83.67552 70.40334 83.98852 56.37916 52.00389 71.04336 
377 83.76460 84.77934 100.0000 70.57133 70.95688 104.5301 
378 100.0000 87.81479 100.0000 86.07324 81.93603 105.8329 
379 0.00000 0.00000 11.03211 1.209090 1.083623 2.101299 
380 16.82974 0.00000 15.65777 2.360853 1.657940 3.036935 
381 28.70087 0.00000 26.99043 4.792593 2.833078 6.701660 
382 86.53176 0.00000 53.72959 34.89021 17.95672 25.92957 
383 88.55128 21.16603 68.62486 40.95745 22.65268 43.23600 
384 65.14852 21.20904 47.22111 21.28774 13.01336 19.97813 
385 75.40793 46.22463 53.19154 33.36885 26.68087 27.18589 
386 76.30781 58.57977 53.17788 38.24821 35.57993 28.63388 
387 14.52372 15.18733 0.00000 2.466128 2.808920 1.271956 
388 15.63828 35.47488 18.93848 6.054402 8.973925 5.073701 
389 82.49165 37.98591 17.84304 32.11244 23.24909 6.164895 
390 100.0000 40.47926 73.95097 55.70285 35.31776 52.18140 
391 100.0000 53.86652 83.30616 62.55755 44.59205 68.13840 
392 47.54971 80.98697 18.10801 31.30918 49.18517 11.28251 
393 50.76553 84.57955 30.77445 35.64048 54.66236 16.76051 
394 14.48490 68.82587 0.00000 17.02868 31.93516 6.127187 
395 25.50551 74.08324 25.83099 22.12904 38.49371 12.20881 
396 55.62167 79.41542 45.79178 36.21164 49.99933 25.19981 
397 86.11707 83.80770 67.22883 61.15584 66.39597 48.82450 
398 85.40961 83.85575 81.21610 64.49436 67.71817 69.05778 
399 26.34575 0.00000 0.00000 3.304086 2.187994 1.107965 
400 32.83227 13.43814 0.00000 5.169205 4.001458 1.359784 
401 49.11323 16.80601 0.00000 10.25806 7.035143 1.677353 
402 52.53562 34.27984 45.99432 17.33177 14.10840 19.42390 
403 59.43525 62.58580 52.16495 30.30836 33.99462 27.80788 
404 76.34487 64.71452 67.61372 43.93780 42.05825 45.52259 
